dist-classic-addon/assets/luts/open/t3-hp5-400.cube
TITLE "HP5 400 Monochrome Emulation"
LUT_3D_SIZE 5
DOMAIN_MIN 0.0 0.0 0.0
DOMAIN_MAX 1.0 1.0 1.0
# Converted from an MIT-licensed t3mujinpack Hald CLUT by PhotoAtelier.
0.00000000 0.00000000 0.00000000
0.03921569 0.03921569 0.03921569
0.13333333 0.13333333 0.13333333
0.25490196 0.25490196 0.25490196
0.40784314 0.40784314 0.40784314
0.09411765 0.09411765 0.09411765
0.11764706 0.11764706 0.11764706
0.18823529 0.18823529 0.18823529
0.30196078 0.30196078 0.30196078
0.44705882 0.44705882 0.44705882
0.27058824 0.27058824 0.27058824
0.28627451 0.28627451 0.28627451
0.34117647 0.34117647 0.34117647
0.43137255 0.43137255 0.43137255
0.54509804 0.54509804 0.54509804
0.49411765 0.49411765 0.49411765
0.50588235 0.50588235 0.50588235
0.54509804 0.54509804 0.54509804
0.61176471 0.61176471 0.61176471
0.70980392 0.70980392 0.70980392
0.75294118 0.75294118 0.75294118
0.76470588 0.76470588 0.76470588
0.79215686 0.79215686 0.79215686
0.83529412 0.83529412 0.83529412
0.88235294 0.88235294 0.88235294
0.08235294 0.08235294 0.08235294
0.10588235 0.10588235 0.10588235
0.18039216 0.18039216 0.18039216
0.29411765 0.29411765 0.29411765
0.43921569 0.43921569 0.43921569
0.14117647 0.14117647 0.14117647
0.16470588 0.16470588 0.16470588
0.23137255 0.23137255 0.23137255
0.33725490 0.33725490 0.33725490
0.47450980 0.47450980 0.47450980
0.30588235 0.30588235 0.30588235
0.32549020 0.32549020 0.32549020
0.37647059 0.37647059 0.37647059
0.45882353 0.45882353 0.45882353
0.56862745 0.56862745 0.56862745
0.52156863 0.52156863 0.52156863
0.53333333 0.53333333 0.53333333
0.56862745 0.56862745 0.56862745
0.63529412 0.63529412 0.63529412
0.73333333 0.73333333 0.73333333
0.77254902 0.77254902 0.77254902
0.78039216 0.78039216 0.78039216
0.80784314 0.80784314 0.80784314
0.84705882 0.84705882 0.84705882
0.89411765 0.89411765 0.89411765
0.23137255 0.23137255 0.23137255
0.25098039 0.25098039 0.25098039
0.30980392 0.30980392 0.30980392
0.40392157 0.40392157 0.40392157
0.52549020 0.52549020 0.52549020
0.28235294 0.28235294 0.28235294
0.29803922 0.29803922 0.29803922
0.35294118 0.35294118 0.35294118
0.43921569 0.43921569 0.43921569
0.55294118 0.55294118 0.55294118
0.41176471 0.41176471 0.41176471
0.42745098 0.42745098 0.42745098
0.47058824 0.47058824 0.47058824
0.54117647 0.54117647 0.54117647
0.64705882 0.64705882 0.64705882
0.59607843 0.59607843 0.59607843
0.60784314 0.60784314 0.60784314
0.64313725 0.64313725 0.64313725
0.70588235 0.70588235 0.70588235
0.79215686 0.79215686 0.79215686
0.82745098 0.82745098 0.82745098
0.83137255 0.83137255 0.83137255
0.85098039 0.85098039 0.85098039
0.88235294 0.88235294 0.88235294
0.91764706 0.91764706 0.91764706
0.43529412 0.43529412 0.43529412
0.45098039 0.45098039 0.45098039
0.49019608 0.49019608 0.49019608
0.56078431 0.56078431 0.56078431
0.66274510 0.66274510 0.66274510
0.47058824 0.47058824 0.47058824
0.48235294 0.48235294 0.48235294
0.52156863 0.52156863 0.52156863
0.58823529 0.58823529 0.58823529
0.69019608 0.69019608 0.69019608
0.56862745 0.56862745 0.56862745
0.58039216 0.58039216 0.58039216
0.61568627 0.61568627 0.61568627
0.67843137 0.67843137 0.67843137
0.76862745 0.76862745 0.76862745
0.72941176 0.72941176 0.72941176
0.74117647 0.74117647 0.74117647
0.76862745 0.76862745 0.76862745
0.81568627 0.81568627 0.81568627
0.87058824 0.87058824 0.87058824
0.89019608 0.89019608 0.89019608
0.89411765 0.89411765 0.89411765
0.90980392 0.90980392 0.90980392
0.92549020 0.92549020 0.92549020
0.95294118 0.95294118 0.95294118
0.66666667 0.66666667 0.66666667
0.67843137 0.67843137 0.67843137
0.70980392 0.70980392 0.70980392
0.76862745 0.76862745 0.76862745
0.83921569 0.83921569 0.83921569
0.69411765 0.69411765 0.69411765
0.70588235 0.70588235 0.70588235
0.73725490 0.73725490 0.73725490
0.78823529 0.78823529 0.78823529
0.85490196 0.85490196 0.85490196
0.77254902 0.77254902 0.77254902
0.78039216 0.78039216 0.78039216
0.80784314 0.80784314 0.80784314
0.84705882 0.84705882 0.84705882
0.89411765 0.89411765 0.89411765
0.87450980 0.87450980 0.87450980
0.87843137 0.87843137 0.87843137
0.89411765 0.89411765 0.89411765
0.91372549 0.91372549 0.91372549
0.94117647 0.94117647 0.94117647
0.95294118 0.95294118 0.95294118
0.95294118 0.95294118 0.95294118
0.96078431 0.96078431 0.96078431
0.97647059 0.97647059 0.97647059
1.00000000 1.00000000 1.00000000
