dist-classic-addon/assets/luts/open/t3-hp5-400.cube
TITLE "HP5 400 Monochrome Emulation"
LUT_3D_SIZE 9
DOMAIN_MIN 0.0 0.0 0.0
DOMAIN_MAX 1.0 1.0 1.0
# Converted from an MIT-licensed t3mujinpack Hald CLUT by PhotoAtelier.
0.00000000 0.00000000 0.00000000
0.00784314 0.00784314 0.00784314
0.03921569 0.03921569 0.03921569
0.08627451 0.08627451 0.08627451
0.13333333 0.13333333 0.13333333
0.18823529 0.18823529 0.18823529
0.25490196 0.25490196 0.25490196
0.32941176 0.32941176 0.32941176
0.40784314 0.40784314 0.40784314
0.02352941 0.02352941 0.02352941
0.03921569 0.03921569 0.03921569
0.07058824 0.07058824 0.07058824
0.10196078 0.10196078 0.10196078
0.14901961 0.14901961 0.14901961
0.20392157 0.20392157 0.20392157
0.27058824 0.27058824 0.27058824
0.34117647 0.34117647 0.34117647
0.41960784 0.41960784 0.41960784
0.09411765 0.09411765 0.09411765
0.09803922 0.09803922 0.09803922
0.11764706 0.11764706 0.11764706
0.14509804 0.14509804 0.14509804
0.18823529 0.18823529 0.18823529
0.23921569 0.23921569 0.23921569
0.30196078 0.30196078 0.30196078
0.37254902 0.37254902 0.37254902
0.44705882 0.44705882 0.44705882
0.16862745 0.16862745 0.16862745
0.17647059 0.17647059 0.17647059
0.19215686 0.19215686 0.19215686
0.21568627 0.21568627 0.21568627
0.25490196 0.25490196 0.25490196
0.30196078 0.30196078 0.30196078
0.35686275 0.35686275 0.35686275
0.41960784 0.41960784 0.41960784
0.48627451 0.48627451 0.48627451
0.27058824 0.27058824 0.27058824
0.27450980 0.27450980 0.27450980
0.28627451 0.28627451 0.28627451
0.30980392 0.30980392 0.30980392
0.34117647 0.34117647 0.34117647
0.38039216 0.38039216 0.38039216
0.43137255 0.43137255 0.43137255
0.48627451 0.48627451 0.48627451
0.54509804 0.54509804 0.54509804
0.37647059 0.37647059 0.37647059
0.38039216 0.38039216 0.38039216
0.39215686 0.39215686 0.39215686
0.41176471 0.41176471 0.41176471
0.43529412 0.43529412 0.43529412
0.47058824 0.47058824 0.47058824
0.51372549 0.51372549 0.51372549
0.56078431 0.56078431 0.56078431
0.61960784 0.61960784 0.61960784
0.49411765 0.49411765 0.49411765
0.49803922 0.49803922 0.49803922
0.50588235 0.50588235 0.50588235
0.52156863 0.52156863 0.52156863
0.54509804 0.54509804 0.54509804
0.57254902 0.57254902 0.57254902
0.61176471 0.61176471 0.61176471
0.65882353 0.65882353 0.65882353
0.70980392 0.70980392 0.70980392
0.61960784 0.61960784 0.61960784
0.62352941 0.62352941 0.62352941
0.63137255 0.63137255 0.63137255
0.64313725 0.64313725 0.64313725
0.66666667 0.66666667 0.66666667
0.69019608 0.69019608 0.69019608
0.72549020 0.72549020 0.72549020
0.76470588 0.76470588 0.76470588
0.80784314 0.80784314 0.80784314
0.75294118 0.75294118 0.75294118
0.75686275 0.75686275 0.75686275
0.76470588 0.76470588 0.76470588
0.77254902 0.77254902 0.77254902
0.79215686 0.79215686 0.79215686
0.80784314 0.80784314 0.80784314
0.83529412 0.83529412 0.83529412
0.85882353 0.85882353 0.85882353
0.88235294 0.88235294 0.88235294
0.01960784 0.01960784 0.01960784
0.03137255 0.03137255 0.03137255
0.06666667 0.06666667 0.06666667
0.09803922 0.09803922 0.09803922
0.14509804 0.14509804 0.14509804
0.20000000 0.20000000 0.20000000
0.26666667 0.26666667 0.26666667
0.34117647 0.34117647 0.34117647
0.41960784 0.41960784 0.41960784
0.05490196 0.05490196 0.05490196
0.06666667 0.06666667 0.06666667
0.08627451 0.08627451 0.08627451
0.11764706 0.11764706 0.11764706
0.16078431 0.16078431 0.16078431
0.21568627 0.21568627 0.21568627
0.27843137 0.27843137 0.27843137
0.35294118 0.35294118 0.35294118
0.42745098 0.42745098 0.42745098
0.10588235 0.10588235 0.10588235
0.11372549 0.11372549 0.11372549
0.12941176 0.12941176 0.12941176
0.16078431 0.16078431 0.16078431
0.20000000 0.20000000 0.20000000
0.25098039 0.25098039 0.25098039
0.31372549 0.31372549 0.31372549
0.38039216 0.38039216 0.38039216
0.45490196 0.45490196 0.45490196
0.18039216 0.18039216 0.18039216
0.18823529 0.18823529 0.18823529
0.20392157 0.20392157 0.20392157
0.22745098 0.22745098 0.22745098
0.26666667 0.26666667 0.26666667
0.30980392 0.30980392 0.30980392
0.36470588 0.36470588 0.36470588
0.42745098 0.42745098 0.42745098
0.49411765 0.49411765 0.49411765
0.27843137 0.27843137 0.27843137
0.28627451 0.28627451 0.28627451
0.29803922 0.29803922 0.29803922
0.32156863 0.32156863 0.32156863
0.35294118 0.35294118 0.35294118
0.38823529 0.38823529 0.38823529
0.43921569 0.43921569 0.43921569
0.49411765 0.49411765 0.49411765
0.55294118 0.55294118 0.55294118
0.38431373 0.38431373 0.38431373
0.38823529 0.38823529 0.38823529
0.40000000 0.40000000 0.40000000
0.41960784 0.41960784 0.41960784
0.44705882 0.44705882 0.44705882
0.47843137 0.47843137 0.47843137
0.51764706 0.51764706 0.51764706
0.56862745 0.56862745 0.56862745
0.62352941 0.62352941 0.62352941
0.50196078 0.50196078 0.50196078
0.50588235 0.50588235 0.50588235
0.51372549 0.51372549 0.51372549
0.52941176 0.52941176 0.52941176
0.54901961 0.54901961 0.54901961
0.58039216 0.58039216 0.58039216
0.61568627 0.61568627 0.61568627
0.66274510 0.66274510 0.66274510
0.71764706 0.71764706 0.71764706
0.62352941 0.62352941 0.62352941
0.62745098 0.62745098 0.62745098
0.63529412 0.63529412 0.63529412
0.65098039 0.65098039 0.65098039
0.67058824 0.67058824 0.67058824
0.69803922 0.69803922 0.69803922
0.73333333 0.73333333 0.73333333
0.76862745 0.76862745 0.76862745
0.81176471 0.81176471 0.81176471
0.76078431 0.76078431 0.76078431
0.76078431 0.76078431 0.76078431
0.76862745 0.76862745 0.76862745
0.78039216 0.78039216 0.78039216
0.79607843 0.79607843 0.79607843
0.81568627 0.81568627 0.81568627
0.83921569 0.83921569 0.83921569
0.86274510 0.86274510 0.86274510
0.88627451 0.88627451 0.88627451
0.08235294 0.08235294 0.08235294
0.09019608 0.09019608 0.09019608
0.10588235 0.10588235 0.10588235
0.13725490 0.13725490 0.13725490
0.18039216 0.18039216 0.18039216
0.23137255 0.23137255 0.23137255
0.29411765 0.29411765 0.29411765
0.36470588 0.36470588 0.36470588
0.43921569 0.43921569 0.43921569
0.09803922 0.09803922 0.09803922
0.10588235 0.10588235 0.10588235
0.12156863 0.12156863 0.12156863
0.15294118 0.15294118 0.15294118
0.19607843 0.19607843 0.19607843
0.24705882 0.24705882 0.24705882
0.30588235 0.30588235 0.30588235
0.37647059 0.37647059 0.37647059
0.45098039 0.45098039 0.45098039
0.14117647 0.14117647 0.14117647
0.14901961 0.14901961 0.14901961
0.16470588 0.16470588 0.16470588
0.19215686 0.19215686 0.19215686
0.23137255 0.23137255 0.23137255
0.27843137 0.27843137 0.27843137
0.33725490 0.33725490 0.33725490
0.40392157 0.40392157 0.40392157
0.47450980 0.47450980 0.47450980
0.21568627 0.21568627 0.21568627
0.21960784 0.21960784 0.21960784
0.23529412 0.23529412 0.23529412
0.25882353 0.25882353 0.25882353
0.29411765 0.29411765 0.29411765
0.33725490 0.33725490 0.33725490
0.38823529 0.38823529 0.38823529
0.45098039 0.45098039 0.45098039
0.51372549 0.51372549 0.51372549
0.30588235 0.30588235 0.30588235
0.30980392 0.30980392 0.30980392
0.32549020 0.32549020 0.32549020
0.34509804 0.34509804 0.34509804
0.37647059 0.37647059 0.37647059
0.41176471 0.41176471 0.41176471
0.45882353 0.45882353 0.45882353
0.50980392 0.50980392 0.50980392
0.56862745 0.56862745 0.56862745
0.40784314 0.40784314 0.40784314
0.41176471 0.41176471 0.41176471
0.42352941 0.42352941 0.42352941
0.43921569 0.43921569 0.43921569
0.46666667 0.46666667 0.46666667
0.49803922 0.49803922 0.49803922
0.53725490 0.53725490 0.53725490
0.58431373 0.58431373 0.58431373
0.64313725 0.64313725 0.64313725
0.52156863 0.52156863 0.52156863
0.52156863 0.52156863 0.52156863
0.53333333 0.53333333 0.53333333
0.54509804 0.54509804 0.54509804
0.56862745 0.56862745 0.56862745
0.59607843 0.59607843 0.59607843
0.63529412 0.63529412 0.63529412
0.68235294 0.68235294 0.68235294
0.73333333 0.73333333 0.73333333
0.64313725 0.64313725 0.64313725
0.64705882 0.64705882 0.64705882
0.65490196 0.65490196 0.65490196
0.66666667 0.66666667 0.66666667
0.68627451 0.68627451 0.68627451
0.71372549 0.71372549 0.71372549
0.74509804 0.74509804 0.74509804
0.78431373 0.78431373 0.78431373
0.82352941 0.82352941 0.82352941
0.77254902 0.77254902 0.77254902
0.77647059 0.77647059 0.77647059
0.78039216 0.78039216 0.78039216
0.79215686 0.79215686 0.79215686
0.80784314 0.80784314 0.80784314
0.82352941 0.82352941 0.82352941
0.84705882 0.84705882 0.84705882
0.87058824 0.87058824 0.87058824
0.89411765 0.89411765 0.89411765
0.14509804 0.14509804 0.14509804
0.15294118 0.15294118 0.15294118
0.16862745 0.16862745 0.16862745
0.19607843 0.19607843 0.19607843
0.23529412 0.23529412 0.23529412
0.28235294 0.28235294 0.28235294
0.34117647 0.34117647 0.34117647
0.40392157 0.40392157 0.40392157
0.47450980 0.47450980 0.47450980
0.16078431 0.16078431 0.16078431
0.16862745 0.16862745 0.16862745
0.18431373 0.18431373 0.18431373
0.21176471 0.21176471 0.21176471
0.25098039 0.25098039 0.25098039
0.29411765 0.29411765 0.29411765
0.35294118 0.35294118 0.35294118
0.41568627 0.41568627 0.41568627
0.48235294 0.48235294 0.48235294
0.20000000 0.20000000 0.20000000
0.20784314 0.20784314 0.20784314
0.22352941 0.22352941 0.22352941
0.24705882 0.24705882 0.24705882
0.28235294 0.28235294 0.28235294
0.32549020 0.32549020 0.32549020
0.38039216 0.38039216 0.38039216
0.44313725 0.44313725 0.44313725
0.50588235 0.50588235 0.50588235
0.26666667 0.26666667 0.26666667
0.27058824 0.27058824 0.27058824
0.28627451 0.28627451 0.28627451
0.30588235 0.30588235 0.30588235
0.34117647 0.34117647 0.34117647
0.38039216 0.38039216 0.38039216
0.42745098 0.42745098 0.42745098
0.48627451 0.48627451 0.48627451
0.54509804 0.54509804 0.54509804
0.35294118 0.35294118 0.35294118
0.35686275 0.35686275 0.35686275
0.36862745 0.36862745 0.36862745
0.38823529 0.38823529 0.38823529
0.41568627 0.41568627 0.41568627
0.45098039 0.45098039 0.45098039
0.49411765 0.49411765 0.49411765
0.54117647 0.54117647 0.54117647
0.60000000 0.60000000 0.60000000
0.44705882 0.44705882 0.44705882
0.45098039 0.45098039 0.45098039
0.45882353 0.45882353 0.45882353
0.47450980 0.47450980 0.47450980
0.49803922 0.49803922 0.49803922
0.52941176 0.52941176 0.52941176
0.56862745 0.56862745 0.56862745
0.61568627 0.61568627 0.61568627
0.67058824 0.67058824 0.67058824
0.54901961 0.54901961 0.54901961
0.55294118 0.55294118 0.55294118
0.56078431 0.56078431 0.56078431
0.57647059 0.57647059 0.57647059
0.60000000 0.60000000 0.60000000
0.62745098 0.62745098 0.62745098
0.66274510 0.66274510 0.66274510
0.70980392 0.70980392 0.70980392
0.75686275 0.75686275 0.75686275
0.67058824 0.67058824 0.67058824
0.67450980 0.67450980 0.67450980
0.68235294 0.68235294 0.68235294
0.69411765 0.69411765 0.69411765
0.71764706 0.71764706 0.71764706
0.74117647 0.74117647 0.74117647
0.77254902 0.77254902 0.77254902
0.80392157 0.80392157 0.80392157
0.83921569 0.83921569 0.83921569
0.79607843 0.79607843 0.79607843
0.79607843 0.79607843 0.79607843
0.80392157 0.80392157 0.80392157
0.81176471 0.81176471 0.81176471
0.82745098 0.82745098 0.82745098
0.84313725 0.84313725 0.84313725
0.86274510 0.86274510 0.86274510
0.88235294 0.88235294 0.88235294
0.90196078 0.90196078 0.90196078
0.23137255 0.23137255 0.23137255
0.23921569 0.23921569 0.23921569
0.25098039 0.25098039 0.25098039
0.27450980 0.27450980 0.27450980
0.30980392 0.30980392 0.30980392
0.35294118 0.35294118 0.35294118
0.40392157 0.40392157 0.40392157
0.46274510 0.46274510 0.46274510
0.52549020 0.52549020 0.52549020
0.24705882 0.24705882 0.24705882
0.25098039 0.25098039 0.25098039
0.26666667 0.26666667 0.26666667
0.29019608 0.29019608 0.29019608
0.32156863 0.32156863 0.32156863
0.36470588 0.36470588 0.36470588
0.41568627 0.41568627 0.41568627
0.47058824 0.47058824 0.47058824
0.53333333 0.53333333 0.53333333
0.28235294 0.28235294 0.28235294
0.28627451 0.28627451 0.28627451
0.29803922 0.29803922 0.29803922
0.32156863 0.32156863 0.32156863
0.35294118 0.35294118 0.35294118
0.39215686 0.39215686 0.39215686
0.43921569 0.43921569 0.43921569
0.49411765 0.49411765 0.49411765
0.55294118 0.55294118 0.55294118
0.33725490 0.33725490 0.33725490
0.34117647 0.34117647 0.34117647
0.35294118 0.35294118 0.35294118
0.37254902 0.37254902 0.37254902
0.40392157 0.40392157 0.40392157
0.43921569 0.43921569 0.43921569
0.48235294 0.48235294 0.48235294
0.53333333 0.53333333 0.53333333
0.59215686 0.59215686 0.59215686
0.41176471 0.41176471 0.41176471
0.41960784 0.41960784 0.41960784
0.42745098 0.42745098 0.42745098
0.44705882 0.44705882 0.44705882
0.47058824 0.47058824 0.47058824
0.50196078 0.50196078 0.50196078
0.54117647 0.54117647 0.54117647
0.58823529 0.58823529 0.58823529
0.64705882 0.64705882 0.64705882
0.49803922 0.49803922 0.49803922
0.50196078 0.50196078 0.50196078
0.50980392 0.50980392 0.50980392
0.52549020 0.52549020 0.52549020
0.54509804 0.54509804 0.54509804
0.57647059 0.57647059 0.57647059
0.61176471 0.61176471 0.61176471
0.65882353 0.65882353 0.65882353
0.71372549 0.71372549 0.71372549
0.59607843 0.59607843 0.59607843
0.60000000 0.60000000 0.60000000
0.60784314 0.60784314 0.60784314
0.62352941 0.62352941 0.62352941
0.64313725 0.64313725 0.64313725
0.67058824 0.67058824 0.67058824
0.70588235 0.70588235 0.70588235
0.74901961 0.74901961 0.74901961
0.79215686 0.79215686 0.79215686
0.71372549 0.71372549 0.71372549
0.71764706 0.71764706 0.71764706
0.72549020 0.72549020 0.72549020
0.73725490 0.73725490 0.73725490
0.75294118 0.75294118 0.75294118
0.77647059 0.77647059 0.77647059
0.80392157 0.80392157 0.80392157
0.83529412 0.83529412 0.83529412
0.86274510 0.86274510 0.86274510
0.82745098 0.82745098 0.82745098
0.82745098 0.82745098 0.82745098
0.83137255 0.83137255 0.83137255
0.83921569 0.83921569 0.83921569
0.85098039 0.85098039 0.85098039
0.86666667 0.86666667 0.86666667
0.88235294 0.88235294 0.88235294
0.89803922 0.89803922 0.89803922
0.91764706 0.91764706 0.91764706
0.32941176 0.32941176 0.32941176
0.33333333 0.33333333 0.33333333
0.34509804 0.34509804 0.34509804
0.36470588 0.36470588 0.36470588
0.39607843 0.39607843 0.39607843
0.43137255 0.43137255 0.43137255
0.47450980 0.47450980 0.47450980
0.52549020 0.52549020 0.52549020
0.58431373 0.58431373 0.58431373
0.34117647 0.34117647 0.34117647
0.34509804 0.34509804 0.34509804
0.35686275 0.35686275 0.35686275
0.37647059 0.37647059 0.37647059
0.40392157 0.40392157 0.40392157
0.43921569 0.43921569 0.43921569
0.48235294 0.48235294 0.48235294
0.53333333 0.53333333 0.53333333
0.59215686 0.59215686 0.59215686
0.36862745 0.36862745 0.36862745
0.37254902 0.37254902 0.37254902
0.38431373 0.38431373 0.38431373
0.40392157 0.40392157 0.40392157
0.43137255 0.43137255 0.43137255
0.46274510 0.46274510 0.46274510
0.50588235 0.50588235 0.50588235
0.55686275 0.55686275 0.55686275
0.61176471 0.61176471 0.61176471
0.41960784 0.41960784 0.41960784
0.42352941 0.42352941 0.42352941
0.43137255 0.43137255 0.43137255
0.45098039 0.45098039 0.45098039
0.47450980 0.47450980 0.47450980
0.50588235 0.50588235 0.50588235
0.54509804 0.54509804 0.54509804
0.59215686 0.59215686 0.59215686
0.65098039 0.65098039 0.65098039
0.48235294 0.48235294 0.48235294
0.48627451 0.48627451 0.48627451
0.49803922 0.49803922 0.49803922
0.51372549 0.51372549 0.51372549
0.53333333 0.53333333 0.53333333
0.56078431 0.56078431 0.56078431
0.60000000 0.60000000 0.60000000
0.64705882 0.64705882 0.64705882
0.70196078 0.70196078 0.70196078
0.55686275 0.55686275 0.55686275
0.56078431 0.56078431 0.56078431
0.56862745 0.56862745 0.56862745
0.58431373 0.58431373 0.58431373
0.60784314 0.60784314 0.60784314
0.63529412 0.63529412 0.63529412
0.67058824 0.67058824 0.67058824
0.71372549 0.71372549 0.71372549
0.76470588 0.76470588 0.76470588
0.65490196 0.65490196 0.65490196
0.65882353 0.65882353 0.65882353
0.66666667 0.66666667 0.66666667
0.68235294 0.68235294 0.68235294
0.70196078 0.70196078 0.70196078
0.72549020 0.72549020 0.72549020
0.75686275 0.75686275 0.75686275
0.79215686 0.79215686 0.79215686
0.83137255 0.83137255 0.83137255
0.76470588 0.76470588 0.76470588
0.76470588 0.76470588 0.76470588
0.77254902 0.77254902 0.77254902
0.78431373 0.78431373 0.78431373
0.80000000 0.80000000 0.80000000
0.81960784 0.81960784 0.81960784
0.83921569 0.83921569 0.83921569
0.86666667 0.86666667 0.86666667
0.89019608 0.89019608 0.89019608
0.85882353 0.85882353 0.85882353
0.85882353 0.85882353 0.85882353
0.86274510 0.86274510 0.86274510
0.87058824 0.87058824 0.87058824
0.87843137 0.87843137 0.87843137
0.89019608 0.89019608 0.89019608
0.90196078 0.90196078 0.90196078
0.91764706 0.91764706 0.91764706
0.93333333 0.93333333 0.93333333
0.43529412 0.43529412 0.43529412
0.43921569 0.43921569 0.43921569
0.45098039 0.45098039 0.45098039
0.46666667 0.46666667 0.46666667
0.49019608 0.49019608 0.49019608
0.52156863 0.52156863 0.52156863
0.56078431 0.56078431 0.56078431
0.60784314 0.60784314 0.60784314
0.66274510 0.66274510 0.66274510
0.44705882 0.44705882 0.44705882
0.45098039 0.45098039 0.45098039
0.45882353 0.45882353 0.45882353
0.47450980 0.47450980 0.47450980
0.49803922 0.49803922 0.49803922
0.52941176 0.52941176 0.52941176
0.56862745 0.56862745 0.56862745
0.61568627 0.61568627 0.61568627
0.67058824 0.67058824 0.67058824
0.47058824 0.47058824 0.47058824
0.47450980 0.47450980 0.47450980
0.48235294 0.48235294 0.48235294
0.49803922 0.49803922 0.49803922
0.52156863 0.52156863 0.52156863
0.54901961 0.54901961 0.54901961
0.58823529 0.58823529 0.58823529
0.63529412 0.63529412 0.63529412
0.69019608 0.69019608 0.69019608
0.50980392 0.50980392 0.50980392
0.51372549 0.51372549 0.51372549
0.52156863 0.52156863 0.52156863
0.53725490 0.53725490 0.53725490
0.56078431 0.56078431 0.56078431
0.58823529 0.58823529 0.58823529
0.62745098 0.62745098 0.62745098
0.67058824 0.67058824 0.67058824
0.72549020 0.72549020 0.72549020
0.56862745 0.56862745 0.56862745
0.56862745 0.56862745 0.56862745
0.58039216 0.58039216 0.58039216
0.59215686 0.59215686 0.59215686
0.61568627 0.61568627 0.61568627
0.64313725 0.64313725 0.64313725
0.67843137 0.67843137 0.67843137
0.72156863 0.72156863 0.72156863
0.76862745 0.76862745 0.76862745
0.63921569 0.63921569 0.63921569
0.64313725 0.64313725 0.64313725
0.65098039 0.65098039 0.65098039
0.66274510 0.66274510 0.66274510
0.68627451 0.68627451 0.68627451
0.70980392 0.70980392 0.70980392
0.74509804 0.74509804 0.74509804
0.78039216 0.78039216 0.78039216
0.81960784 0.81960784 0.81960784
0.72941176 0.72941176 0.72941176
0.73333333 0.73333333 0.73333333
0.74117647 0.74117647 0.74117647
0.75294118 0.75294118 0.75294118
0.76862745 0.76862745 0.76862745
0.78823529 0.78823529 0.78823529
0.81568627 0.81568627 0.81568627
0.84313725 0.84313725 0.84313725
0.87058824 0.87058824 0.87058824
0.81960784 0.81960784 0.81960784
0.82352941 0.82352941 0.82352941
0.82745098 0.82745098 0.82745098
0.83529412 0.83529412 0.83529412
0.84705882 0.84705882 0.84705882
0.86274510 0.86274510 0.86274510
0.87843137 0.87843137 0.87843137
0.89803922 0.89803922 0.89803922
0.91372549 0.91372549 0.91372549
0.89019608 0.89019608 0.89019608
0.89411765 0.89411765 0.89411765
0.89411765 0.89411765 0.89411765
0.90196078 0.90196078 0.90196078
0.90980392 0.90980392 0.90980392
0.91764706 0.91764706 0.91764706
0.92549020 0.92549020 0.92549020
0.93725490 0.93725490 0.93725490
0.95294118 0.95294118 0.95294118
0.54509804 0.54509804 0.54509804
0.54901961 0.54901961 0.54901961
0.55686275 0.55686275 0.55686275
0.57254902 0.57254902 0.57254902
0.59215686 0.59215686 0.59215686
0.62352941 0.62352941 0.62352941
0.65882353 0.65882353 0.65882353
0.70588235 0.70588235 0.70588235
0.75294118 0.75294118 0.75294118
0.55294118 0.55294118 0.55294118
0.55686275 0.55686275 0.55686275
0.56470588 0.56470588 0.56470588
0.58039216 0.58039216 0.58039216
0.60392157 0.60392157 0.60392157
0.63137255 0.63137255 0.63137255
0.66666667 0.66666667 0.66666667
0.70980392 0.70980392 0.70980392
0.76078431 0.76078431 0.76078431
0.57647059 0.57647059 0.57647059
0.57647059 0.57647059 0.57647059
0.58823529 0.58823529 0.58823529
0.60000000 0.60000000 0.60000000
0.62352941 0.62352941 0.62352941
0.65098039 0.65098039 0.65098039
0.68627451 0.68627451 0.68627451
0.72941176 0.72941176 0.72941176
0.77647059 0.77647059 0.77647059
0.61176471 0.61176471 0.61176471
0.61568627 0.61568627 0.61568627
0.62352941 0.62352941 0.62352941
0.63921569 0.63921569 0.63921569
0.65882353 0.65882353 0.65882353
0.68627451 0.68627451 0.68627451
0.72156863 0.72156863 0.72156863
0.76078431 0.76078431 0.76078431
0.80392157 0.80392157 0.80392157
0.66666667 0.66666667 0.66666667
0.67058824 0.67058824 0.67058824
0.67843137 0.67843137 0.67843137
0.69019608 0.69019608 0.69019608
0.70980392 0.70980392 0.70980392
0.73725490 0.73725490 0.73725490
0.76862745 0.76862745 0.76862745
0.80000000 0.80000000 0.80000000
0.83921569 0.83921569 0.83921569
0.73333333 0.73333333 0.73333333
0.73333333 0.73333333 0.73333333
0.74117647 0.74117647 0.74117647
0.75294118 0.75294118 0.75294118
0.77254902 0.77254902 0.77254902
0.79215686 0.79215686 0.79215686
0.81960784 0.81960784 0.81960784
0.84705882 0.84705882 0.84705882
0.87450980 0.87450980 0.87450980
0.80784314 0.80784314 0.80784314
0.80784314 0.80784314 0.80784314
0.81568627 0.81568627 0.81568627
0.82352941 0.82352941 0.82352941
0.83529412 0.83529412 0.83529412
0.85098039 0.85098039 0.85098039
0.87058824 0.87058824 0.87058824
0.89019608 0.89019608 0.89019608
0.90980392 0.90980392 0.90980392
0.87450980 0.87450980 0.87450980
0.87450980 0.87450980 0.87450980
0.87843137 0.87843137 0.87843137
0.88235294 0.88235294 0.88235294
0.89411765 0.89411765 0.89411765
0.90196078 0.90196078 0.90196078
0.91372549 0.91372549 0.91372549
0.92549020 0.92549020 0.92549020
0.94117647 0.94117647 0.94117647
0.92156863 0.92156863 0.92156863
0.92549020 0.92549020 0.92549020
0.92549020 0.92549020 0.92549020
0.92941176 0.92941176 0.92941176
0.93333333 0.93333333 0.93333333
0.94117647 0.94117647 0.94117647
0.94901961 0.94901961 0.94901961
0.96078431 0.96078431 0.96078431
0.97254902 0.97254902 0.97254902
0.66666667 0.66666667 0.66666667
0.67058824 0.67058824 0.67058824
0.67843137 0.67843137 0.67843137
0.69019608 0.69019608 0.69019608
0.70980392 0.70980392 0.70980392
0.73725490 0.73725490 0.73725490
0.76862745 0.76862745 0.76862745
0.80000000 0.80000000 0.80000000
0.83921569 0.83921569 0.83921569
0.67450980 0.67450980 0.67450980
0.67843137 0.67843137 0.67843137
0.68627451 0.68627451 0.68627451
0.69803922 0.69803922 0.69803922
0.71764706 0.71764706 0.71764706
0.74117647 0.74117647 0.74117647
0.77254902 0.77254902 0.77254902
0.80784314 0.80784314 0.80784314
0.84313725 0.84313725 0.84313725
0.69411765 0.69411765 0.69411765
0.69803922 0.69803922 0.69803922
0.70588235 0.70588235 0.70588235
0.71764706 0.71764706 0.71764706
0.73725490 0.73725490 0.73725490
0.76078431 0.76078431 0.76078431
0.78823529 0.78823529 0.78823529
0.81960784 0.81960784 0.81960784
0.85490196 0.85490196 0.85490196
0.72549020 0.72549020 0.72549020
0.72941176 0.72941176 0.72941176
0.73725490 0.73725490 0.73725490
0.74901961 0.74901961 0.74901961
0.76470588 0.76470588 0.76470588
0.78823529 0.78823529 0.78823529
0.81568627 0.81568627 0.81568627
0.84313725 0.84313725 0.84313725
0.87058824 0.87058824 0.87058824
0.77254902 0.77254902 0.77254902
0.77647059 0.77647059 0.77647059
0.78039216 0.78039216 0.78039216
0.79215686 0.79215686 0.79215686
0.80784314 0.80784314 0.80784314
0.82352941 0.82352941 0.82352941
0.84705882 0.84705882 0.84705882
0.87058824 0.87058824 0.87058824
0.89411765 0.89411765 0.89411765
0.82352941 0.82352941 0.82352941
0.82352941 0.82352941 0.82352941
0.83137255 0.83137255 0.83137255
0.83921569 0.83921569 0.83921569
0.85098039 0.85098039 0.85098039
0.86274510 0.86274510 0.86274510
0.87843137 0.87843137 0.87843137
0.89803922 0.89803922 0.89803922
0.91764706 0.91764706 0.91764706
0.87450980 0.87450980 0.87450980
0.87450980 0.87450980 0.87450980
0.87843137 0.87843137 0.87843137
0.88235294 0.88235294 0.88235294
0.89411765 0.89411765 0.89411765
0.90196078 0.90196078 0.90196078
0.91372549 0.91372549 0.91372549
0.92549020 0.92549020 0.92549020
0.94117647 0.94117647 0.94117647
0.91764706 0.91764706 0.91764706
0.91764706 0.91764706 0.91764706
0.91764706 0.91764706 0.91764706
0.92156863 0.92156863 0.92156863
0.92941176 0.92941176 0.92941176
0.93725490 0.93725490 0.93725490
0.94509804 0.94509804 0.94509804
0.95686275 0.95686275 0.95686275
0.96862745 0.96862745 0.96862745
0.95294118 0.95294118 0.95294118
0.95294118 0.95294118 0.95294118
0.95294118 0.95294118 0.95294118
0.95686275 0.95686275 0.95686275
0.96078431 0.96078431 0.96078431
0.96862745 0.96862745 0.96862745
0.97647059 0.97647059 0.97647059
0.98823529 0.98823529 0.98823529
1.00000000 1.00000000 1.00000000
