dist-classic-addon/assets/luts/open/t3-pro-400h.cube
TITLE "Pastel 400H Film Emulation"
LUT_3D_SIZE 9
DOMAIN_MIN 0.0 0.0 0.0
DOMAIN_MAX 1.0 1.0 1.0
# Converted from an MIT-licensed t3mujinpack Hald CLUT by PhotoAtelier.
0.03529412 0.02745098 0.01568627
0.14901961 0.00000000 0.00784314
0.26274510 0.00000000 0.00000000
0.40000000 0.00000000 0.00000000
0.54901961 0.00000000 0.00000000
0.68627451 0.01960784 0.00000000
0.83921569 0.09019608 0.00000000
0.99215686 0.14901961 0.00000000
1.00000000 0.20000000 0.01568627
0.00000000 0.11764706 0.00000000
0.12941176 0.11372549 0.00000000
0.27843137 0.10196078 0.00000000
0.41960784 0.10196078 0.00000000
0.56078431 0.12156863 0.00000000
0.69411765 0.14901961 0.00000000
0.84705882 0.18431373 0.00000000
0.99607843 0.21960784 0.00000000
1.00000000 0.25098039 0.01960784
0.00000000 0.26666667 0.00000000
0.12549020 0.26666667 0.00000000
0.27450980 0.27058824 0.00000000
0.42745098 0.27058824 0.00000000
0.58823529 0.26666667 0.00000000
0.71764706 0.28627451 0.00000000
0.86274510 0.30980392 0.00000000
1.00000000 0.33333333 0.00392157
1.00000000 0.34901961 0.03529412
0.00000000 0.42745098 0.00000000
0.12941176 0.42745098 0.00000000
0.28235294 0.43137255 0.00000000
0.43529412 0.43137255 0.00000000
0.58039216 0.44313725 0.00000000
0.75686275 0.42745098 0.00000000
0.88627451 0.44705882 0.00392157
1.00000000 0.45882353 0.02745098
1.00000000 0.45882353 0.03921569
0.00000000 0.58823529 0.00000000
0.14117647 0.59215686 0.00000000
0.29411765 0.59215686 0.00000000
0.44705882 0.59607843 0.00000000
0.59607843 0.59607843 0.00000000
0.72156863 0.60392157 0.00000000
0.90980392 0.57647059 0.04313725
1.00000000 0.57647059 0.03921569
1.00000000 0.56078431 0.01176471
0.00000000 0.73333333 0.00000000
0.14901961 0.73333333 0.00000000
0.29411765 0.73333333 0.00000000
0.44313725 0.73333333 0.00000000
0.58431373 0.72549020 0.00000000
0.71372549 0.71764706 0.00000000
0.83137255 0.70588235 0.00000000
0.99607843 0.66274510 0.00000000
1.00000000 0.64705882 0.00000000
0.00000000 0.84313725 0.00000000
0.02352941 0.83921569 0.00000000
0.23529412 0.83529412 0.00000000
0.38823529 0.83137255 0.00000000
0.52549020 0.81960784 0.00000000
0.65490196 0.80784314 0.00000000
0.78431373 0.79607843 0.00000000
0.91372549 0.78039216 0.00000000
1.00000000 0.75294118 0.00000000
0.00000000 0.92156863 0.00000000
0.00000000 0.92156863 0.00000000
0.09411765 0.91764706 0.00000000
0.30980392 0.91764706 0.00000000
0.46274510 0.91372549 0.00000000
0.60000000 0.90588235 0.00000000
0.74117647 0.89803922 0.00000000
0.87843137 0.89019608 0.00000000
1.00000000 0.88235294 0.00000000
0.00000000 1.00000000 0.00000000
0.00000000 1.00000000 0.00000000
0.00000000 1.00000000 0.00000000
0.23921569 1.00000000 0.00000000
0.41568627 1.00000000 0.00000000
0.56078431 1.00000000 0.00000000
0.70588235 1.00000000 0.00000000
0.84705882 1.00000000 0.00000000
0.98823529 1.00000000 0.00000000
0.03137255 0.02352941 0.10196078
0.16470588 0.00000000 0.09411765
0.25882353 0.00000000 0.10196078
0.40000000 0.00000000 0.09411765
0.54901961 0.00000000 0.08627451
0.69019608 0.01960784 0.09803922
0.83921569 0.09411765 0.10980392
0.99215686 0.15294118 0.12941176
1.00000000 0.20000000 0.14509804
0.00000000 0.11764706 0.09411765
0.11764706 0.11372549 0.10588235
0.28235294 0.09803922 0.10980392
0.42352941 0.10196078 0.08627451
0.56078431 0.12156863 0.09019608
0.69803922 0.14901961 0.09803922
0.84705882 0.18431373 0.11372549
0.99607843 0.21960784 0.13333333
1.00000000 0.25490196 0.14901961
0.00000000 0.26666667 0.07843137
0.13333333 0.26666667 0.07843137
0.28235294 0.27058824 0.07450980
0.43529412 0.26666667 0.08235294
0.59215686 0.26666667 0.09803922
0.71764706 0.28627451 0.10588235
0.86274510 0.30980392 0.12156863
1.00000000 0.33333333 0.13725490
1.00000000 0.34901961 0.14901961
0.00000000 0.42745098 0.07843137
0.13725490 0.42745098 0.07843137
0.28627451 0.43137255 0.08627451
0.43921569 0.43137255 0.09411765
0.58431373 0.43921569 0.10588235
0.75686275 0.42745098 0.12549020
0.88627451 0.44705882 0.13725490
1.00000000 0.45882353 0.14901961
1.00000000 0.45882353 0.14901961
0.00000000 0.58823529 0.10196078
0.14901961 0.59215686 0.10588235
0.29803922 0.59215686 0.10980392
0.44705882 0.59607843 0.11764706
0.60000000 0.59607843 0.12941176
0.72156863 0.60392157 0.13333333
0.90980392 0.57647059 0.15294118
1.00000000 0.57647059 0.14509804
1.00000000 0.56078431 0.12941176
0.01176471 0.73333333 0.12941176
0.15686275 0.73333333 0.12941176
0.29803922 0.73333333 0.12941176
0.44313725 0.73333333 0.13333333
0.58431373 0.72549020 0.13333333
0.71764706 0.71764706 0.12941176
0.83137255 0.70588235 0.11764706
0.99607843 0.66274510 0.11764706
1.00000000 0.64705882 0.09411765
0.00000000 0.83921569 0.09411765
0.03529412 0.83921569 0.09411765
0.23921569 0.83529412 0.09019608
0.38823529 0.83137255 0.08235294
0.52941176 0.81960784 0.07450980
0.65490196 0.80784314 0.05882353
0.78823529 0.79607843 0.04313725
0.90980392 0.78039216 0.03137255
1.00000000 0.75294118 0.04705882
0.00000000 0.92156863 0.00000000
0.00000000 0.92156863 0.00000000
0.09803922 0.91764706 0.00000000
0.30980392 0.91764706 0.00000000
0.46666667 0.90980392 0.00000000
0.60000000 0.90588235 0.00000000
0.74117647 0.89803922 0.00000000
0.87843137 0.89019608 0.00000000
1.00000000 0.88235294 0.00000000
0.00000000 1.00000000 0.00000000
0.00000000 1.00000000 0.00000000
0.00000000 1.00000000 0.00000000
0.24313725 1.00000000 0.00000000
0.41960784 1.00000000 0.00000000
0.56078431 1.00000000 0.00000000
0.70588235 1.00000000 0.00000000
0.84705882 1.00000000 0.00000000
0.98823529 1.00000000 0.00000000
0.09803922 0.00000000 0.22745098
0.16862745 0.00000000 0.21176471
0.27450980 0.00000000 0.20000000
0.40784314 0.00000000 0.21960784
0.54901961 0.00000000 0.27450980
0.69019608 0.02352941 0.24313725
0.84313725 0.09411765 0.24705882
0.99215686 0.15294118 0.26274510
1.00000000 0.20000000 0.27450980
0.05490196 0.10980392 0.19607843
0.14117647 0.11372549 0.20000000
0.29803922 0.09019608 0.21176471
0.42352941 0.10588235 0.23921569
0.55686275 0.12549020 0.27843137
0.70196078 0.14901961 0.24313725
0.85098039 0.18431373 0.24705882
1.00000000 0.21960784 0.26274510
1.00000000 0.25490196 0.27450980
0.00392157 0.26666667 0.23529412
0.14117647 0.27058824 0.24313725
0.27843137 0.27058824 0.26274510
0.44705882 0.26274510 0.27843137
0.59215686 0.26666667 0.24313725
0.72156863 0.28627451 0.24313725
0.86274510 0.30980392 0.25490196
1.00000000 0.33333333 0.27058824
1.00000000 0.34901961 0.27843137
0.00000000 0.42745098 0.24705882
0.14901961 0.42745098 0.24313725
0.29411765 0.43137255 0.23921569
0.44705882 0.43137255 0.23921569
0.60000000 0.43529412 0.24705882
0.75686275 0.42745098 0.25882353
0.88627451 0.44705882 0.27058824
1.00000000 0.45882353 0.27450980
1.00000000 0.45882353 0.27450980
0.04705882 0.59215686 0.24705882
0.16862745 0.59215686 0.25098039
0.30980392 0.59215686 0.25098039
0.45490196 0.59607843 0.25882353
0.60392157 0.59607843 0.26274510
0.72549020 0.60000000 0.27058824
0.90980392 0.57647059 0.27450980
1.00000000 0.57254902 0.27058824
1.00000000 0.56078431 0.25490196
0.05098039 0.73333333 0.26666667
0.16862745 0.73333333 0.26666667
0.30588235 0.73333333 0.26666667
0.44705882 0.73333333 0.26666667
0.58823529 0.72549020 0.26666667
0.71764706 0.71764706 0.26274510
0.83137255 0.70588235 0.25098039
1.00000000 0.66274510 0.24313725
1.00000000 0.64705882 0.22745098
0.00000000 0.83921569 0.23921569
0.06274510 0.83921569 0.23921569
0.24705882 0.83529412 0.23529412
0.39215686 0.82745098 0.23137255
0.52941176 0.81960784 0.22352941
0.65882353 0.80784314 0.21960784
0.78823529 0.79215686 0.20784314
0.90980392 0.78039216 0.20000000
1.00000000 0.74901961 0.20392157
0.00000000 0.92156863 0.18823529
0.00000000 0.92156863 0.18823529
0.11372549 0.91764706 0.18431373
0.31372549 0.91372549 0.18431373
0.47058824 0.90980392 0.18039216
0.60392157 0.90588235 0.17647059
0.74509804 0.89803922 0.17647059
0.87843137 0.89019608 0.17647059
1.00000000 0.88235294 0.18039216
0.00000000 1.00000000 0.15686275
0.00000000 1.00000000 0.15294118
0.00000000 1.00000000 0.15294118
0.24705882 1.00000000 0.15294118
0.42352941 1.00000000 0.15686275
0.56470588 1.00000000 0.15686275
0.70980392 1.00000000 0.16078431
0.85098039 1.00000000 0.16470588
0.98823529 1.00000000 0.16862745
0.07843137 0.00000000 0.36078431
0.16078431 0.00000000 0.34901961
0.28235294 0.00000000 0.34117647
0.41960784 0.00000000 0.34509804
0.56078431 0.00000000 0.35686275
0.69411765 0.03137255 0.38431373
0.83921569 0.10588235 0.44313725
0.99607843 0.15686275 0.40392157
1.00000000 0.20392157 0.40392157
0.10980392 0.10196078 0.34117647
0.20000000 0.09019608 0.34117647
0.30980392 0.09411765 0.34509804
0.43529412 0.10588235 0.34901961
0.56862745 0.12941176 0.36470588
0.70196078 0.15686275 0.40000000
0.84313725 0.19215686 0.43921569
1.00000000 0.22352941 0.40000000
1.00000000 0.25490196 0.40392157
0.10196078 0.26666667 0.34901961
0.19215686 0.26666667 0.35294118
0.29019608 0.27450980 0.35686275
0.47058824 0.25882353 0.36862745
0.59215686 0.27058824 0.39607843
0.71372549 0.29411765 0.43921569
0.86274510 0.31372549 0.41176471
1.00000000 0.33333333 0.40000000
1.00000000 0.34901961 0.40392157
0.06274510 0.42745098 0.38823529
0.16862745 0.42745098 0.39215686
0.29803922 0.43137255 0.40392157
0.43921569 0.43529412 0.42745098
0.60784314 0.42745098 0.44313725
0.75686275 0.43137255 0.41176471
0.89019608 0.44705882 0.40000000
1.00000000 0.45882353 0.40392157
1.00000000 0.45882353 0.40000000
0.02352941 0.59215686 0.42352941
0.16862745 0.59215686 0.41960784
0.31372549 0.59215686 0.41176471
0.45882353 0.59607843 0.40392157
0.61568627 0.59215686 0.40000000
0.74117647 0.59607843 0.40000000
0.91372549 0.57647059 0.40392157
1.00000000 0.57254902 0.39607843
1.00000000 0.56078431 0.38039216
0.10196078 0.73333333 0.39607843
0.19215686 0.73333333 0.39607843
0.31764706 0.73333333 0.39607843
0.45490196 0.72941176 0.39607843
0.59607843 0.72549020 0.39607843
0.72549020 0.71372549 0.39215686
0.83529412 0.70196078 0.38039216
1.00000000 0.65882353 0.36862745
1.00000000 0.64705882 0.35294118
0.00000000 0.83921569 0.37254902
0.09411765 0.83529412 0.36862745
0.25882353 0.83529412 0.36862745
0.40000000 0.82745098 0.36470588
0.53725490 0.81960784 0.35686275
0.66274510 0.80784314 0.34901961
0.79215686 0.79215686 0.34117647
0.90588235 0.78431373 0.33333333
1.00000000 0.74901961 0.32941176
0.00000000 0.91764706 0.32549020
0.00000000 0.91764706 0.32549020
0.13333333 0.91764706 0.32549020
0.32549020 0.91372549 0.32156863
0.47450980 0.90980392 0.32156863
0.60784314 0.90588235 0.31764706
0.74901961 0.89803922 0.31372549
0.88235294 0.89019608 0.31372549
1.00000000 0.88235294 0.31372549
0.00000000 1.00000000 0.30196078
0.00000000 1.00000000 0.30196078
0.00000000 1.00000000 0.30196078
0.25882353 1.00000000 0.30196078
0.42745098 1.00000000 0.30196078
0.56862745 1.00000000 0.30196078
0.71372549 1.00000000 0.30196078
0.85490196 1.00000000 0.30196078
0.99215686 1.00000000 0.30588235
0.02352941 0.00000000 0.49803922
0.14509804 0.00000000 0.49803922
0.27843137 0.00000000 0.49803922
0.42352941 0.00000000 0.49803922
0.56470588 0.00000000 0.49803922
0.70196078 0.03921569 0.50588235
0.85098039 0.10980392 0.52156863
0.99607843 0.16470588 0.56078431
1.00000000 0.21176471 0.59607843
0.12941176 0.09411765 0.49803922
0.20000000 0.09803922 0.49803922
0.30980392 0.10196078 0.49803922
0.43921569 0.11372549 0.49803922
0.57647059 0.13333333 0.50196078
0.70980392 0.15686275 0.50980392
0.85490196 0.19215686 0.52941176
0.99607843 0.23137255 0.56862745
1.00000000 0.25882353 0.58431373
0.09803922 0.27058824 0.49803922
0.18039216 0.27450980 0.49803922
0.34901961 0.25882353 0.50196078
0.47843137 0.25882353 0.50196078
0.60392157 0.27450980 0.50980392
0.72941176 0.29411765 0.52156863
0.86666667 0.31764706 0.54901961
1.00000000 0.34117647 0.59607843
1.00000000 0.35294118 0.55686275
0.14901961 0.42745098 0.50588235
0.21960784 0.42745098 0.50588235
0.34117647 0.42745098 0.50980392
0.45098039 0.43921569 0.51764706
0.63921569 0.42352941 0.53333333
0.75686275 0.43529412 0.55294118
0.88235294 0.45098039 0.59215686
1.00000000 0.46274510 0.57647059
1.00000000 0.45882353 0.53333333
0.12549020 0.59215686 0.54509804
0.20784314 0.59215686 0.54509804
0.32549020 0.59215686 0.55294118
0.46274510 0.59607843 0.56470588
0.60392157 0.59607843 0.58823529
0.75294118 0.58823529 0.60392157
0.90588235 0.57647059 0.56078431
1.00000000 0.57254902 0.52941176
1.00000000 0.55686275 0.50588235
0.00000000 0.73333333 0.60000000
0.13725490 0.73333333 0.59607843
0.30196078 0.73333333 0.58039216
0.45098039 0.72941176 0.56470588
0.59607843 0.72156863 0.54117647
0.72941176 0.70980392 0.52549020
0.85098039 0.69411765 0.50980392
1.00000000 0.65882353 0.49411765
1.00000000 0.64705882 0.47843137
0.00000000 0.83529412 0.50196078
0.13333333 0.83529412 0.50196078
0.27450980 0.83137255 0.49803922
0.40784314 0.82352941 0.49019608
0.54509804 0.81568627 0.48627451
0.66666667 0.80392157 0.47843137
0.80000000 0.78823529 0.46666667
0.90588235 0.78039216 0.45882353
1.00000000 0.74509804 0.45490196
0.00000000 0.91764706 0.45490196
0.00000000 0.91764706 0.45490196
0.16078431 0.91764706 0.45490196
0.33725490 0.91372549 0.45098039
0.48235294 0.90980392 0.45098039
0.61568627 0.90196078 0.44705882
0.75294118 0.89803922 0.44313725
0.89019608 0.89019608 0.43921569
1.00000000 0.88627451 0.43921569
0.00000000 1.00000000 0.43137255
0.00000000 1.00000000 0.43137255
0.00000000 1.00000000 0.43137255
0.27058824 1.00000000 0.43137255
0.43529412 1.00000000 0.43137255
0.57647059 1.00000000 0.43137255
0.72156863 1.00000000 0.43137255
0.85882353 1.00000000 0.43137255
0.99607843 1.00000000 0.43137255
0.00392157 0.00000000 0.63529412
0.13725490 0.00000000 0.63921569
0.27843137 0.00000000 0.64313725
0.41960784 0.00000000 0.64705882
0.56470588 0.00392157 0.65098039
0.70588235 0.05882353 0.65098039
0.85490196 0.11764706 0.65098039
1.00000000 0.16862745 0.66274510
1.00000000 0.21176471 0.67843137
0.10588235 0.10588235 0.64313725
0.18431373 0.10588235 0.64705882
0.30196078 0.11372549 0.64705882
0.43529412 0.12549020 0.65098039
0.57647059 0.14117647 0.65098039
0.71372549 0.16470588 0.65098039
0.86274510 0.19607843 0.65490196
1.00000000 0.23137255 0.66274510
1.00000000 0.26274510 0.68235294
0.19607843 0.25882353 0.65098039
0.26274510 0.25490196 0.65098039
0.36078431 0.25882353 0.65098039
0.47450980 0.26666667 0.65098039
0.60392157 0.28235294 0.65098039
0.73333333 0.29803922 0.65098039
0.87450980 0.31764706 0.65882353
1.00000000 0.34117647 0.67058824
1.00000000 0.35294118 0.69019608
0.18823529 0.42745098 0.65098039
0.25098039 0.42745098 0.65098039
0.33333333 0.43529412 0.65098039
0.50196078 0.42745098 0.65098039
0.65098039 0.42352941 0.65490196
0.76470588 0.43921569 0.66274510
0.89411765 0.45098039 0.67058824
1.00000000 0.46274510 0.68627451
1.00000000 0.45882353 0.70588235
0.20000000 0.59215686 0.65882353
0.25882353 0.59215686 0.65882353
0.36470588 0.59215686 0.65882353
0.49411765 0.59215686 0.66274510
0.60784314 0.60000000 0.67058824
0.78823529 0.58039216 0.67843137
0.90196078 0.57647059 0.69019608
1.00000000 0.57254902 0.70588235
1.00000000 0.55686275 0.67058824
0.16470588 0.73333333 0.67843137
0.22745098 0.73333333 0.67843137
0.33725490 0.72941176 0.67843137
0.46666667 0.72549020 0.68235294
0.59607843 0.71764706 0.69019608
0.71372549 0.70980392 0.69803922
0.85490196 0.68235294 0.70196078
0.99215686 0.65490196 0.63921569
1.00000000 0.64313725 0.60000000
0.00000000 0.83137255 0.69803922
0.00000000 0.83137255 0.69411765
0.21568627 0.82745098 0.68627451
0.38823529 0.82352941 0.66666667
0.53725490 0.81176471 0.63921569
0.67058824 0.80000000 0.61568627
0.80784314 0.78431373 0.59215686
0.92156863 0.77647059 0.58039216
1.00000000 0.74509804 0.57254902
0.00000000 0.91764706 0.58039216
0.00000000 0.91764706 0.58039216
0.18431373 0.91372549 0.57647059
0.34901961 0.90980392 0.57254902
0.49411765 0.90588235 0.56862745
0.62352941 0.90196078 0.56470588
0.76078431 0.89411765 0.56078431
0.89803922 0.88627451 0.56078431
1.00000000 0.88627451 0.55686275
0.00000000 1.00000000 0.55294118
0.00000000 1.00000000 0.55294118
0.00784314 1.00000000 0.55294118
0.28627451 1.00000000 0.55294118
0.44705882 1.00000000 0.55294118
0.58431373 1.00000000 0.54901961
0.72549020 1.00000000 0.54901961
0.86666667 1.00000000 0.54901961
1.00000000 1.00000000 0.54901961
0.03529412 0.00000000 0.77647059
0.14901961 0.00000000 0.78039216
0.28235294 0.00000000 0.78823529
0.41960784 0.00000000 0.80000000
0.56470588 0.03529412 0.80784314
0.70588235 0.08627451 0.81176471
0.85490196 0.13333333 0.81176471
1.00000000 0.18039216 0.81176471
1.00000000 0.21568627 0.80392157
0.10196078 0.11764706 0.78823529
0.18039216 0.12156863 0.79215686
0.29803922 0.12549020 0.79607843
0.43137255 0.13725490 0.80392157
0.57254902 0.15686275 0.80784314
0.71372549 0.18039216 0.81176471
0.86274510 0.20784314 0.81176471
1.00000000 0.23921569 0.81176471
1.00000000 0.26274510 0.80392157
0.20784314 0.25882353 0.80392157
0.25490196 0.26274510 0.80392157
0.34901961 0.26666667 0.80784314
0.46666667 0.27843137 0.80784314
0.60000000 0.29019608 0.81176471
0.73333333 0.30588235 0.81176471
0.87450980 0.32549020 0.81176471
1.00000000 0.34117647 0.80784314
1.00000000 0.35294118 0.80000000
0.12941176 0.43529412 0.81176471
0.22745098 0.43529412 0.81176471
0.38823529 0.42745098 0.81176471
0.52549020 0.41960784 0.81176471
0.64313725 0.43137255 0.81176471
0.76470588 0.44313725 0.81176471
0.89411765 0.45490196 0.80784314
1.00000000 0.46274510 0.80000000
1.00000000 0.45490196 0.78823529
0.22745098 0.59215686 0.81176471
0.28235294 0.59215686 0.81176471
0.38823529 0.59215686 0.81176471
0.49411765 0.59607843 0.81176471
0.65098039 0.58823529 0.80784314
0.80000000 0.57647059 0.80392157
0.90588235 0.57647059 0.79607843
1.00000000 0.56862745 0.78431373
1.00000000 0.55294118 0.77254902
0.23137255 0.72941176 0.80000000
0.27843137 0.72941176 0.80000000
0.37254902 0.72549020 0.80000000
0.49019608 0.72156863 0.79607843
0.62352941 0.71372549 0.78823529
0.71372549 0.70980392 0.78039216
0.88627451 0.67058824 0.77647059
0.98431373 0.65490196 0.76862745
1.00000000 0.64313725 0.77647059
0.08235294 0.82745098 0.76862745
0.17254902 0.82745098 0.76862745
0.29019608 0.82352941 0.76470588
0.41960784 0.81568627 0.76470588
0.54509804 0.80784314 0.76470588
0.66666667 0.79607843 0.76470588
0.79215686 0.78431373 0.77647059
0.92941176 0.76470588 0.78039216
1.00000000 0.74509804 0.72941176
0.00000000 0.91372549 0.78039216
0.00000000 0.91372549 0.78039216
0.00000000 0.91372549 0.78039216
0.29411765 0.90980392 0.77647059
0.47058824 0.90588235 0.75686275
0.61960784 0.89803922 0.72941176
0.76078431 0.89411765 0.70980392
0.90588235 0.88235294 0.69411765
1.00000000 0.87843137 0.68235294
0.00000000 1.00000000 0.68627451
0.00000000 1.00000000 0.68627451
0.06666667 1.00000000 0.68627451
0.30196078 1.00000000 0.68235294
0.45882353 1.00000000 0.67843137
0.59607843 1.00000000 0.67843137
0.73725490 1.00000000 0.67450980
0.87450980 1.00000000 0.67450980
1.00000000 1.00000000 0.67450980
0.10588235 0.00000000 0.91372549
0.18039216 0.00000000 0.91764706
0.29803922 0.00000000 0.92549020
0.42745098 0.02352941 0.93725490
0.56470588 0.06666667 0.95294118
0.70588235 0.10980392 0.96470588
0.85098039 0.15294118 0.97254902
1.00000000 0.19607843 0.96862745
1.00000000 0.22352941 0.95686275
0.13333333 0.12941176 0.92549020
0.20000000 0.13333333 0.92941176
0.30980392 0.13725490 0.93725490
0.43529412 0.14901961 0.94509804
0.57254902 0.16862745 0.95686275
0.70980392 0.19215686 0.96470588
0.85882353 0.21960784 0.97254902
1.00000000 0.25098039 0.96862745
1.00000000 0.26666667 0.95686275
0.20000000 0.27058824 0.94509804
0.24705882 0.27450980 0.94901961
0.34117647 0.27843137 0.95294118
0.46274510 0.28627451 0.95686275
0.59607843 0.30196078 0.96470588
0.72941176 0.31372549 0.97254902
0.87058824 0.33333333 0.97254902
1.00000000 0.34901961 0.96470588
1.00000000 0.35294118 0.94509804
0.29019608 0.41960784 0.96470588
0.33333333 0.41960784 0.96862745
0.41568627 0.42352941 0.96862745
0.51372549 0.43137255 0.97254902
0.63529412 0.43921569 0.97254902
0.75686275 0.45098039 0.97254902
0.89019608 0.45882353 0.96470588
1.00000000 0.46274510 0.94901961
1.00000000 0.45098039 0.92156863
0.25098039 0.59215686 0.97254902
0.29411765 0.59215686 0.97254902
0.35686275 0.60000000 0.97254902
0.51372549 0.59215686 0.96862745
0.68235294 0.57647059 0.96470588
0.78823529 0.57647059 0.95686275
0.89803922 0.57647059 0.94117647
1.00000000 0.56470588 0.91764706
1.00000000 0.54901961 0.88627451
0.24313725 0.72549020 0.95294118
0.29019608 0.72549020 0.94901961
0.38431373 0.72156863 0.94509804
0.50196078 0.71764706 0.94117647
0.61568627 0.70980392 0.92941176
0.75294118 0.69019608 0.91372549
0.89411765 0.66274510 0.89411765
0.98823529 0.65098039 0.87450980
1.00000000 0.63921569 0.85882353
0.16470588 0.81960784 0.89019608
0.22352941 0.81960784 0.88627451
0.32549020 0.81568627 0.88235294
0.44313725 0.80784314 0.87843137
0.56862745 0.80000000 0.87058824
0.69019608 0.78823529 0.86274510
0.79215686 0.78431373 0.85490196
0.96862745 0.75294118 0.85490196
1.00000000 0.74509804 0.85490196
0.00000000 0.90980392 0.84705882
0.00000000 0.90980392 0.84705882
0.21568627 0.90980392 0.84705882
0.36470588 0.90588235 0.84705882
0.50196078 0.90196078 0.85098039
0.62745098 0.89803922 0.85098039
0.76078431 0.89019608 0.85882353
0.89019608 0.88235294 0.87450980
1.00000000 0.87058824 0.88627451
0.00000000 1.00000000 0.87450980
0.00000000 1.00000000 0.87450980
0.00000000 1.00000000 0.87843137
0.21176471 1.00000000 0.88235294
0.41176471 1.00000000 0.88627451
0.57254902 1.00000000 0.87058824
0.72941176 1.00000000 0.84313725
0.87450980 1.00000000 0.82352941
1.00000000 0.99607843 0.80784314
0.17254902 0.00000000 1.00000000
0.22745098 0.00392157 1.00000000
0.32549020 0.02352941 1.00000000
0.44705882 0.05490196 1.00000000
0.57647059 0.09411765 1.00000000
0.70980392 0.13333333 1.00000000
0.85490196 0.17254902 1.00000000
0.99607843 0.20784314 1.00000000
1.00000000 0.23137255 1.00000000
0.18431373 0.14117647 1.00000000
0.23921569 0.14509804 1.00000000
0.33333333 0.14901961 1.00000000
0.45098039 0.16470588 1.00000000
0.58431373 0.18431373 1.00000000
0.71372549 0.20784314 1.00000000
0.85882353 0.23529412 1.00000000
1.00000000 0.25882353 1.00000000
1.00000000 0.27450980 1.00000000
0.22352941 0.28235294 1.00000000
0.26666667 0.28235294 1.00000000
0.35686275 0.29019608 1.00000000
0.47058824 0.29803922 1.00000000
0.60000000 0.30980392 1.00000000
0.72941176 0.32549020 1.00000000
0.86666667 0.34117647 1.00000000
1.00000000 0.35294118 1.00000000
1.00000000 0.35294118 1.00000000
0.30196078 0.42745098 1.00000000
0.33333333 0.42745098 1.00000000
0.40784314 0.43137255 1.00000000
0.50980392 0.43921569 1.00000000
0.62745098 0.44705882 1.00000000
0.74901961 0.45882353 1.00000000
0.87843137 0.46274510 1.00000000
1.00000000 0.46274510 1.00000000
1.00000000 0.44705882 1.00000000
0.23137255 0.59607843 1.00000000
0.30588235 0.59215686 1.00000000
0.43921569 0.58431373 1.00000000
0.56470588 0.57647059 1.00000000
0.67058824 0.58039216 1.00000000
0.77254902 0.58039216 1.00000000
0.88235294 0.57647059 1.00000000
0.99215686 0.56470588 1.00000000
1.00000000 0.54509804 1.00000000
0.24313725 0.72156863 1.00000000
0.29411765 0.71764706 1.00000000
0.39215686 0.71372549 1.00000000
0.48235294 0.71372549 1.00000000
0.61176471 0.70196078 1.00000000
0.77647059 0.67450980 1.00000000
0.87843137 0.65882353 1.00000000
0.97647059 0.65098039 1.00000000
1.00000000 0.63921569 0.99215686
0.15686275 0.81568627 1.00000000
0.21960784 0.81176471 1.00000000
0.32156863 0.80784314 1.00000000
0.44313725 0.80392157 1.00000000
0.57254902 0.79215686 1.00000000
0.68627451 0.78431373 1.00000000
0.82352941 0.77254902 0.98431373
0.97647059 0.74509804 0.97254902
1.00000000 0.74117647 0.96078431
0.00000000 0.90588235 0.97254902
0.10588235 0.90588235 0.97254902
0.25490196 0.90588235 0.97254902
0.39215686 0.90196078 0.96862745
0.52549020 0.89803922 0.96470588
0.65098039 0.89411765 0.96078431
0.78823529 0.88627451 0.95686275
0.89019608 0.88627451 0.95294118
1.00000000 0.85882353 0.95686275
0.00000000 1.00000000 0.95294118
0.00000000 1.00000000 0.95294118
0.13333333 1.00000000 0.95294118
0.32156863 1.00000000 0.95294118
0.47058824 1.00000000 0.95294118
0.60392157 1.00000000 0.95686275
0.74117647 1.00000000 0.96078431
0.87450980 1.00000000 0.97254902
1.00000000 1.00000000 0.98823529
