dist-classic-addon/assets/luts/open/t3-pro-400h.cube
TITLE "Pastel 400H Film Emulation"
LUT_3D_SIZE 5
DOMAIN_MIN 0.0 0.0 0.0
DOMAIN_MAX 1.0 1.0 1.0
# Converted from an MIT-licensed t3mujinpack Hald CLUT by PhotoAtelier.
0.03529412 0.02745098 0.01568627
0.26274510 0.00000000 0.00000000
0.54901961 0.00000000 0.00000000
0.83921569 0.09019608 0.00000000
1.00000000 0.20000000 0.01568627
0.00000000 0.26666667 0.00000000
0.27450980 0.27058824 0.00000000
0.58823529 0.26666667 0.00000000
0.86274510 0.30980392 0.00000000
1.00000000 0.34901961 0.03529412
0.00000000 0.58823529 0.00000000
0.29411765 0.59215686 0.00000000
0.59607843 0.59607843 0.00000000
0.90980392 0.57647059 0.04313725
1.00000000 0.56078431 0.01176471
0.00000000 0.84313725 0.00000000
0.23529412 0.83529412 0.00000000
0.52549020 0.81960784 0.00000000
0.78431373 0.79607843 0.00000000
1.00000000 0.75294118 0.00000000
0.00000000 1.00000000 0.00000000
0.00000000 1.00000000 0.00000000
0.41568627 1.00000000 0.00000000
0.70588235 1.00000000 0.00000000
0.98823529 1.00000000 0.00000000
0.09803922 0.00000000 0.22745098
0.27450980 0.00000000 0.20000000
0.54901961 0.00000000 0.27450980
0.84313725 0.09411765 0.24705882
1.00000000 0.20000000 0.27450980
0.00392157 0.26666667 0.23529412
0.27843137 0.27058824 0.26274510
0.59215686 0.26666667 0.24313725
0.86274510 0.30980392 0.25490196
1.00000000 0.34901961 0.27843137
0.04705882 0.59215686 0.24705882
0.30980392 0.59215686 0.25098039
0.60392157 0.59607843 0.26274510
0.90980392 0.57647059 0.27450980
1.00000000 0.56078431 0.25490196
0.00000000 0.83921569 0.23921569
0.24705882 0.83529412 0.23529412
0.52941176 0.81960784 0.22352941
0.78823529 0.79215686 0.20784314
1.00000000 0.74901961 0.20392157
0.00000000 1.00000000 0.15686275
0.00000000 1.00000000 0.15294118
0.42352941 1.00000000 0.15686275
0.70980392 1.00000000 0.16078431
0.98823529 1.00000000 0.16862745
0.02352941 0.00000000 0.49803922
0.27843137 0.00000000 0.49803922
0.56470588 0.00000000 0.49803922
0.85098039 0.10980392 0.52156863
1.00000000 0.21176471 0.59607843
0.09803922 0.27058824 0.49803922
0.34901961 0.25882353 0.50196078
0.60392157 0.27450980 0.50980392
0.86666667 0.31764706 0.54901961
1.00000000 0.35294118 0.55686275
0.12549020 0.59215686 0.54509804
0.32549020 0.59215686 0.55294118
0.60392157 0.59607843 0.58823529
0.90588235 0.57647059 0.56078431
1.00000000 0.55686275 0.50588235
0.00000000 0.83529412 0.50196078
0.27450980 0.83137255 0.49803922
0.54509804 0.81568627 0.48627451
0.80000000 0.78823529 0.46666667
1.00000000 0.74509804 0.45490196
0.00000000 1.00000000 0.43137255
0.00000000 1.00000000 0.43137255
0.43529412 1.00000000 0.43137255
0.72156863 1.00000000 0.43137255
0.99607843 1.00000000 0.43137255
0.03529412 0.00000000 0.77647059
0.28235294 0.00000000 0.78823529
0.56470588 0.03529412 0.80784314
0.85490196 0.13333333 0.81176471
1.00000000 0.21568627 0.80392157
0.20784314 0.25882353 0.80392157
0.34901961 0.26666667 0.80784314
0.60000000 0.29019608 0.81176471
0.87450980 0.32549020 0.81176471
1.00000000 0.35294118 0.80000000
0.22745098 0.59215686 0.81176471
0.38823529 0.59215686 0.81176471
0.65098039 0.58823529 0.80784314
0.90588235 0.57647059 0.79607843
1.00000000 0.55294118 0.77254902
0.08235294 0.82745098 0.76862745
0.29019608 0.82352941 0.76470588
0.54509804 0.80784314 0.76470588
0.79215686 0.78431373 0.77647059
1.00000000 0.74509804 0.72941176
0.00000000 1.00000000 0.68627451
0.06666667 1.00000000 0.68627451
0.45882353 1.00000000 0.67843137
0.73725490 1.00000000 0.67450980
1.00000000 1.00000000 0.67450980
0.17254902 0.00000000 1.00000000
0.32549020 0.02352941 1.00000000
0.57647059 0.09411765 1.00000000
0.85490196 0.17254902 1.00000000
1.00000000 0.23137255 1.00000000
0.22352941 0.28235294 1.00000000
0.35686275 0.29019608 1.00000000
0.60000000 0.30980392 1.00000000
0.86666667 0.34117647 1.00000000
1.00000000 0.35294118 1.00000000
0.23137255 0.59607843 1.00000000
0.43921569 0.58431373 1.00000000
0.67058824 0.58039216 1.00000000
0.88235294 0.57647059 1.00000000
1.00000000 0.54509804 1.00000000
0.15686275 0.81568627 1.00000000
0.32156863 0.80784314 1.00000000
0.57254902 0.79215686 1.00000000
0.82352941 0.77254902 0.98431373
1.00000000 0.74117647 0.96078431
0.00000000 1.00000000 0.95294118
0.13333333 1.00000000 0.95294118
0.47058824 1.00000000 0.95294118
0.74117647 1.00000000 0.96078431
1.00000000 1.00000000 0.98823529
