dist-classic-addon/assets/luts/open/t3-superia-400.cube
TITLE "Superia 400 Street Emulation"
LUT_3D_SIZE 33
DOMAIN_MIN 0.0 0.0 0.0
DOMAIN_MAX 1.0 1.0 1.0
# Converted from an MIT-licensed t3mujinpack Hald CLUT by PhotoAtelier.
0.03921569 0.03137255 0.02745098
0.05490196 0.03137255 0.02352941
0.05882353 0.03137255 0.01960784
0.07058824 0.03137255 0.01568627
0.11764706 0.00392157 0.01176471
0.15686275 0.00000000 0.00392157
0.19607843 0.00000000 0.00000000
0.22745098 0.00000000 0.00000000
0.26666667 0.00000000 0.00000000
0.29803922 0.00000000 0.00000000
0.33725490 0.00000000 0.00000000
0.36862745 0.00000000 0.00000000
0.41176471 0.00000000 0.00000000
0.44705882 0.00000000 0.00000000
0.49019608 0.00000000 0.00000000
0.52941176 0.00000000 0.00000000
0.57647059 0.00000000 0.00000000
0.61176471 0.00000000 0.00000000
0.64705882 0.00000000 0.00000000
0.69411765 0.00000000 0.00000000
0.72941176 0.00000000 0.00000000
0.77254902 0.00000000 0.00784314
0.80392157 0.00000000 0.01568627
0.84705882 0.00000000 0.02745098
0.88235294 0.00000000 0.03921569
0.92549020 0.00000000 0.05490196
0.95686275 0.00000000 0.06274510
1.00000000 0.00000000 0.07843137
1.00000000 0.00000000 0.08627451
1.00000000 0.00000000 0.09803922
1.00000000 0.00000000 0.10588235
1.00000000 0.00000000 0.11764706
1.00000000 0.00000000 0.12156863
0.01568627 0.04705882 0.01568627
0.04705882 0.03921569 0.01568627
0.06274510 0.03529412 0.01568627
0.07058824 0.03529412 0.01176471
0.10196078 0.02745098 0.00392157
0.14901961 0.00784314 0.00000000
0.19215686 0.00000000 0.00000000
0.21960784 0.00000000 0.00000000
0.26274510 0.00000000 0.00000000
0.29411765 0.00000000 0.00000000
0.33725490 0.00000000 0.00000000
0.36862745 0.00000000 0.00000000
0.41176471 0.00000000 0.00000000
0.44705882 0.00000000 0.00000000
0.49411765 0.00000000 0.00000000
0.52941176 0.00000000 0.00000000
0.57647059 0.00000000 0.00000000
0.61176471 0.00000000 0.00000000
0.65098039 0.00000000 0.00000000
0.69411765 0.00000000 0.00000000
0.72941176 0.00000000 0.00000000
0.77254902 0.00000000 0.00784314
0.80784314 0.00000000 0.01568627
0.85098039 0.00000000 0.02745098
0.88235294 0.00000000 0.03921569
0.92549020 0.00000000 0.05490196
0.95686275 0.00000000 0.06666667
1.00000000 0.00000000 0.07843137
1.00000000 0.00000000 0.09019608
1.00000000 0.00000000 0.09803922
1.00000000 0.00000000 0.10980392
1.00000000 0.00000000 0.11764706
1.00000000 0.00000000 0.12156863
0.00000000 0.06274510 0.00784314
0.00392157 0.05882353 0.00784314
0.05098039 0.05490196 0.00392157
0.07843137 0.05098039 0.00000000
0.09803922 0.05490196 0.00000000
0.13333333 0.05098039 0.00000000
0.18039216 0.04313725 0.00000000
0.21176471 0.03137255 0.00000000
0.25490196 0.01568627 0.00000000
0.29019608 0.00000000 0.00000000
0.33333333 0.00000000 0.00000000
0.36862745 0.00000000 0.00000000
0.41176471 0.00000000 0.00000000
0.44705882 0.00000000 0.00000000
0.49411765 0.00000000 0.00000000
0.52941176 0.00000000 0.00000000
0.57647059 0.00000000 0.00000000
0.61568627 0.00000000 0.00000000
0.65098039 0.00000000 0.00000000
0.69411765 0.00000000 0.00000000
0.72941176 0.00000000 0.00000000
0.77254902 0.00000000 0.00784314
0.80784314 0.00000000 0.01568627
0.85098039 0.00000000 0.03137255
0.88627451 0.00000000 0.04313725
0.92549020 0.00000000 0.05490196
0.96078431 0.00000000 0.06666667
1.00000000 0.00000000 0.08235294
1.00000000 0.00000000 0.09019608
1.00000000 0.00000000 0.10196078
1.00000000 0.00000000 0.10980392
1.00000000 0.00000000 0.11764706
1.00000000 0.00000000 0.12549020
0.00000000 0.08235294 0.00000000
0.00000000 0.08235294 0.00000000
0.03137255 0.08235294 0.00000000
0.07843137 0.07843137 0.00000000
0.11372549 0.07450980 0.00000000
0.12941176 0.08235294 0.00000000
0.16470588 0.08235294 0.00000000
0.20784314 0.07058824 0.00000000
0.25098039 0.06274510 0.00000000
0.28627451 0.05098039 0.00000000
0.32941176 0.03137255 0.00000000
0.36470588 0.01568627 0.00000000
0.41176471 0.00000000 0.00000000
0.44705882 0.00000000 0.00000000
0.49411765 0.00000000 0.00000000
0.53333333 0.00000000 0.00000000
0.58039216 0.00000000 0.00000000
0.61568627 0.00000000 0.00000000
0.65098039 0.00000000 0.00000000
0.69803922 0.00000000 0.00000000
0.73333333 0.00000000 0.00000000
0.77647059 0.00000000 0.00784314
0.81176471 0.00000000 0.01960784
0.85098039 0.00000000 0.03137255
0.88627451 0.00000000 0.04313725
0.92941176 0.00000000 0.05882353
0.96078431 0.00000000 0.07058824
1.00000000 0.00000000 0.08235294
1.00000000 0.00000000 0.09411765
1.00000000 0.00000000 0.10196078
1.00000000 0.00000000 0.10980392
1.00000000 0.00000000 0.12156863
1.00000000 0.01176471 0.12549020
0.00000000 0.11372549 0.00000000
0.00000000 0.11372549 0.00000000
0.03921569 0.11372549 0.00000000
0.07450980 0.10980392 0.00000000
0.11764706 0.10980392 0.00000000
0.14901961 0.10980392 0.00000000
0.16470588 0.11764706 0.00000000
0.18823529 0.12156863 0.00000000
0.24313725 0.11372549 0.00000000
0.27843137 0.10588235 0.00000000
0.32549020 0.09803922 0.00000000
0.36470588 0.09019608 0.00000000
0.41176471 0.07843137 0.00000000
0.44705882 0.06666667 0.00000000
0.49411765 0.05490196 0.00000000
0.53333333 0.04313725 0.00000000
0.58039216 0.02352941 0.00000000
0.61568627 0.00392157 0.00000000
0.65490196 0.00000000 0.00000000
0.69803922 0.00000000 0.00000000
0.73333333 0.00000000 0.00000000
0.77647059 0.00000000 0.01176471
0.81176471 0.00000000 0.01960784
0.85490196 0.00000000 0.03529412
0.89019608 0.00000000 0.04705882
0.93333333 0.00000000 0.06274510
0.96470588 0.00000000 0.07450980
1.00000000 0.00000000 0.08627451
1.00000000 0.00000000 0.09803922
1.00000000 0.00784314 0.10588235
1.00000000 0.03529412 0.11372549
1.00000000 0.06274510 0.12156863
1.00000000 0.08235294 0.12941176
0.00392157 0.13725490 0.00000000
0.02745098 0.13725490 0.00000000
0.05882353 0.13725490 0.00000000
0.08235294 0.13725490 0.00000000
0.11372549 0.14117647 0.00000000
0.14509804 0.14117647 0.00000000
0.18431373 0.13725490 0.00000000
0.20000000 0.14509804 0.00000000
0.22745098 0.15294118 0.00000000
0.27058824 0.14509804 0.00000000
0.32156863 0.14117647 0.00000000
0.36078431 0.13725490 0.00000000
0.40784314 0.12941176 0.00000000
0.44705882 0.12549020 0.00000000
0.49411765 0.11764706 0.00000000
0.53333333 0.10980392 0.00000000
0.58039216 0.10196078 0.00000000
0.61960784 0.09019608 0.00000000
0.65490196 0.08235294 0.00000000
0.69803922 0.07058824 0.00000000
0.73725490 0.05882353 0.00000000
0.78039216 0.04313725 0.01176471
0.81568627 0.03529412 0.02352941
0.85882353 0.02745098 0.03921569
0.89019608 0.02745098 0.05098039
0.93333333 0.03137255 0.06666667
0.96862745 0.03921569 0.07843137
1.00000000 0.05490196 0.09019608
1.00000000 0.07058824 0.09803922
1.00000000 0.08627451 0.10980392
1.00000000 0.09803922 0.11764706
1.00000000 0.11372549 0.12549020
1.00000000 0.12549020 0.13333333
0.02745098 0.17254902 0.00000000
0.04705882 0.17254902 0.00000000
0.06666667 0.17647059 0.00000000
0.08627451 0.17647059 0.00000000
0.11764706 0.17647059 0.00000000
0.14509804 0.18039216 0.00000000
0.18039216 0.18039216 0.00000000
0.21568627 0.18039216 0.00000000
0.24313725 0.18431373 0.00000000
0.25882353 0.19607843 0.00000000
0.30980392 0.19215686 0.00000000
0.35294118 0.18823529 0.00000000
0.40392157 0.18431373 0.00000000
0.44705882 0.18039216 0.00000000
0.49411765 0.17647059 0.00000000
0.53333333 0.17254902 0.00000000
0.58039216 0.16470588 0.00000000
0.61960784 0.16078431 0.00000000
0.65490196 0.15294118 0.00000000
0.70196078 0.14901961 0.00000000
0.73725490 0.14117647 0.00000000
0.78039216 0.13333333 0.01568627
0.81568627 0.12941176 0.02745098
0.86274510 0.12549020 0.04313725
0.89411765 0.12549020 0.05882353
0.93725490 0.12549020 0.07058824
0.97254902 0.12941176 0.08235294
1.00000000 0.13333333 0.09411765
1.00000000 0.14117647 0.10588235
1.00000000 0.14901961 0.11372549
1.00000000 0.15686275 0.12156863
1.00000000 0.16470588 0.12941176
1.00000000 0.17254902 0.13725490
0.04313725 0.20392157 0.00000000
0.05882353 0.20392157 0.00000000
0.07843137 0.20784314 0.00000000
0.09803922 0.20784314 0.00000000
0.12156863 0.20784314 0.00000000
0.14901961 0.21176471 0.00000000
0.18431373 0.21568627 0.00000000
0.21568627 0.21568627 0.00000000
0.25882353 0.21568627 0.00000000
0.28235294 0.22352941 0.00000000
0.30196078 0.23137255 0.00000000
0.34509804 0.23137255 0.00000000
0.40000000 0.22745098 0.00000000
0.44313725 0.22352941 0.00000000
0.49411765 0.21960784 0.00000000
0.53333333 0.21568627 0.00000000
0.58039216 0.21176471 0.00000000
0.61960784 0.20784314 0.00000000
0.65490196 0.20392157 0.00000000
0.70196078 0.19607843 0.00000000
0.73725490 0.19215686 0.00392157
0.78431373 0.18431373 0.01568627
0.81960784 0.18039216 0.03137255
0.86274510 0.17647059 0.05098039
0.89803922 0.17647059 0.06274510
0.94117647 0.17647059 0.07843137
0.97647059 0.17647059 0.08627451
1.00000000 0.18039216 0.10196078
1.00000000 0.18431373 0.10980392
1.00000000 0.19215686 0.11764706
1.00000000 0.19607843 0.12549020
1.00000000 0.20392157 0.13333333
1.00000000 0.20784314 0.14117647
0.06274510 0.24705882 0.00000000
0.07843137 0.24705882 0.00000000
0.09411765 0.24705882 0.00000000
0.11372549 0.25098039 0.00000000
0.13725490 0.25098039 0.00000000
0.16078431 0.25490196 0.00000000
0.19215686 0.25882353 0.00000000
0.21960784 0.25882353 0.00000000
0.25882353 0.26274510 0.00000000
0.29803922 0.26274510 0.00000000
0.32941176 0.26666667 0.00000000
0.34509804 0.27843137 0.00000000
0.38823529 0.28235294 0.00000000
0.43529412 0.27450980 0.00000000
0.48627451 0.27058824 0.00000000
0.52549020 0.26666667 0.00000000
0.57647059 0.26274510 0.00000000
0.61568627 0.25882353 0.00000000
0.65490196 0.25490196 0.00000000
0.70196078 0.25098039 0.00000000
0.73725490 0.24705882 0.00784314
0.78431373 0.24313725 0.02352941
0.81960784 0.23921569 0.03921569
0.86666667 0.23529412 0.05490196
0.90196078 0.23529412 0.07058824
0.94509804 0.23529412 0.08627451
0.98039216 0.23529412 0.09411765
1.00000000 0.23529412 0.10588235
1.00000000 0.23921569 0.11764706
1.00000000 0.23921569 0.12549020
1.00000000 0.24313725 0.13333333
1.00000000 0.24705882 0.13725490
1.00000000 0.25098039 0.14509804
0.08627451 0.28235294 0.00000000
0.09803922 0.28235294 0.00000000
0.11372549 0.28627451 0.00000000
0.12941176 0.28627451 0.00000000
0.15294118 0.28627451 0.00000000
0.17254902 0.29019608 0.00000000
0.20392157 0.29411765 0.00000000
0.22745098 0.29411765 0.00000000
0.26274510 0.29803922 0.00000000
0.29411765 0.30196078 0.00000000
0.34509804 0.30196078 0.00000000
0.36862745 0.30588235 0.00000000
0.38823529 0.31372549 0.00000000
0.41960784 0.31764706 0.00000000
0.48235294 0.31372549 0.00000000
0.52156863 0.30980392 0.00000000
0.57254902 0.30588235 0.00000000
0.61176471 0.30196078 0.00000000
0.65098039 0.29803922 0.00000000
0.70196078 0.29411765 0.00000000
0.73725490 0.29019608 0.01176471
0.78431373 0.28627451 0.03137255
0.81960784 0.28235294 0.04705882
0.86666667 0.27843137 0.06274510
0.90196078 0.27843137 0.07843137
0.94901961 0.27450980 0.09019608
0.98431373 0.27450980 0.10196078
1.00000000 0.27450980 0.11372549
1.00000000 0.27843137 0.12156863
1.00000000 0.27843137 0.12941176
1.00000000 0.27843137 0.13725490
1.00000000 0.28235294 0.14509804
1.00000000 0.28627451 0.14901961
0.11372549 0.32941176 0.00000000
0.12549020 0.32941176 0.00000000
0.14117647 0.32941176 0.00000000
0.15294118 0.32941176 0.00000000
0.17647059 0.33333333 0.00000000
0.19215686 0.33333333 0.00000000
0.21960784 0.33725490 0.00000000
0.24313725 0.34117647 0.00000000
0.27450980 0.34117647 0.00000000
0.30196078 0.34509804 0.00000000
0.34117647 0.34509804 0.00000000
0.37647059 0.34509804 0.00000000
0.41960784 0.34901961 0.00000000
0.43529412 0.35686275 0.00000000
0.46274510 0.36470588 0.00000000
0.50980392 0.36078431 0.00000000
0.56470588 0.35686275 0.00000000
0.60784314 0.35294118 0.00000000
0.64705882 0.34901961 0.00000000
0.69803922 0.34509804 0.00392157
0.73725490 0.34117647 0.01960784
0.78431373 0.33725490 0.03921569
0.81960784 0.33725490 0.05490196
0.86666667 0.33333333 0.07450980
0.90588235 0.32941176 0.08627451
0.94901961 0.32941176 0.09803922
0.98431373 0.32549020 0.10980392
1.00000000 0.32549020 0.12156863
1.00000000 0.32549020 0.12941176
1.00000000 0.32549020 0.13725490
1.00000000 0.32549020 0.14117647
1.00000000 0.32549020 0.14901961
1.00000000 0.32549020 0.15294118
0.13725490 0.36470588 0.00000000
0.14509804 0.36470588 0.00000000
0.16078431 0.36470588 0.00000000
0.17254902 0.36470588 0.00000000
0.19215686 0.36862745 0.00000000
0.21176471 0.36862745 0.00000000
0.23529412 0.37254902 0.00000000
0.25490196 0.37254902 0.00000000
0.28627451 0.37647059 0.00000000
0.30980392 0.38039216 0.00000000
0.34509804 0.38039216 0.00000000
0.37647059 0.38431373 0.00000000
0.42352941 0.38431373 0.00000000
0.45882353 0.38431373 0.00000000
0.47843137 0.39607843 0.00000000
0.49803922 0.40000000 0.00000000
0.55686275 0.39607843 0.00000000
0.60000000 0.39215686 0.00000000
0.64313725 0.38823529 0.00000000
0.69411765 0.38431373 0.01176471
0.73333333 0.38431373 0.03137255
0.78039216 0.38039216 0.05098039
0.81960784 0.37647059 0.06666667
0.86666667 0.37254902 0.08235294
0.90588235 0.37254902 0.09411765
0.94901961 0.36862745 0.10588235
0.98431373 0.36470588 0.11764706
1.00000000 0.36470588 0.12549020
1.00000000 0.36078431 0.13333333
1.00000000 0.36078431 0.14117647
1.00000000 0.36078431 0.14901961
1.00000000 0.36078431 0.15294118
1.00000000 0.36078431 0.16078431
0.16470588 0.40784314 0.00000000
0.17254902 0.40784314 0.00000000
0.18431373 0.40784314 0.00000000
0.19607843 0.40784314 0.00000000
0.21568627 0.41176471 0.00000000
0.23137255 0.41176471 0.00000000
0.25490196 0.41568627 0.00000000
0.27450980 0.41568627 0.00000000
0.30196078 0.41960784 0.00000000
0.32549020 0.41960784 0.00000000
0.35686275 0.42352941 0.00000000
0.38431373 0.42745098 0.00000000
0.42352941 0.42745098 0.00000000
0.45882353 0.42745098 0.00000000
0.50196078 0.42745098 0.00000000
0.52156863 0.43529412 0.00000000
0.54509804 0.44705882 0.00000000
0.58431373 0.44313725 0.00000000
0.63529412 0.43921569 0.00392157
0.68627451 0.43529412 0.02745098
0.72941176 0.43529412 0.04313725
0.77647059 0.43137255 0.06666667
0.81960784 0.42745098 0.07843137
0.86666667 0.42352941 0.09411765
0.90196078 0.41960784 0.10588235
0.94901961 0.41960784 0.11764706
0.98431373 0.41568627 0.12549020
1.00000000 0.41176471 0.13333333
1.00000000 0.40784314 0.14117647
1.00000000 0.40392157 0.14901961
1.00000000 0.40392157 0.15294118
1.00000000 0.40392157 0.16078431
1.00000000 0.40392157 0.16470588
0.18039216 0.44313725 0.00000000
0.19215686 0.44313725 0.00000000
0.20392157 0.44313725 0.00000000
0.21568627 0.44313725 0.00000000
0.23529412 0.44705882 0.00000000
0.25098039 0.44705882 0.00000000
0.27058824 0.44705882 0.00000000
0.29019608 0.45098039 0.00000000
0.31764706 0.45098039 0.00000000
0.33725490 0.45490196 0.00000000
0.36862745 0.45882353 0.00000000
0.39215686 0.45882353 0.00000000
0.42745098 0.46274510 0.00000000
0.45882353 0.46666667 0.00000000
0.50196078 0.46666667 0.00000000
0.54117647 0.46666667 0.00000000
0.56470588 0.47450980 0.00000000
0.58039216 0.48235294 0.00392157
0.61960784 0.48235294 0.01568627
0.67843137 0.47843137 0.04313725
0.72156863 0.47450980 0.05882353
0.77254902 0.47058824 0.07450980
0.81568627 0.46666667 0.09019608
0.86274510 0.46274510 0.10196078
0.90196078 0.45882353 0.11372549
0.94509804 0.45490196 0.12549020
0.98431373 0.45490196 0.13333333
1.00000000 0.45098039 0.14117647
1.00000000 0.44705882 0.14509804
1.00000000 0.44313725 0.15294118
1.00000000 0.43921569 0.16078431
1.00000000 0.43921569 0.16470588
1.00000000 0.43529412 0.16862745
0.20392157 0.48627451 0.00000000
0.21176471 0.48627451 0.00000000
0.22352941 0.48627451 0.00000000
0.23529412 0.49019608 0.00000000
0.25490196 0.49019608 0.00000000
0.27058824 0.49019608 0.00000000
0.29411765 0.49019608 0.00000000
0.30980392 0.49411765 0.00000000
0.33725490 0.49411765 0.00000000
0.35686275 0.49803922 0.00000000
0.38431373 0.49803922 0.00000000
0.40784314 0.50196078 0.00000000
0.43921569 0.50588235 0.00000000
0.46666667 0.50980392 0.00000000
0.50588235 0.50980392 0.00000000
0.53725490 0.51372549 0.01176471
0.58823529 0.50980392 0.02745098
0.61176471 0.51764706 0.03921569
0.62745098 0.52549020 0.04705882
0.66274510 0.52941176 0.05882353
0.70980392 0.52549020 0.07450980
0.76470588 0.52156863 0.09019608
0.80784314 0.51764706 0.10196078
0.85490196 0.51372549 0.11372549
0.89411765 0.50980392 0.12156863
0.94117647 0.50588235 0.13333333
0.97647059 0.50196078 0.14117647
1.00000000 0.49411765 0.14901961
1.00000000 0.49411765 0.15294118
1.00000000 0.49019608 0.16078431
1.00000000 0.48627451 0.16470588
1.00000000 0.48235294 0.17254902
1.00000000 0.47843137 0.17647059
0.22352941 0.52156863 0.00000000
0.23137255 0.52156863 0.00000000
0.23921569 0.52156863 0.00000000
0.25098039 0.52549020 0.00000000
0.27058824 0.52549020 0.00000000
0.28627451 0.52549020 0.00000000
0.30980392 0.52549020 0.00000000
0.32941176 0.52549020 0.00000000
0.35294118 0.52941176 0.00000000
0.37254902 0.52941176 0.00000000
0.40000000 0.53333333 0.00000000
0.41960784 0.53725490 0.00000000
0.45098039 0.54117647 0.00784314
0.47450980 0.54117647 0.01568627
0.50980392 0.54509804 0.02352941
0.54117647 0.54901961 0.03529412
0.58431373 0.54901961 0.05098039
0.62352941 0.54901961 0.06274510
0.65098039 0.55294118 0.07058824
0.66666667 0.56078431 0.07843137
0.69411765 0.56470588 0.08627451
0.75294118 0.56078431 0.10196078
0.79607843 0.55686275 0.10980392
0.84705882 0.54901961 0.12156863
0.88627451 0.54509804 0.12941176
0.93725490 0.54117647 0.13725490
0.97254902 0.53725490 0.14509804
1.00000000 0.53333333 0.15294118
1.00000000 0.52941176 0.15686275
1.00000000 0.52549020 0.16470588
1.00000000 0.52156863 0.17254902
1.00000000 0.51764706 0.17647059
1.00000000 0.51372549 0.18039216
0.24313725 0.56862745 0.00000000
0.25098039 0.56862745 0.00000000
0.26274510 0.56862745 0.00000000
0.27058824 0.56862745 0.00000000
0.29019608 0.56862745 0.00000000
0.30588235 0.56862745 0.00392157
0.32941176 0.56862745 0.00784314
0.34901961 0.57254902 0.01176471
0.37254902 0.57254902 0.01568627
0.39215686 0.57254902 0.02352941
0.41960784 0.57647059 0.02745098
0.43921569 0.58039216 0.03529412
0.46666667 0.58039216 0.04313725
0.49019608 0.58431373 0.05098039
0.52156863 0.58823529 0.05882353
0.54901961 0.59215686 0.06666667
0.58431373 0.59215686 0.07843137
0.61568627 0.59215686 0.08627451
0.65490196 0.59215686 0.09411765
0.69411765 0.59215686 0.10196078
0.70980392 0.60000000 0.10588235
0.73333333 0.60784314 0.10980392
0.78039216 0.60392157 0.12156863
0.83529412 0.59607843 0.12941176
0.87843137 0.59215686 0.13725490
0.92549020 0.58823529 0.14509804
0.96470588 0.58431373 0.15294118
1.00000000 0.58039216 0.16078431
1.00000000 0.57647059 0.16470588
1.00000000 0.57254902 0.17254902
1.00000000 0.56862745 0.17647059
1.00000000 0.56078431 0.18431373
1.00000000 0.56078431 0.18823529
0.26274510 0.60392157 0.02352941
0.26666667 0.60392157 0.02745098
0.27843137 0.60392157 0.02745098
0.28627451 0.60392157 0.02745098
0.30196078 0.60392157 0.03137255
0.31764706 0.60392157 0.03529412
0.34117647 0.60784314 0.03921569
0.36078431 0.60784314 0.04313725
0.38823529 0.60784314 0.05098039
0.40784314 0.60784314 0.05490196
0.43137255 0.61176471 0.05882353
0.45490196 0.61176471 0.06666667
0.48235294 0.61568627 0.07058824
0.50196078 0.61960784 0.07843137
0.53333333 0.61960784 0.08235294
0.55686275 0.62352941 0.09019608
0.59215686 0.62745098 0.09411765
0.61960784 0.62745098 0.10196078
0.65098039 0.62745098 0.10980392
0.69803922 0.62745098 0.11764706
0.72941176 0.62745098 0.12156863
0.74901961 0.63529412 0.12549020
0.76862745 0.64313725 0.12941176
0.81960784 0.63529412 0.13725490
0.86666667 0.63137255 0.14509804
0.91764706 0.62745098 0.15294118
0.95686275 0.62352941 0.15686275
1.00000000 0.61568627 0.16470588
1.00000000 0.61176471 0.17254902
1.00000000 0.60784314 0.17647059
1.00000000 0.60392157 0.18039216
1.00000000 0.60000000 0.18823529
1.00000000 0.59215686 0.19215686
0.27843137 0.63921569 0.05882353
0.28235294 0.63921569 0.05882353
0.29411765 0.63921569 0.06274510
0.30196078 0.63921569 0.06274510
0.31764706 0.63921569 0.06274510
0.33333333 0.63921569 0.06666667
0.35294118 0.63921569 0.07058824
0.37254902 0.64313725 0.07450980
0.40000000 0.64313725 0.07843137
0.41960784 0.64313725 0.08235294
0.44705882 0.64313725 0.08627451
0.46666667 0.64705882 0.09019608
0.49411765 0.64705882 0.09411765
0.51764706 0.65098039 0.09803922
0.54509804 0.65098039 0.10196078
0.56470588 0.65490196 0.10588235
0.59607843 0.65882353 0.11372549
0.62352941 0.65882353 0.11764706
0.65098039 0.65882353 0.12156863
0.69019608 0.66274510 0.12941176
0.72941176 0.65882353 0.13333333
0.76862745 0.65882353 0.14117647
0.78431373 0.66666667 0.14117647
0.80784314 0.67450980 0.14509804
0.84705882 0.67058824 0.14901961
0.90588235 0.66274510 0.15686275
0.94509804 0.65882353 0.16470588
0.99607843 0.65490196 0.16862745
1.00000000 0.64705882 0.17647059
1.00000000 0.64313725 0.18039216
1.00000000 0.63921569 0.18431373
1.00000000 0.63137255 0.19215686
1.00000000 0.62745098 0.19607843
0.29411765 0.68235294 0.09019608
0.30196078 0.68235294 0.09019608
0.30980392 0.68235294 0.09411765
0.31764706 0.68235294 0.09411765
0.33333333 0.68235294 0.09411765
0.34901961 0.68235294 0.09803922
0.36862745 0.68235294 0.09803922
0.38823529 0.68235294 0.10196078
0.41176471 0.68235294 0.10588235
0.43529412 0.68235294 0.10588235
0.46274510 0.68627451 0.10980392
0.48235294 0.68627451 0.11372549
0.50980392 0.68627451 0.11764706
0.52941176 0.69019608 0.12156863
0.55686275 0.69019608 0.12549020
0.58039216 0.69411765 0.12549020
0.60784314 0.69411765 0.12941176
0.63137255 0.69803922 0.13333333
0.65882353 0.69803922 0.13725490
0.69411765 0.70196078 0.14117647
0.72156863 0.70196078 0.14509804
0.76862745 0.69803922 0.15294118
0.80392157 0.69803922 0.15686275
0.82745098 0.70588235 0.15686275
0.83921569 0.71372549 0.16078431
0.88235294 0.70980392 0.16470588
0.93333333 0.70588235 0.16862745
0.98431373 0.69803922 0.17647059
1.00000000 0.69411765 0.18039216
1.00000000 0.68627451 0.18823529
1.00000000 0.68235294 0.19215686
1.00000000 0.67843137 0.19607843
1.00000000 0.67058824 0.20000000
0.30588235 0.71372549 0.10980392
0.31372549 0.71372549 0.11372549
0.32156863 0.71372549 0.11372549
0.32941176 0.71372549 0.11372549
0.34509804 0.71372549 0.11372549
0.35686275 0.71372549 0.11764706
0.38039216 0.71372549 0.11764706
0.39607843 0.71764706 0.12156863
0.41960784 0.71764706 0.12156863
0.44313725 0.71764706 0.12549020
0.47058824 0.71764706 0.12549020
0.49019608 0.71764706 0.12941176
0.51764706 0.71764706 0.13333333
0.54117647 0.71764706 0.13725490
0.56862745 0.72156863 0.13725490
0.58823529 0.72156863 0.14117647
0.61568627 0.72549020 0.14509804
0.63921569 0.72941176 0.14901961
0.66274510 0.72941176 0.14901961
0.69411765 0.73333333 0.15294118
0.72549020 0.73333333 0.15686275
0.76078431 0.73333333 0.16078431
0.79607843 0.73333333 0.16470588
0.84313725 0.72941176 0.16862745
0.85882353 0.73333333 0.16862745
0.87843137 0.74509804 0.16862745
0.90980392 0.74509804 0.17254902
0.97254902 0.73333333 0.18039216
1.00000000 0.72941176 0.18431373
1.00000000 0.72156863 0.18823529
1.00000000 0.71764706 0.19215686
1.00000000 0.70980392 0.20000000
1.00000000 0.70588235 0.20000000
0.32156863 0.75686275 0.13333333
0.32549020 0.75686275 0.13333333
0.33333333 0.75686275 0.13333333
0.34509804 0.75686275 0.13333333
0.35686275 0.75686275 0.13725490
0.37254902 0.75686275 0.13725490
0.39215686 0.75686275 0.13725490
0.40784314 0.75686275 0.14117647
0.43137255 0.75686275 0.14117647
0.45098039 0.75686275 0.14509804
0.47843137 0.75686275 0.14509804
0.50196078 0.75686275 0.14901961
0.52941176 0.75686275 0.15294118
0.55294118 0.75686275 0.15294118
0.58039216 0.76078431 0.15686275
0.60392157 0.76078431 0.15686275
0.63137255 0.76078431 0.16078431
0.65098039 0.76470588 0.16470588
0.67450980 0.76470588 0.16470588
0.70196078 0.76862745 0.16862745
0.72941176 0.76862745 0.16862745
0.76470588 0.77254902 0.17254902
0.79215686 0.77254902 0.17254902
0.83529412 0.77254902 0.17647059
0.87058824 0.76862745 0.18039216
0.90196078 0.77254902 0.18431373
0.91372549 0.78039216 0.18039216
0.94509804 0.78039216 0.18431373
0.99215686 0.77254902 0.18823529
