dist-classic-addon/assets/luts/open/t3-superia-400.cube
TITLE "Superia 400 Street Emulation"
LUT_3D_SIZE 9
DOMAIN_MIN 0.0 0.0 0.0
DOMAIN_MAX 1.0 1.0 1.0
# Converted from an MIT-licensed t3mujinpack Hald CLUT by PhotoAtelier.
0.03921569 0.03137255 0.02745098
0.11764706 0.00392157 0.01176471
0.26666667 0.00000000 0.00000000
0.41176471 0.00000000 0.00000000
0.57647059 0.00000000 0.00000000
0.72941176 0.00000000 0.00000000
0.88235294 0.00000000 0.03921569
1.00000000 0.00000000 0.08627451
1.00000000 0.00000000 0.12156863
0.00000000 0.11372549 0.00000000
0.11764706 0.10980392 0.00000000
0.24313725 0.11372549 0.00000000
0.41176471 0.07843137 0.00000000
0.58039216 0.02352941 0.00000000
0.73333333 0.00000000 0.00000000
0.89019608 0.00000000 0.04705882
1.00000000 0.00000000 0.09803922
1.00000000 0.08235294 0.12941176
0.06274510 0.24705882 0.00000000
0.13725490 0.25098039 0.00000000
0.25882353 0.26274510 0.00000000
0.38823529 0.28235294 0.00000000
0.57647059 0.26274510 0.00000000
0.73725490 0.24705882 0.00784314
0.90196078 0.23529412 0.07058824
1.00000000 0.23921569 0.11764706
1.00000000 0.25098039 0.14509804
0.16470588 0.40784314 0.00000000
0.21568627 0.41176471 0.00000000
0.30196078 0.41960784 0.00000000
0.42352941 0.42745098 0.00000000
0.54509804 0.44705882 0.00000000
0.72941176 0.43529412 0.04313725
0.90196078 0.41960784 0.10588235
1.00000000 0.40784314 0.14117647
1.00000000 0.40392157 0.16470588
0.24313725 0.56862745 0.00000000
0.29019608 0.56862745 0.00000000
0.37254902 0.57254902 0.01568627
0.46666667 0.58039216 0.04313725
0.58431373 0.59215686 0.07843137
0.70980392 0.60000000 0.10588235
0.87843137 0.59215686 0.13725490
1.00000000 0.57647059 0.16470588
1.00000000 0.56078431 0.18823529
0.30588235 0.71372549 0.10980392
0.34509804 0.71372549 0.11372549
0.41960784 0.71764706 0.12156863
0.51764706 0.71764706 0.13333333
0.61568627 0.72549020 0.14509804
0.72549020 0.73333333 0.15686275
0.85882353 0.73333333 0.16862745
1.00000000 0.72941176 0.18431373
1.00000000 0.70588235 0.20000000
0.35294118 0.85882353 0.18039216
0.38823529 0.85882353 0.18039216
0.45490196 0.85490196 0.18431373
0.55294118 0.85490196 0.18823529
0.65882353 0.85490196 0.19215686
0.74901961 0.86274510 0.19607843
0.85490196 0.86666667 0.19607843
0.99607843 0.85882353 0.20000000
1.00000000 0.85098039 0.20000000
0.37647059 0.98431373 0.20784314
0.40784314 0.98431373 0.20784314
0.47058824 0.98039216 0.20784314
0.56078431 0.98039216 0.21176471
0.66666667 0.97647059 0.21176471
0.76862745 0.96862745 0.20784314
0.85882353 0.96862745 0.20000000
0.95294118 0.96078431 0.18431373
1.00000000 0.94117647 0.16470588
0.35294118 1.00000000 0.18823529
0.38039216 1.00000000 0.18431373
0.44313725 1.00000000 0.18431373
0.53333333 1.00000000 0.18039216
0.63137255 1.00000000 0.17254902
0.73333333 1.00000000 0.16078431
0.83529412 1.00000000 0.14117647
0.92156863 1.00000000 0.11372549
1.00000000 1.00000000 0.06274510
0.00784314 0.03529412 0.12156863
0.12941176 0.00000000 0.12549020
0.26666667 0.00000000 0.10980392
0.41176471 0.00000000 0.10980392
0.57647059 0.00000000 0.09803922
0.72941176 0.00000000 0.10196078
0.88235294 0.00000000 0.12549020
1.00000000 0.00000000 0.16078431
1.00000000 0.00000000 0.19607843
0.00000000 0.11372549 0.10980392
0.11372549 0.10980392 0.10588235
0.23921569 0.10980392 0.12156863
0.41176471 0.07450980 0.09803922
0.58431373 0.01568627 0.09411765
0.73725490 0.00000000 0.10196078
0.89019608 0.00000000 0.12941176
1.00000000 0.00000000 0.16862745
1.00000000 0.08627451 0.20392157
0.04313725 0.24705882 0.09803922
0.12941176 0.25490196 0.09411765
0.26274510 0.26274510 0.09019608
0.39607843 0.27843137 0.08235294
0.58039216 0.26274510 0.08627451
0.74117647 0.24705882 0.10980392
0.90196078 0.23529412 0.14509804
1.00000000 0.23921569 0.18431373
1.00000000 0.25098039 0.21176471
0.16862745 0.40784314 0.07843137
0.21960784 0.41176471 0.07843137
0.30196078 0.41960784 0.07843137
0.42745098 0.42745098 0.08235294
0.54509804 0.44705882 0.09803922
0.72941176 0.43137255 0.13333333
0.90588235 0.41960784 0.16862745
1.00000000 0.40784314 0.20392157
1.00000000 0.40392157 0.23137255
0.25098039 0.56862745 0.10980392
0.29411765 0.56862745 0.10980392
0.37254902 0.57254902 0.11764706
0.46666667 0.58431373 0.13333333
0.58823529 0.59215686 0.14901961
0.70980392 0.60392157 0.17254902
0.87843137 0.59215686 0.20000000
1.00000000 0.57647059 0.22745098
1.00000000 0.55686275 0.24705882
0.31372549 0.71372549 0.17254902
0.34901961 0.71372549 0.17647059
0.42352941 0.71764706 0.18039216
0.52156863 0.71764706 0.18823529
0.61568627 0.72549020 0.20000000
0.72549020 0.73333333 0.21568627
0.85882353 0.73725490 0.23137255
1.00000000 0.72941176 0.24313725
1.00000000 0.70588235 0.25882353
0.35686275 0.85882353 0.23137255
0.38823529 0.85882353 0.23137255
0.45882353 0.85490196 0.23529412
0.55294118 0.85490196 0.23921569
0.65882353 0.85882353 0.24705882
0.74901961 0.86274510 0.25098039
0.85490196 0.86666667 0.25098039
0.99215686 0.85882353 0.25490196
1.00000000 0.85098039 0.25098039
0.38039216 0.98431373 0.25882353
0.40784314 0.98431373 0.25882353
0.47058824 0.98039216 0.25882353
0.56470588 0.98039216 0.25882353
0.66666667 0.97254902 0.25882353
0.76470588 0.96862745 0.25882353
0.85882353 0.96862745 0.25098039
0.95294118 0.96078431 0.23921569
1.00000000 0.94117647 0.22352941
0.35294118 1.00000000 0.23921569
0.38039216 1.00000000 0.23921569
0.44313725 1.00000000 0.23529412
0.53333333 1.00000000 0.23137255
0.63137255 1.00000000 0.22745098
0.73333333 1.00000000 0.21568627
0.83529412 1.00000000 0.20392157
0.92156863 1.00000000 0.18039216
1.00000000 1.00000000 0.15294118
0.03137255 0.00000000 0.24705882
0.16078431 0.00000000 0.21960784
0.28235294 0.00000000 0.20000000
0.41568627 0.00000000 0.25490196
0.58039216 0.00000000 0.26666667
0.73333333 0.00000000 0.27058824
0.88627451 0.00000000 0.25490196
1.00000000 0.00000000 0.25882353
1.00000000 0.00000000 0.28235294
0.04313725 0.10588235 0.20000000
0.09803922 0.11764706 0.20392157
0.25490196 0.10196078 0.23529412
0.41960784 0.06666667 0.25882353
0.58431373 0.01176471 0.28235294
0.73725490 0.00000000 0.26666667
0.89411765 0.00000000 0.25490196
1.00000000 0.00000000 0.26274510
1.00000000 0.08627451 0.28627451
0.00000000 0.25490196 0.25882353
0.10980392 0.25882353 0.25882353
0.26666667 0.26274510 0.25882353
0.40000000 0.27450980 0.28627451
0.58431373 0.25882353 0.26666667
0.74509804 0.24313725 0.25490196
0.90588235 0.23137255 0.25490196
1.00000000 0.23529412 0.27450980
1.00000000 0.25098039 0.29803922
0.14117647 0.41176471 0.27450980
0.20000000 0.41568627 0.27058824
0.29411765 0.42352941 0.26274510
0.43137255 0.42745098 0.25882353
0.55294118 0.44313725 0.24705882
0.73725490 0.43137255 0.25098039
0.90980392 0.41960784 0.26666667
1.00000000 0.40784314 0.28627451
1.00000000 0.40392157 0.31372549
0.25882353 0.56862745 0.25098039
0.29803922 0.56862745 0.25098039
0.37647059 0.57647059 0.25098039
0.47058824 0.58431373 0.25098039
0.59215686 0.59215686 0.25882353
0.70588235 0.60392157 0.26666667
0.88627451 0.59215686 0.28627451
1.00000000 0.57254902 0.30980392
1.00000000 0.55686275 0.33333333
0.32549020 0.71372549 0.26666667
0.36078431 0.71372549 0.27058824
0.43137255 0.71764706 0.27058824
0.52156863 0.71764706 0.27843137
0.61960784 0.72549020 0.28627451
0.72941176 0.73333333 0.29803922
0.85490196 0.73725490 0.30980392
1.00000000 0.72549020 0.32941176
1.00000000 0.70588235 0.34901961
0.36862745 0.85882353 0.30980392
0.39607843 0.85882353 0.30980392
0.46274510 0.85490196 0.31372549
0.55686275 0.85490196 0.31764706
0.65882353 0.85882353 0.32549020
0.74901961 0.86274510 0.33333333
0.85490196 0.86666667 0.34117647
0.98823529 0.85882353 0.34509804
1.00000000 0.84705882 0.34509804
0.38431373 0.98431373 0.34117647
0.41176471 0.98431373 0.34117647
0.47450980 0.98039216 0.34509804
0.56470588 0.97647059 0.34509804
0.66666667 0.97254902 0.34509804
0.76470588 0.96862745 0.34509804
0.85490196 0.96862745 0.34117647
0.94901961 0.96078431 0.32941176
1.00000000 0.94117647 0.31764706
0.35686275 1.00000000 0.32941176
0.38431373 1.00000000 0.32549020
0.44705882 1.00000000 0.32549020
0.53333333 1.00000000 0.32156863
0.63137255 1.00000000 0.31764706
0.72941176 1.00000000 0.30980392
0.83137255 1.00000000 0.30196078
0.91764706 1.00000000 0.28627451
1.00000000 1.00000000 0.26666667
0.08235294 0.00000000 0.37254902
0.16470588 0.00000000 0.36470588
0.29411765 0.00000000 0.36078431
0.43921569 0.00000000 0.34117647
0.59607843 0.00000000 0.37254902
0.73333333 0.00000000 0.42745098
0.88235294 0.00000000 0.43921569
1.00000000 0.00000000 0.42745098
1.00000000 0.00000000 0.41176471
0.00000000 0.11372549 0.36078431
0.12941176 0.10588235 0.35686275
0.29019608 0.08235294 0.34509804
0.44313725 0.04313725 0.34509804
0.59607843 0.00000000 0.40000000
0.74117647 0.00000000 0.42745098
0.89019608 0.00000000 0.44705882
1.00000000 0.00000000 0.42745098
1.00000000 0.09019608 0.41176471
0.06274510 0.25882353 0.34509804
0.16470588 0.25882353 0.34901961
0.25490196 0.27450980 0.36470588
0.41960784 0.27058824 0.40392157
0.59215686 0.25490196 0.42745098
0.74509804 0.24313725 0.43137255
0.90588235 0.23137255 0.43921569
1.00000000 0.23921569 0.41960784
1.00000000 0.25098039 0.41176471
0.08235294 0.41568627 0.42745098
0.16078431 0.41960784 0.42745098
0.27843137 0.42745098 0.42352941
0.43529412 0.42745098 0.42352941
0.56078431 0.43921569 0.44705882
0.74117647 0.42745098 0.43529412
0.91372549 0.41568627 0.42352941
1.00000000 0.40392157 0.41176471
1.00000000 0.40000000 0.41176471
0.22352941 0.57254902 0.45098039
0.27058824 0.57254902 0.44705882
0.35294118 0.57647059 0.43921569
0.45490196 0.58823529 0.43137255
0.59607843 0.59215686 0.42352941
0.70196078 0.60784314 0.41176471
0.89411765 0.58823529 0.40784314
1.00000000 0.57254902 0.41176471
1.00000000 0.55686275 0.42352941
0.32941176 0.71372549 0.41176471
0.36470588 0.71372549 0.41176471
0.43529412 0.71764706 0.41176471
0.52156863 0.72156863 0.40784314
0.61960784 0.72941176 0.40392157
0.73333333 0.73333333 0.40392157
0.85098039 0.74117647 0.40784314
1.00000000 0.72549020 0.41960784
1.00000000 0.70196078 0.43529412
0.38431373 0.85490196 0.40784314
0.41176471 0.85490196 0.40784314
0.47843137 0.85490196 0.40784314
0.56470588 0.85490196 0.41176471
0.66274510 0.85882353 0.41568627
0.74901961 0.86274510 0.41960784
0.85882353 0.86666667 0.42745098
0.98431373 0.86274510 0.43529412
1.00000000 0.84705882 0.44313725
0.40000000 0.98039216 0.42745098
0.42745098 0.98039216 0.42745098
0.48627451 0.98039216 0.42745098
0.57254902 0.97647059 0.43137255
0.67058824 0.97254902 0.43529412
0.76470588 0.96862745 0.43529412
0.85490196 0.96862745 0.43529412
0.94901961 0.96078431 0.43137255
1.00000000 0.94117647 0.42745098
0.36470588 1.00000000 0.42352941
0.39215686 1.00000000 0.42352941
0.45098039 1.00000000 0.42352941
0.53725490 1.00000000 0.42352941
0.63529412 1.00000000 0.41960784
0.72941176 1.00000000 0.41568627
0.83137255 1.00000000 0.40784314
0.91372549 1.00000000 0.39607843
1.00000000 1.00000000 0.38431373
0.11764706 0.00000000 0.49803922
0.19215686 0.00000000 0.49803922
0.30980392 0.00000000 0.50196078
0.44705882 0.00000000 0.50980392
0.60392157 0.00000000 0.51372549
0.74901961 0.00000000 0.50980392
0.89019608 0.00000000 0.55294118
1.00000000 0.00000000 0.58823529
1.00000000 0.00000000 0.60784314
0.05882353 0.09411765 0.50196078
0.16862745 0.08235294 0.50196078
0.30196078 0.06274510 0.50588235
0.45490196 0.01960784 0.51764706
0.61568627 0.00000000 0.50980392
0.75686275 0.00000000 0.51372549
0.89411765 0.00000000 0.56862745
1.00000000 0.01960784 0.58823529
1.00000000 0.10980392 0.61176471
0.00000000 0.26666667 0.51764706
0.07450980 0.27450980 0.51764706
0.28235294 0.27058824 0.51372549
0.45882353 0.26274510 0.50980392
0.61960784 0.24705882 0.50980392
0.76078431 0.23529412 0.54509804
0.90980392 0.23137255 0.59215686
1.00000000 0.24313725 0.59215686
1.00000000 0.25882353 0.59607843
0.14509804 0.41960784 0.50588235
0.20392157 0.42352941 0.50980392
0.31764706 0.42745098 0.51372549
0.41960784 0.43921569 0.53333333
0.58039216 0.43529412 0.57254902
0.74901961 0.42745098 0.59215686
0.91764706 0.41568627 0.58823529
1.00000000 0.40392157 0.60784314
1.00000000 0.40392157 0.57647059
0.19215686 0.57647059 0.59215686
0.23921569 0.57647059 0.59215686
0.32549020 0.58431373 0.59215686
0.44313725 0.59215686 0.58823529
0.59607843 0.59215686 0.58823529
0.70588235 0.60392157 0.60784314
0.89411765 0.58431373 0.59607843
1.00000000 0.56862745 0.57254902
1.00000000 0.55294118 0.55686275
0.29019608 0.71764706 0.61176471
0.32549020 0.71764706 0.61176471
0.39607843 0.71764706 0.61176471
0.49019608 0.72549020 0.60392157
0.60392157 0.72941176 0.58431373
0.73333333 0.73333333 0.57254902
0.84313725 0.74509804 0.55686275
1.00000000 0.72156863 0.54901961
1.00000000 0.69803922 0.54117647
0.38431373 0.85490196 0.56078431
0.41568627 0.85490196 0.56078431
0.47843137 0.85490196 0.55686275
0.56470588 0.85490196 0.55294118
0.65882353 0.85882353 0.54509804
0.74901961 0.86274510 0.54117647
0.86666667 0.86274510 0.53333333
0.97647059 0.86666667 0.52941176
1.00000000 0.83921569 0.53333333
0.42352941 0.98039216 0.52941176
0.44705882 0.98039216 0.52941176
0.50196078 0.97647059 0.52941176
0.58431373 0.97647059 0.52941176
0.67843137 0.97254902 0.52941176
0.76862745 0.96862745 0.52549020
0.85490196 0.96470588 0.52549020
0.95294118 0.95686275 0.52156863
1.00000000 0.94117647 0.51372549
0.39215686 1.00000000 0.51372549
0.41568627 1.00000000 0.50980392
0.47058824 1.00000000 0.50980392
0.54901961 1.00000000 0.50980392
0.64313725 1.00000000 0.50980392
0.73725490 1.00000000 0.50588235
0.83137255 1.00000000 0.50196078
0.91372549 1.00000000 0.49411765
1.00000000 1.00000000 0.49019608
0.16862745 0.00000000 0.61960784
0.22745098 0.00000000 0.61960784
0.33333333 0.00000000 0.63137255
0.46666667 0.00000000 0.64705882
0.61176471 0.00000000 0.66274510
0.74901961 0.00000000 0.67450980
0.89803922 0.00000000 0.66274510
1.00000000 0.00000000 0.67058824
1.00000000 0.00000000 0.72941176
0.14901961 0.05882353 0.62745098
0.21568627 0.05098039 0.63137255
0.33333333 0.02352941 0.64313725
0.47450980 0.00000000 0.65490196
0.61960784 0.00000000 0.66666667
0.75686275 0.00000000 0.67058824
0.90980392 0.00000000 0.65882353
1.00000000 0.02745098 0.67843137
1.00000000 0.12549020 0.73725490
0.00000000 0.27058824 0.65490196
0.16078431 0.26666667 0.65882353
0.31372549 0.26274510 0.66274510
0.47058824 0.25490196 0.67058824
0.62352941 0.24313725 0.67450980
0.77647059 0.23137255 0.66274510
0.92549020 0.22745098 0.66274510
1.00000000 0.24313725 0.70588235
1.00000000 0.26274510 0.73725490
0.08235294 0.42745098 0.67450980
0.19607843 0.42352941 0.67058824
0.30196078 0.43137255 0.67058824
0.43529412 0.43921569 0.66274510
0.61960784 0.42745098 0.65882353
0.77647059 0.41960784 0.66274510
0.92941176 0.41176471 0.70196078
1.00000000 0.40392157 0.74117647
1.00000000 0.40392157 0.72941176
0.24313725 0.58039216 0.65882353
0.27843137 0.58431373 0.66274510
0.35686275 0.58823529 0.66274510
0.47058824 0.59215686 0.67450980
0.58039216 0.60000000 0.69803922
0.72549020 0.59607843 0.72941176
0.90196078 0.58039216 0.73725490
1.00000000 0.56470588 0.72941176
1.00000000 0.55294118 0.74509804
0.28235294 0.71764706 0.73333333
0.31372549 0.71764706 0.73725490
0.38039216 0.72156863 0.73725490
0.47058824 0.72941176 0.73725490
0.59215686 0.73333333 0.72941176
0.73725490 0.72941176 0.72549020
0.84705882 0.73725490 0.74117647
1.00000000 0.71764706 0.72941176
1.00000000 0.69411765 0.69803922
0.34901961 0.85882353 0.74117647
0.38039216 0.85882353 0.74509804
0.44313725 0.85882353 0.74509804
0.52941176 0.85882353 0.74509804
0.62745098 0.86274510 0.72941176
0.72941176 0.86666667 0.70980392
0.86666667 0.86274510 0.69411765
0.96470588 0.86666667 0.67058824
1.00000000 0.83529412 0.65098039
0.41568627 0.98039216 0.68235294
0.44313725 0.97647059 0.68235294
0.49803922 0.97647059 0.67843137
0.58039216 0.97254902 0.67058824
0.67843137 0.97254902 0.66274510
0.76470588 0.96862745 0.65098039
0.85098039 0.96470588 0.63529412
0.95686275 0.95686275 0.61960784
1.00000000 0.94117647 0.60392157
0.41176471 1.00000000 0.61568627
0.43529412 1.00000000 0.61176471
0.48627451 1.00000000 0.61176471
0.56470588 1.00000000 0.60784314
0.65490196 1.00000000 0.60000000
0.74509804 1.00000000 0.59607843
0.83529412 1.00000000 0.58823529
0.91372549 1.00000000 0.57647059
1.00000000 1.00000000 0.57254902
0.22745098 0.00000000 0.74901961
0.27450980 0.00000000 0.75686275
0.36470588 0.00000000 0.76862745
0.49019608 0.00000000 0.78431373
0.62352941 0.00000000 0.80392157
0.75294118 0.00000000 0.81960784
0.89411765 0.00000000 0.83137255
1.00000000 0.00000000 0.83529412
1.00000000 0.00000000 0.81568627
0.22745098 0.00392157 0.76470588
0.27843137 0.00000000 0.76862745
0.37647059 0.00000000 0.78039216
0.49803922 0.00000000 0.79607843
0.63137255 0.00000000 0.80784314
0.76078431 0.00000000 0.82352941
0.90588235 0.00000000 0.83529412
1.00000000 0.06666667 0.83137255
1.00000000 0.12941176 0.81176471
0.18431373 0.25882353 0.79215686
0.25098039 0.25490196 0.79607843
0.36470588 0.25098039 0.80392157
0.49803922 0.24313725 0.81176471
0.63921569 0.23529412 0.81960784
0.77647059 0.22745098 0.83137255
0.92549020 0.23529412 0.83529412
1.00000000 0.24705882 0.82352941
1.00000000 0.26274510 0.81568627
0.00000000 0.43529412 0.81960784
0.04705882 0.43921569 0.81960784
0.28627451 0.43529412 0.82352941
0.46666667 0.43137255 0.82745098
0.63137255 0.42352941 0.83529412
0.78431373 0.41568627 0.83529412
0.94117647 0.40784314 0.82352941
1.00000000 0.40000000 0.81176471
1.00000000 0.40392157 0.83921569
0.15686275 0.58823529 0.83529412
0.21960784 0.58823529 0.83529412
0.33725490 0.59215686 0.83529412
0.47843137 0.59215686 0.83137255
0.58823529 0.60392157 0.81960784
0.76862745 0.58823529 0.81176471
0.92941176 0.57254902 0.81568627
1.00000000 0.56078431 0.84313725
1.00000000 0.55294118 0.87843137
0.32156863 0.72156863 0.81176471
0.34901961 0.72156863 0.81176471
0.40784314 0.72549020 0.81176471
0.49803922 0.72941176 0.81176471
0.61960784 0.72941176 0.81960784
0.71764706 0.73725490 0.83921569
0.87058824 0.72941176 0.87058824
1.00000000 0.71372549 0.87450980
1.00000000 0.69019608 0.85882353
0.35294118 0.85882353 0.87058824
0.38039216 0.85882353 0.87058824
0.43529412 0.85882353 0.87450980
0.51372549 0.85882353 0.87843137
0.60784314 0.86274510 0.87450980
0.71764706 0.86666667 0.86666667
0.86666667 0.85882353 0.85490196
0.96470588 0.86274510 0.86274510
1.00000000 0.83137255 0.84313725
0.38823529 0.97647059 0.85490196
0.41568627 0.97647059 0.85882353
0.47058824 0.97647059 0.85882353
0.54901961 0.97254902 0.86274510
0.63921569 0.97254902 0.86274510
0.72941176 0.96862745 0.84313725
0.83137255 0.96470588 0.81568627
0.95294118 0.95294118 0.78431373
1.00000000 0.94509804 0.75294118
0.40000000 1.00000000 0.77647059
0.42352941 1.00000000 0.77647059
0.47843137 1.00000000 0.77254902
0.55686275 1.00000000 0.76470588
0.64705882 1.00000000 0.75294118
0.73725490 1.00000000 0.73725490
0.82352941 1.00000000 0.71764706
0.90980392 1.00000000 0.69803922
1.00000000 1.00000000 0.67843137
0.28235294 0.00000000 0.89019608
0.32156863 0.00000000 0.89411765
0.40392157 0.00000000 0.90588235
0.51372549 0.00000000 0.92156863
0.63529412 0.00000000 0.93725490
0.76078431 0.00000000 0.95294118
0.89803922 0.00000000 0.97254902
1.00000000 0.00000000 0.98431373
1.00000000 0.05882353 0.98823529
0.29803922 0.00000000 0.90196078
0.33725490 0.00000000 0.90588235
0.41568627 0.00000000 0.91764706
0.52549020 0.00000000 0.92941176
0.64705882 0.00000000 0.94509804
0.77254902 0.00000000 0.96078431
0.90980392 0.01176471 0.97647059
1.00000000 0.09803922 0.98823529
1.00000000 0.15294118 0.98823529
0.28627451 0.24313725 0.92941176
0.32549020 0.23921569 0.92941176
0.41568627 0.23529412 0.93725490
0.52941176 0.23137255 0.94509804
0.66274510 0.22745098 0.95686275
0.78823529 0.22745098 0.97254902
0.92549020 0.23921569 0.98431373
1.00000000 0.25490196 0.98823529
1.00000000 0.27450980 0.98431373
0.16862745 0.43137255 0.95686275
0.24313725 0.42745098 0.95686275
0.36862745 0.42745098 0.96078431
0.50980392 0.41960784 0.96862745
0.65882353 0.41568627 0.97647059
0.80000000 0.41176471 0.98431373
0.94117647 0.40392157 0.98823529
1.00000000 0.40392157 0.98823529
1.00000000 0.40784314 0.96862745
0.19607843 0.58823529 0.98431373
0.25882353 0.58823529 0.98431373
0.32156863 0.59607843 0.98431373
0.42352941 0.60392157 0.98823529
0.61568627 0.59215686 0.98823529
0.77647059 0.58039216 0.98823529
0.93725490 0.56862745 0.98431373
1.00000000 0.55686275 0.96470588
1.00000000 0.54509804 0.94901961
0.22745098 0.72941176 0.98823529
0.26666667 0.72941176 0.98823529
0.35686275 0.72941176 0.98431373
0.47843137 0.73333333 0.98039216
0.61960784 0.72941176 0.97254902
0.72156863 0.74117647 0.96470588
0.90980392 0.72156863 0.95294118
1.00000000 0.70196078 0.94901961
1.00000000 0.68235294 0.96862745
0.39607843 0.85882353 0.94901961
0.41568627 0.85882353 0.94901961
0.46666667 0.85882353 0.94901961
0.53725490 0.86274510 0.94509804
0.63137255 0.86666667 0.94509804
0.74117647 0.86274510 0.95294118
0.84313725 0.86666667 0.96862745
0.98431373 0.85098039 0.98823529
1.00000000 0.82352941 0.98431373
0.39215686 0.97647059 0.98039216
0.41568627 0.97647059 0.98431373
0.46666667 0.97254902 0.98431373
0.54117647 0.97254902 0.98823529
0.61960784 0.97254902 0.98823529
0.70588235 0.96862745 0.98039216
0.81568627 0.96470588 0.96078431
0.95294118 0.94509804 0.94117647
1.00000000 0.93725490 0.93725490
0.37647059 1.00000000 0.93333333
0.40000000 1.00000000 0.93333333
0.45098039 1.00000000 0.93333333
0.52549020 1.00000000 0.93333333
0.61568627 1.00000000 0.93333333
0.69803922 1.00000000 0.92941176
0.78823529 1.00000000 0.90980392
0.88627451 1.00000000 0.87450980
1.00000000 1.00000000 0.84313725
0.33725490 0.00000000 1.00000000
0.36862745 0.00000000 1.00000000
0.43921569 0.00000000 1.00000000
0.53725490 0.00000000 1.00000000
0.65490196 0.00000000 1.00000000
0.77254902 0.00000000 1.00000000
0.90588235 0.00000000 1.00000000
1.00000000 0.00000000 1.00000000
1.00000000 0.10588235 1.00000000
0.35686275 0.00000000 1.00000000
0.38823529 0.00000000 1.00000000
0.45490196 0.00000000 1.00000000
0.54901961 0.00000000 1.00000000
0.66666667 0.00000000 1.00000000
0.78431373 0.00000000 1.00000000
0.91372549 0.05882353 1.00000000
1.00000000 0.12549020 1.00000000
1.00000000 0.17647059 1.00000000
0.36470588 0.22745098 1.00000000
0.39607843 0.22745098 1.00000000
0.46666667 0.22352941 1.00000000
0.56862745 0.21960784 1.00000000
0.68235294 0.22352941 1.00000000
0.80392157 0.23137255 1.00000000
0.93333333 0.24705882 1.00000000
1.00000000 0.26274510 1.00000000
1.00000000 0.28627451 1.00000000
0.31372549 0.41960784 1.00000000
0.35686275 0.41568627 1.00000000
0.44313725 0.41568627 1.00000000
0.55686275 0.41176471 1.00000000
0.69019608 0.40784314 1.00000000
0.81568627 0.40392157 1.00000000
0.94901961 0.40000000 1.00000000
1.00000000 0.40392157 1.00000000
1.00000000 0.41176471 1.00000000
0.00000000 0.60392157 1.00000000
0.14901961 0.60392157 1.00000000
0.34117647 0.59607843 1.00000000
0.49803922 0.59215686 1.00000000
0.65490196 0.58039216 1.00000000
0.80000000 0.57254902 1.00000000
0.94509804 0.56078431 1.00000000
1.00000000 0.55294118 1.00000000
1.00000000 0.54509804 1.00000000
0.19607843 0.73333333 1.00000000
0.25098039 0.73333333 1.00000000
0.36470588 0.72941176 1.00000000
0.48235294 0.72941176 1.00000000
0.56078431 0.74509804 1.00000000
0.74901961 0.72941176 1.00000000
0.91764706 0.71372549 1.00000000
1.00000000 0.69803922 1.00000000
1.00000000 0.67843137 1.00000000
0.30196078 0.86274510 1.00000000
0.32941176 0.86274510 1.00000000
0.39215686 0.86666667 1.00000000
0.48627451 0.86666667 1.00000000
0.60784314 0.86666667 1.00000000
0.74901961 0.85882353 1.00000000
0.84313725 0.86666667 1.00000000
1.00000000 0.83921569 1.00000000
1.00000000 0.80784314 1.00000000
0.43921569 0.97254902 1.00000000
0.45882353 0.97254902 1.00000000
0.50196078 0.97254902 1.00000000
0.56470588 0.97254902 1.00000000
0.64313725 0.96862745 1.00000000
0.72549020 0.96862745 1.00000000
0.83137255 0.95686275 1.00000000
0.92549020 0.94901961 1.00000000
1.00000000 0.92156863 1.00000000
0.38431373 1.00000000 1.00000000
0.40392157 1.00000000 1.00000000
0.45098039 1.00000000 1.00000000
0.52156863 1.00000000 1.00000000
0.60000000 1.00000000 1.00000000
0.67843137 1.00000000 1.00000000
0.76470588 1.00000000 1.00000000
0.87058824 1.00000000 1.00000000
1.00000000 1.00000000 0.99607843
