dist-classic-addon/assets/luts/open/t3-superia-400.cube
TITLE "Superia 400 Street Emulation"
LUT_3D_SIZE 5
DOMAIN_MIN 0.0 0.0 0.0
DOMAIN_MAX 1.0 1.0 1.0
# Converted from an MIT-licensed t3mujinpack Hald CLUT by PhotoAtelier.
0.03921569 0.03137255 0.02745098
0.26666667 0.00000000 0.00000000
0.57647059 0.00000000 0.00000000
0.88235294 0.00000000 0.03921569
1.00000000 0.00000000 0.12156863
0.06274510 0.24705882 0.00000000
0.25882353 0.26274510 0.00000000
0.57647059 0.26274510 0.00000000
0.90196078 0.23529412 0.07058824
1.00000000 0.25098039 0.14509804
0.24313725 0.56862745 0.00000000
0.37254902 0.57254902 0.01568627
0.58431373 0.59215686 0.07843137
0.87843137 0.59215686 0.13725490
1.00000000 0.56078431 0.18823529
0.35294118 0.85882353 0.18039216
0.45490196 0.85490196 0.18431373
0.65882353 0.85490196 0.19215686
0.85490196 0.86666667 0.19607843
1.00000000 0.85098039 0.20000000
0.35294118 1.00000000 0.18823529
0.44313725 1.00000000 0.18431373
0.63137255 1.00000000 0.17254902
0.83529412 1.00000000 0.14117647
1.00000000 1.00000000 0.06274510
0.03137255 0.00000000 0.24705882
0.28235294 0.00000000 0.20000000
0.58039216 0.00000000 0.26666667
0.88627451 0.00000000 0.25490196
1.00000000 0.00000000 0.28235294
0.00000000 0.25490196 0.25882353
0.26666667 0.26274510 0.25882353
0.58431373 0.25882353 0.26666667
0.90588235 0.23137255 0.25490196
1.00000000 0.25098039 0.29803922
0.25882353 0.56862745 0.25098039
0.37647059 0.57647059 0.25098039
0.59215686 0.59215686 0.25882353
0.88627451 0.59215686 0.28627451
1.00000000 0.55686275 0.33333333
0.36862745 0.85882353 0.30980392
0.46274510 0.85490196 0.31372549
0.65882353 0.85882353 0.32549020
0.85490196 0.86666667 0.34117647
1.00000000 0.84705882 0.34509804
0.35686275 1.00000000 0.32941176
0.44705882 1.00000000 0.32549020
0.63137255 1.00000000 0.31764706
0.83137255 1.00000000 0.30196078
1.00000000 1.00000000 0.26666667
0.11764706 0.00000000 0.49803922
0.30980392 0.00000000 0.50196078
0.60392157 0.00000000 0.51372549
0.89019608 0.00000000 0.55294118
1.00000000 0.00000000 0.60784314
0.00000000 0.26666667 0.51764706
0.28235294 0.27058824 0.51372549
0.61960784 0.24705882 0.50980392
0.90980392 0.23137255 0.59215686
1.00000000 0.25882353 0.59607843
0.19215686 0.57647059 0.59215686
0.32549020 0.58431373 0.59215686
0.59607843 0.59215686 0.58823529
0.89411765 0.58431373 0.59607843
1.00000000 0.55294118 0.55686275
0.38431373 0.85490196 0.56078431
0.47843137 0.85490196 0.55686275
0.65882353 0.85882353 0.54509804
0.86666667 0.86274510 0.53333333
1.00000000 0.83921569 0.53333333
0.39215686 1.00000000 0.51372549
0.47058824 1.00000000 0.50980392
0.64313725 1.00000000 0.50980392
0.83137255 1.00000000 0.50196078
1.00000000 1.00000000 0.49019608
0.22745098 0.00000000 0.74901961
0.36470588 0.00000000 0.76862745
0.62352941 0.00000000 0.80392157
0.89411765 0.00000000 0.83137255
1.00000000 0.00000000 0.81568627
0.18431373 0.25882353 0.79215686
0.36470588 0.25098039 0.80392157
0.63921569 0.23529412 0.81960784
0.92549020 0.23529412 0.83529412
1.00000000 0.26274510 0.81568627
0.15686275 0.58823529 0.83529412
0.33725490 0.59215686 0.83529412
0.58823529 0.60392157 0.81960784
0.92941176 0.57254902 0.81568627
1.00000000 0.55294118 0.87843137
0.35294118 0.85882353 0.87058824
0.43529412 0.85882353 0.87450980
0.60784314 0.86274510 0.87450980
0.86666667 0.85882353 0.85490196
1.00000000 0.83137255 0.84313725
0.40000000 1.00000000 0.77647059
0.47843137 1.00000000 0.77254902
0.64705882 1.00000000 0.75294118
0.82352941 1.00000000 0.71764706
1.00000000 1.00000000 0.67843137
0.33725490 0.00000000 1.00000000
0.43921569 0.00000000 1.00000000
0.65490196 0.00000000 1.00000000
0.90588235 0.00000000 1.00000000
1.00000000 0.10588235 1.00000000
0.36470588 0.22745098 1.00000000
0.46666667 0.22352941 1.00000000
0.68235294 0.22352941 1.00000000
0.93333333 0.24705882 1.00000000
1.00000000 0.28627451 1.00000000
0.00000000 0.60392157 1.00000000
0.34117647 0.59607843 1.00000000
0.65490196 0.58039216 1.00000000
0.94509804 0.56078431 1.00000000
1.00000000 0.54509804 1.00000000
0.30196078 0.86274510 1.00000000
0.39215686 0.86666667 1.00000000
0.60784314 0.86666667 1.00000000
0.84313725 0.86666667 1.00000000
1.00000000 0.80784314 1.00000000
0.38431373 1.00000000 1.00000000
0.45098039 1.00000000 1.00000000
0.60000000 1.00000000 1.00000000
0.76470588 1.00000000 1.00000000
1.00000000 1.00000000 0.99607843
