dist-classic-addon/assets/luts/open/t3-trix-400.cube
TITLE "Tri-X 400 Monochrome Emulation"
LUT_3D_SIZE 33
DOMAIN_MIN 0.0 0.0 0.0
DOMAIN_MAX 1.0 1.0 1.0
# Converted from an MIT-licensed t3mujinpack Hald CLUT by PhotoAtelier.
0.02352941 0.02352941 0.02352941
0.02352941 0.02352941 0.02352941
0.02352941 0.02352941 0.02352941
0.02745098 0.02745098 0.02745098
0.02745098 0.02745098 0.02745098
0.02745098 0.02745098 0.02745098
0.03137255 0.03137255 0.03137255
0.03137255 0.03137255 0.03137255
0.03921569 0.03921569 0.03921569
0.05098039 0.05098039 0.05098039
0.06666667 0.06666667 0.06666667
0.08235294 0.08235294 0.08235294
0.10196078 0.10196078 0.10196078
0.12156863 0.12156863 0.12156863
0.14509804 0.14509804 0.14509804
0.16862745 0.16862745 0.16862745
0.19215686 0.19215686 0.19215686
0.21568627 0.21568627 0.21568627
0.23529412 0.23529412 0.23529412
0.26274510 0.26274510 0.26274510
0.28627451 0.28627451 0.28627451
0.31372549 0.31372549 0.31372549
0.33725490 0.33725490 0.33725490
0.36862745 0.36862745 0.36862745
0.39215686 0.39215686 0.39215686
0.41960784 0.41960784 0.41960784
0.43921569 0.43921569 0.43921569
0.46274510 0.46274510 0.46274510
0.48627451 0.48627451 0.48627451
0.50980392 0.50980392 0.50980392
0.52941176 0.52941176 0.52941176
0.55294118 0.55294118 0.55294118
0.56862745 0.56862745 0.56862745
0.02352941 0.02352941 0.02352941
0.02745098 0.02745098 0.02745098
0.02745098 0.02745098 0.02745098
0.02745098 0.02745098 0.02745098
0.02745098 0.02745098 0.02745098
0.02745098 0.02745098 0.02745098
0.03137255 0.03137255 0.03137255
0.03529412 0.03529412 0.03529412
0.04313725 0.04313725 0.04313725
0.05490196 0.05490196 0.05490196
0.07058824 0.07058824 0.07058824
0.08627451 0.08627451 0.08627451
0.10588235 0.10588235 0.10588235
0.12549020 0.12549020 0.12549020
0.14901961 0.14901961 0.14901961
0.17254902 0.17254902 0.17254902
0.19607843 0.19607843 0.19607843
0.21960784 0.21960784 0.21960784
0.23921569 0.23921569 0.23921569
0.26666667 0.26666667 0.26666667
0.29019608 0.29019608 0.29019608
0.31764706 0.31764706 0.31764706
0.34117647 0.34117647 0.34117647
0.37254902 0.37254902 0.37254902
0.39215686 0.39215686 0.39215686
0.41960784 0.41960784 0.41960784
0.44313725 0.44313725 0.44313725
0.46666667 0.46666667 0.46666667
0.48627451 0.48627451 0.48627451
0.50980392 0.50980392 0.50980392
0.52941176 0.52941176 0.52941176
0.55294118 0.55294118 0.55294118
0.57254902 0.57254902 0.57254902
0.02745098 0.02745098 0.02745098
0.02745098 0.02745098 0.02745098
0.02745098 0.02745098 0.02745098
0.02745098 0.02745098 0.02745098
0.03137255 0.03137255 0.03137255
0.03137255 0.03137255 0.03137255
0.03529412 0.03529412 0.03529412
0.03921569 0.03921569 0.03921569
0.05098039 0.05098039 0.05098039
0.06274510 0.06274510 0.06274510
0.07843137 0.07843137 0.07843137
0.09411765 0.09411765 0.09411765
0.11372549 0.11372549 0.11372549
0.13333333 0.13333333 0.13333333
0.15686275 0.15686275 0.15686275
0.17647059 0.17647059 0.17647059
0.20392157 0.20392157 0.20392157
0.22352941 0.22352941 0.22352941
0.24313725 0.24313725 0.24313725
0.27058824 0.27058824 0.27058824
0.29411765 0.29411765 0.29411765
0.32156863 0.32156863 0.32156863
0.34509804 0.34509804 0.34509804
0.37647059 0.37647059 0.37647059
0.39607843 0.39607843 0.39607843
0.42352941 0.42352941 0.42352941
0.44313725 0.44313725 0.44313725
0.47058824 0.47058824 0.47058824
0.49019608 0.49019608 0.49019608
0.51372549 0.51372549 0.51372549
0.53333333 0.53333333 0.53333333
0.55686275 0.55686275 0.55686275
0.57254902 0.57254902 0.57254902
0.02745098 0.02745098 0.02745098
0.02745098 0.02745098 0.02745098
0.02745098 0.02745098 0.02745098
0.03137255 0.03137255 0.03137255
0.03137255 0.03137255 0.03137255
0.03529412 0.03529412 0.03529412
0.03921569 0.03921569 0.03921569
0.04705882 0.04705882 0.04705882
0.05882353 0.05882353 0.05882353
0.07058824 0.07058824 0.07058824
0.08627451 0.08627451 0.08627451
0.10196078 0.10196078 0.10196078
0.12156863 0.12156863 0.12156863
0.14117647 0.14117647 0.14117647
0.16470588 0.16470588 0.16470588
0.18431373 0.18431373 0.18431373
0.20784314 0.20784314 0.20784314
0.22745098 0.22745098 0.22745098
0.25098039 0.25098039 0.25098039
0.27843137 0.27843137 0.27843137
0.29803922 0.29803922 0.29803922
0.32941176 0.32941176 0.32941176
0.35294118 0.35294118 0.35294118
0.38039216 0.38039216 0.38039216
0.40000000 0.40000000 0.40000000
0.42745098 0.42745098 0.42745098
0.44705882 0.44705882 0.44705882
0.47450980 0.47450980 0.47450980
0.49019608 0.49019608 0.49019608
0.51764706 0.51764706 0.51764706
0.53333333 0.53333333 0.53333333
0.55686275 0.55686275 0.55686275
0.57647059 0.57647059 0.57647059
0.03137255 0.03137255 0.03137255
0.03137255 0.03137255 0.03137255
0.03137255 0.03137255 0.03137255
0.03529412 0.03529412 0.03529412
0.03921569 0.03921569 0.03921569
0.04313725 0.04313725 0.04313725
0.05098039 0.05098039 0.05098039
0.05882353 0.05882353 0.05882353
0.07058824 0.07058824 0.07058824
0.08235294 0.08235294 0.08235294
0.09803922 0.09803922 0.09803922
0.11372549 0.11372549 0.11372549
0.13333333 0.13333333 0.13333333
0.15294118 0.15294118 0.15294118
0.17647059 0.17647059 0.17647059
0.19607843 0.19607843 0.19607843
0.21960784 0.21960784 0.21960784
0.23921569 0.23921569 0.23921569
0.25882353 0.25882353 0.25882353
0.28627451 0.28627451 0.28627451
0.30980392 0.30980392 0.30980392
0.33725490 0.33725490 0.33725490
0.36078431 0.36078431 0.36078431
0.38823529 0.38823529 0.38823529
0.40784314 0.40784314 0.40784314
0.43529412 0.43529412 0.43529412
0.45490196 0.45490196 0.45490196
0.47843137 0.47843137 0.47843137
0.49803922 0.49803922 0.49803922
0.52156863 0.52156863 0.52156863
0.53725490 0.53725490 0.53725490
0.56078431 0.56078431 0.56078431
0.58039216 0.58039216 0.58039216
0.03921569 0.03921569 0.03921569
0.03921569 0.03921569 0.03921569
0.04313725 0.04313725 0.04313725
0.04313725 0.04313725 0.04313725
0.05098039 0.05098039 0.05098039
0.05490196 0.05490196 0.05490196
0.06274510 0.06274510 0.06274510
0.07450980 0.07450980 0.07450980
0.08627451 0.08627451 0.08627451
0.09803922 0.09803922 0.09803922
0.11372549 0.11372549 0.11372549
0.12941176 0.12941176 0.12941176
0.14901961 0.14901961 0.14901961
0.16470588 0.16470588 0.16470588
0.18823529 0.18823529 0.18823529
0.20784314 0.20784314 0.20784314
0.22745098 0.22745098 0.22745098
0.24705882 0.24705882 0.24705882
0.27058824 0.27058824 0.27058824
0.29411765 0.29411765 0.29411765
0.31764706 0.31764706 0.31764706
0.34509804 0.34509804 0.34509804
0.36862745 0.36862745 0.36862745
0.39215686 0.39215686 0.39215686
0.41568627 0.41568627 0.41568627
0.43921569 0.43921569 0.43921569
0.45882353 0.45882353 0.45882353
0.48235294 0.48235294 0.48235294
0.50196078 0.50196078 0.50196078
0.52549020 0.52549020 0.52549020
0.54509804 0.54509804 0.54509804
0.56470588 0.56470588 0.56470588
0.58431373 0.58431373 0.58431373
0.05490196 0.05490196 0.05490196
0.05882353 0.05882353 0.05882353
0.06274510 0.06274510 0.06274510
0.06274510 0.06274510 0.06274510
0.07058824 0.07058824 0.07058824
0.07450980 0.07450980 0.07450980
0.08627451 0.08627451 0.08627451
0.09411765 0.09411765 0.09411765
0.10588235 0.10588235 0.10588235
0.11764706 0.11764706 0.11764706
0.13333333 0.13333333 0.13333333
0.14901961 0.14901961 0.14901961
0.16862745 0.16862745 0.16862745
0.18431373 0.18431373 0.18431373
0.20392157 0.20392157 0.20392157
0.22352941 0.22352941 0.22352941
0.24313725 0.24313725 0.24313725
0.26274510 0.26274510 0.26274510
0.28235294 0.28235294 0.28235294
0.30980392 0.30980392 0.30980392
0.33333333 0.33333333 0.33333333
0.35686275 0.35686275 0.35686275
0.38039216 0.38039216 0.38039216
0.40392157 0.40392157 0.40392157
0.42352941 0.42352941 0.42352941
0.44705882 0.44705882 0.44705882
0.46666667 0.46666667 0.46666667
0.49019608 0.49019608 0.49019608
0.50980392 0.50980392 0.50980392
0.53333333 0.53333333 0.53333333
0.54901961 0.54901961 0.54901961
0.57254902 0.57254902 0.57254902
0.58823529 0.58823529 0.58823529
0.07843137 0.07843137 0.07843137
0.07843137 0.07843137 0.07843137
0.08235294 0.08235294 0.08235294
0.08627451 0.08627451 0.08627451
0.09019608 0.09019608 0.09019608
0.09803922 0.09803922 0.09803922
0.10588235 0.10588235 0.10588235
0.11372549 0.11372549 0.11372549
0.12549020 0.12549020 0.12549020
0.13725490 0.13725490 0.13725490
0.15294118 0.15294118 0.15294118
0.16862745 0.16862745 0.16862745
0.18431373 0.18431373 0.18431373
0.20000000 0.20000000 0.20000000
0.21960784 0.21960784 0.21960784
0.23529412 0.23529412 0.23529412
0.25882353 0.25882353 0.25882353
0.27843137 0.27843137 0.27843137
0.29803922 0.29803922 0.29803922
0.32549020 0.32549020 0.32549020
0.34509804 0.34509804 0.34509804
0.36862745 0.36862745 0.36862745
0.38823529 0.38823529 0.38823529
0.41568627 0.41568627 0.41568627
0.43529412 0.43529412 0.43529412
0.45882353 0.45882353 0.45882353
0.47450980 0.47450980 0.47450980
0.49803922 0.49803922 0.49803922
0.51764706 0.51764706 0.51764706
0.53725490 0.53725490 0.53725490
0.55686275 0.55686275 0.55686275
0.57647059 0.57647059 0.57647059
0.59607843 0.59607843 0.59607843
0.10588235 0.10588235 0.10588235
0.10588235 0.10588235 0.10588235
0.10980392 0.10980392 0.10980392
0.11372549 0.11372549 0.11372549
0.11764706 0.11764706 0.11764706
0.12549020 0.12549020 0.12549020
0.13333333 0.13333333 0.13333333
0.14117647 0.14117647 0.14117647
0.15294118 0.15294118 0.15294118
0.16470588 0.16470588 0.16470588
0.18039216 0.18039216 0.18039216
0.19215686 0.19215686 0.19215686
0.21176471 0.21176471 0.21176471
0.22352941 0.22352941 0.22352941
0.24313725 0.24313725 0.24313725
0.25882353 0.25882353 0.25882353
0.28235294 0.28235294 0.28235294
0.29803922 0.29803922 0.29803922
0.31764706 0.31764706 0.31764706
0.34117647 0.34117647 0.34117647
0.36078431 0.36078431 0.36078431
0.38823529 0.38823529 0.38823529
0.40392157 0.40392157 0.40392157
0.42745098 0.42745098 0.42745098
0.44705882 0.44705882 0.44705882
0.47058824 0.47058824 0.47058824
0.48627451 0.48627451 0.48627451
0.50980392 0.50980392 0.50980392
0.52549020 0.52549020 0.52549020
0.54901961 0.54901961 0.54901961
0.56470588 0.56470588 0.56470588
0.58431373 0.58431373 0.58431373
0.60392157 0.60392157 0.60392157
0.13333333 0.13333333 0.13333333
0.13333333 0.13333333 0.13333333
0.13725490 0.13725490 0.13725490
0.14117647 0.14117647 0.14117647
0.14509804 0.14509804 0.14509804
0.15294118 0.15294118 0.15294118
0.16078431 0.16078431 0.16078431
0.16862745 0.16862745 0.16862745
0.18039216 0.18039216 0.18039216
0.18823529 0.18823529 0.18823529
0.20392157 0.20392157 0.20392157
0.21568627 0.21568627 0.21568627
0.23137255 0.23137255 0.23137255
0.24313725 0.24313725 0.24313725
0.26274510 0.26274510 0.26274510
0.27843137 0.27843137 0.27843137
0.29803922 0.29803922 0.29803922
0.31764706 0.31764706 0.31764706
0.33725490 0.33725490 0.33725490
0.36078431 0.36078431 0.36078431
0.37647059 0.37647059 0.37647059
0.40000000 0.40000000 0.40000000
0.41960784 0.41960784 0.41960784
0.43921569 0.43921569 0.43921569
0.45882353 0.45882353 0.45882353
0.47843137 0.47843137 0.47843137
0.49803922 0.49803922 0.49803922
0.51764706 0.51764706 0.51764706
0.53725490 0.53725490 0.53725490
0.55686275 0.55686275 0.55686275
0.57254902 0.57254902 0.57254902
0.59215686 0.59215686 0.59215686
0.61176471 0.61176471 0.61176471
0.16862745 0.16862745 0.16862745
0.17254902 0.17254902 0.17254902
0.17254902 0.17254902 0.17254902
0.17647059 0.17647059 0.17647059
0.18039216 0.18039216 0.18039216
0.18823529 0.18823529 0.18823529
0.19607843 0.19607843 0.19607843
0.20000000 0.20000000 0.20000000
0.21176471 0.21176471 0.21176471
0.21960784 0.21960784 0.21960784
0.23137255 0.23137255 0.23137255
0.24313725 0.24313725 0.24313725
0.25882353 0.25882353 0.25882353
0.27058824 0.27058824 0.27058824
0.29019608 0.29019608 0.29019608
0.30588235 0.30588235 0.30588235
0.32549020 0.32549020 0.32549020
0.34117647 0.34117647 0.34117647
0.36078431 0.36078431 0.36078431
0.38039216 0.38039216 0.38039216
0.40000000 0.40000000 0.40000000
0.41960784 0.41960784 0.41960784
0.43529412 0.43529412 0.43529412
0.45882353 0.45882353 0.45882353
0.47450980 0.47450980 0.47450980
0.49411765 0.49411765 0.49411765
0.50980392 0.50980392 0.50980392
0.53333333 0.53333333 0.53333333
0.54901961 0.54901961 0.54901961
0.56862745 0.56862745 0.56862745
0.58431373 0.58431373 0.58431373
0.60392157 0.60392157 0.60392157
0.61960784 0.61960784 0.61960784
0.20000000 0.20000000 0.20000000
0.20000000 0.20000000 0.20000000
0.20392157 0.20392157 0.20392157
0.20784314 0.20784314 0.20784314
0.21176471 0.21176471 0.21176471
0.21568627 0.21568627 0.21568627
0.22352941 0.22352941 0.22352941
0.22745098 0.22745098 0.22745098
0.23921569 0.23921569 0.23921569
0.24705882 0.24705882 0.24705882
0.25882353 0.25882353 0.25882353
0.27058824 0.27058824 0.27058824
0.28235294 0.28235294 0.28235294
0.29803922 0.29803922 0.29803922
0.31372549 0.31372549 0.31372549
0.32941176 0.32941176 0.32941176
0.34901961 0.34901961 0.34901961
0.36470588 0.36470588 0.36470588
0.38039216 0.38039216 0.38039216
0.40000000 0.40000000 0.40000000
0.41568627 0.41568627 0.41568627
0.43529412 0.43529412 0.43529412
0.45098039 0.45098039 0.45098039
0.47058824 0.47058824 0.47058824
0.48627451 0.48627451 0.48627451
0.50588235 0.50588235 0.50588235
0.52156863 0.52156863 0.52156863
0.54117647 0.54117647 0.54117647
0.56078431 0.56078431 0.56078431
0.58039216 0.58039216 0.58039216
0.59607843 0.59607843 0.59607843
0.61568627 0.61568627 0.61568627
0.63137255 0.63137255 0.63137255
0.23529412 0.23529412 0.23529412
0.23921569 0.23921569 0.23921569
0.23921569 0.23921569 0.23921569
0.24313725 0.24313725 0.24313725
0.24705882 0.24705882 0.24705882
0.25098039 0.25098039 0.25098039
0.25882353 0.25882353 0.25882353
0.26274510 0.26274510 0.26274510
0.27450980 0.27450980 0.27450980
0.28235294 0.28235294 0.28235294
0.29411765 0.29411765 0.29411765
0.30196078 0.30196078 0.30196078
0.31764706 0.31764706 0.31764706
0.32941176 0.32941176 0.32941176
0.34509804 0.34509804 0.34509804
0.36078431 0.36078431 0.36078431
0.37647059 0.37647059 0.37647059
0.39215686 0.39215686 0.39215686
0.40392157 0.40392157 0.40392157
0.42352941 0.42352941 0.42352941
0.43921569 0.43921569 0.43921569
0.45490196 0.45490196 0.45490196
0.47058824 0.47058824 0.47058824
0.49019608 0.49019608 0.49019608
0.50588235 0.50588235 0.50588235
0.52549020 0.52549020 0.52549020
0.54117647 0.54117647 0.54117647
0.55686275 0.55686275 0.55686275
0.57254902 0.57254902 0.57254902
0.59215686 0.59215686 0.59215686
0.60784314 0.60784314 0.60784314
0.62745098 0.62745098 0.62745098
0.64313725 0.64313725 0.64313725
0.26666667 0.26666667 0.26666667
0.27058824 0.27058824 0.27058824
0.27058824 0.27058824 0.27058824
0.27450980 0.27450980 0.27450980
0.27843137 0.27843137 0.27843137
0.28235294 0.28235294 0.28235294
0.29019608 0.29019608 0.29019608
0.29411765 0.29411765 0.29411765
0.30196078 0.30196078 0.30196078
0.30980392 0.30980392 0.30980392
0.32156863 0.32156863 0.32156863
0.33333333 0.33333333 0.33333333
0.34509804 0.34509804 0.34509804
0.35686275 0.35686275 0.35686275
0.37254902 0.37254902 0.37254902
0.38431373 0.38431373 0.38431373
0.40000000 0.40000000 0.40000000
0.41176471 0.41176471 0.41176471
0.42745098 0.42745098 0.42745098
0.44313725 0.44313725 0.44313725
0.45882353 0.45882353 0.45882353
0.47450980 0.47450980 0.47450980
0.49019608 0.49019608 0.49019608
0.50588235 0.50588235 0.50588235
0.52156863 0.52156863 0.52156863
0.53725490 0.53725490 0.53725490
0.55294118 0.55294118 0.55294118
0.57254902 0.57254902 0.57254902
0.58431373 0.58431373 0.58431373
0.60392157 0.60392157 0.60392157
0.61960784 0.61960784 0.61960784
0.63921569 0.63921569 0.63921569
0.65490196 0.65490196 0.65490196
0.30980392 0.30980392 0.30980392
0.30980392 0.30980392 0.30980392
0.31372549 0.31372549 0.31372549
0.31764706 0.31764706 0.31764706
0.32156863 0.32156863 0.32156863
0.32549020 0.32549020 0.32549020
0.32941176 0.32941176 0.32941176
0.33333333 0.33333333 0.33333333
0.34117647 0.34117647 0.34117647
0.34901961 0.34901961 0.34901961
0.36078431 0.36078431 0.36078431
0.36862745 0.36862745 0.36862745
0.38039216 0.38039216 0.38039216
0.39215686 0.39215686 0.39215686
0.40392157 0.40392157 0.40392157
0.41568627 0.41568627 0.41568627
0.42745098 0.42745098 0.42745098
0.43921569 0.43921569 0.43921569
0.45098039 0.45098039 0.45098039
0.46666667 0.46666667 0.46666667
0.48235294 0.48235294 0.48235294
0.49803922 0.49803922 0.49803922
0.50980392 0.50980392 0.50980392
0.52549020 0.52549020 0.52549020
0.54117647 0.54117647 0.54117647
0.55686275 0.55686275 0.55686275
0.57254902 0.57254902 0.57254902
0.58823529 0.58823529 0.58823529
0.60392157 0.60392157 0.60392157
0.61960784 0.61960784 0.61960784
0.63529412 0.63529412 0.63529412
0.65490196 0.65490196 0.65490196
0.66666667 0.66666667 0.66666667
0.34509804 0.34509804 0.34509804
0.34509804 0.34509804 0.34509804
0.34901961 0.34901961 0.34901961
0.34901961 0.34901961 0.34901961
0.35294118 0.35294118 0.35294118
0.35686275 0.35686275 0.35686275
0.36078431 0.36078431 0.36078431
0.36862745 0.36862745 0.36862745
0.37254902 0.37254902 0.37254902
0.38039216 0.38039216 0.38039216
0.38823529 0.38823529 0.38823529
0.39607843 0.39607843 0.39607843
0.40784314 0.40784314 0.40784314
0.41568627 0.41568627 0.41568627
0.42745098 0.42745098 0.42745098
0.43921569 0.43921569 0.43921569
0.45098039 0.45098039 0.45098039
0.46274510 0.46274510 0.46274510
0.47450980 0.47450980 0.47450980
0.49019608 0.49019608 0.49019608
0.50196078 0.50196078 0.50196078
0.51764706 0.51764706 0.51764706
0.52941176 0.52941176 0.52941176
0.54509804 0.54509804 0.54509804
0.55686275 0.55686275 0.55686275
0.57254902 0.57254902 0.57254902
0.58823529 0.58823529 0.58823529
0.60392157 0.60392157 0.60392157
0.61568627 0.61568627 0.61568627
0.63529412 0.63529412 0.63529412
0.64705882 0.64705882 0.64705882
0.66666667 0.66666667 0.66666667
0.67843137 0.67843137 0.67843137
0.38431373 0.38431373 0.38431373
0.38823529 0.38823529 0.38823529
0.38823529 0.38823529 0.38823529
0.38823529 0.38823529 0.38823529
0.39215686 0.39215686 0.39215686
0.39607843 0.39607843 0.39607843
0.40000000 0.40000000 0.40000000
0.40392157 0.40392157 0.40392157
0.41176471 0.41176471 0.41176471
0.41568627 0.41568627 0.41568627
0.42352941 0.42352941 0.42352941
0.43137255 0.43137255 0.43137255
0.43921569 0.43921569 0.43921569
0.44705882 0.44705882 0.44705882
0.45882353 0.45882353 0.45882353
0.46666667 0.46666667 0.46666667
0.48235294 0.48235294 0.48235294
0.49019608 0.49019608 0.49019608
0.50196078 0.50196078 0.50196078
0.51372549 0.51372549 0.51372549
0.52549020 0.52549020 0.52549020
0.54117647 0.54117647 0.54117647
0.55294118 0.55294118 0.55294118
0.56470588 0.56470588 0.56470588
0.57647059 0.57647059 0.57647059
0.59215686 0.59215686 0.59215686
0.60784314 0.60784314 0.60784314
0.62352941 0.62352941 0.62352941
0.63529412 0.63529412 0.63529412
0.65098039 0.65098039 0.65098039
0.66666667 0.66666667 0.66666667
0.68235294 0.68235294 0.68235294
0.69411765 0.69411765 0.69411765
0.41568627 0.41568627 0.41568627
0.41568627 0.41568627 0.41568627
0.41960784 0.41960784 0.41960784
0.41960784 0.41960784 0.41960784
0.42352941 0.42352941 0.42352941
0.42745098 0.42745098 0.42745098
0.43137255 0.43137255 0.43137255
0.43529412 0.43529412 0.43529412
0.43921569 0.43921569 0.43921569
0.44313725 0.44313725 0.44313725
0.45098039 0.45098039 0.45098039
0.45882353 0.45882353 0.45882353
0.46666667 0.46666667 0.46666667
0.47450980 0.47450980 0.47450980
0.48235294 0.48235294 0.48235294
0.49411765 0.49411765 0.49411765
0.50196078 0.50196078 0.50196078
0.51372549 0.51372549 0.51372549
0.52156863 0.52156863 0.52156863
0.53333333 0.53333333 0.53333333
0.54509804 0.54509804 0.54509804
0.55686275 0.55686275 0.55686275
0.56862745 0.56862745 0.56862745
0.58431373 0.58431373 0.58431373
0.59607843 0.59607843 0.59607843
0.61176471 0.61176471 0.61176471
0.62352941 0.62352941 0.62352941
0.63921569 0.63921569 0.63921569
0.65098039 0.65098039 0.65098039
0.66666667 0.66666667 0.66666667
0.67843137 0.67843137 0.67843137
0.69411765 0.69411765 0.69411765
0.70980392 0.70980392 0.70980392
0.44705882 0.44705882 0.44705882
0.44705882 0.44705882 0.44705882
0.44705882 0.44705882 0.44705882
0.45098039 0.45098039 0.45098039
0.45098039 0.45098039 0.45098039
0.45490196 0.45490196 0.45490196
0.45882353 0.45882353 0.45882353
0.46274510 0.46274510 0.46274510
0.46666667 0.46666667 0.46666667
0.47058824 0.47058824 0.47058824
0.47843137 0.47843137 0.47843137
0.48235294 0.48235294 0.48235294
0.49019608 0.49019608 0.49019608
0.49803922 0.49803922 0.49803922
0.50980392 0.50980392 0.50980392
0.51764706 0.51764706 0.51764706
0.52549020 0.52549020 0.52549020
0.53333333 0.53333333 0.53333333
0.54509804 0.54509804 0.54509804
0.55686275 0.55686275 0.55686275
0.56470588 0.56470588 0.56470588
0.57647059 0.57647059 0.57647059
0.58823529 0.58823529 0.58823529
0.60392157 0.60392157 0.60392157
0.61176471 0.61176471 0.61176471
0.62745098 0.62745098 0.62745098
0.63921569 0.63921569 0.63921569
0.65490196 0.65490196 0.65490196
0.66666667 0.66666667 0.66666667
0.68235294 0.68235294 0.68235294
0.69411765 0.69411765 0.69411765
0.70980392 0.70980392 0.70980392
0.72156863 0.72156863 0.72156863
0.48235294 0.48235294 0.48235294
0.48235294 0.48235294 0.48235294
0.48235294 0.48235294 0.48235294
0.48627451 0.48627451 0.48627451
0.48627451 0.48627451 0.48627451
0.49019608 0.49019608 0.49019608
0.49411765 0.49411765 0.49411765
0.49803922 0.49803922 0.49803922
0.50196078 0.50196078 0.50196078
0.50588235 0.50588235 0.50588235
0.50980392 0.50980392 0.50980392
0.51764706 0.51764706 0.51764706
0.52156863 0.52156863 0.52156863
0.52941176 0.52941176 0.52941176
0.53725490 0.53725490 0.53725490
0.54509804 0.54509804 0.54509804
0.55294118 0.55294118 0.55294118
0.56078431 0.56078431 0.56078431
0.57254902 0.57254902 0.57254902
0.58039216 0.58039216 0.58039216
0.59215686 0.59215686 0.59215686
0.60392157 0.60392157 0.60392157
0.61176471 0.61176471 0.61176471
0.62745098 0.62745098 0.62745098
0.63529412 0.63529412 0.63529412
0.65098039 0.65098039 0.65098039
0.66274510 0.66274510 0.66274510
0.67450980 0.67450980 0.67450980
0.68627451 0.68627451 0.68627451
0.70196078 0.70196078 0.70196078
0.71372549 0.71372549 0.71372549
0.72941176 0.72941176 0.72941176
0.74117647 0.74117647 0.74117647
0.50980392 0.50980392 0.50980392
0.50980392 0.50980392 0.50980392
0.51372549 0.51372549 0.51372549
0.51372549 0.51372549 0.51372549
0.51372549 0.51372549 0.51372549
0.51764706 0.51764706 0.51764706
0.52156863 0.52156863 0.52156863
0.52156863 0.52156863 0.52156863
0.52549020 0.52549020 0.52549020
0.52941176 0.52941176 0.52941176
0.53725490 0.53725490 0.53725490
0.54117647 0.54117647 0.54117647
0.54901961 0.54901961 0.54901961
0.55294118 0.55294118 0.55294118
0.56078431 0.56078431 0.56078431
0.56862745 0.56862745 0.56862745
0.57647059 0.57647059 0.57647059
0.58431373 0.58431373 0.58431373
0.59215686 0.59215686 0.59215686
0.60392157 0.60392157 0.60392157
0.61176471 0.61176471 0.61176471
0.62352941 0.62352941 0.62352941
0.63137255 0.63137255 0.63137255
0.64705882 0.64705882 0.64705882
0.65490196 0.65490196 0.65490196
0.66666667 0.66666667 0.66666667
0.67843137 0.67843137 0.67843137
0.69411765 0.69411765 0.69411765
0.70196078 0.70196078 0.70196078
0.71764706 0.71764706 0.71764706
0.72941176 0.72941176 0.72941176
0.74509804 0.74509804 0.74509804
0.75294118 0.75294118 0.75294118
0.54509804 0.54509804 0.54509804
0.54509804 0.54509804 0.54509804
0.54509804 0.54509804 0.54509804
0.54509804 0.54509804 0.54509804
0.54901961 0.54901961 0.54901961
0.54901961 0.54901961 0.54901961
0.55294118 0.55294118 0.55294118
0.55686275 0.55686275 0.55686275
0.56078431 0.56078431 0.56078431
0.56470588 0.56470588 0.56470588
0.56862745 0.56862745 0.56862745
0.57254902 0.57254902 0.57254902
0.57647059 0.57647059 0.57647059
0.58431373 0.58431373 0.58431373
0.59215686 0.59215686 0.59215686
0.59607843 0.59607843 0.59607843
0.60392157 0.60392157 0.60392157
0.61176471 0.61176471 0.61176471
0.61960784 0.61960784 0.61960784
0.63137255 0.63137255 0.63137255
0.63921569 0.63921569 0.63921569
0.64705882 0.64705882 0.64705882
0.65882353 0.65882353 0.65882353
0.67058824 0.67058824 0.67058824
0.67843137 0.67843137 0.67843137
0.69019608 0.69019608 0.69019608
0.70196078 0.70196078 0.70196078
0.71372549 0.71372549 0.71372549
0.72549020 0.72549020 0.72549020
