dist-classic-addon/assets/luts/open/t3-trix-400.cube
TITLE "Tri-X 400 Monochrome Emulation"
LUT_3D_SIZE 5
DOMAIN_MIN 0.0 0.0 0.0
DOMAIN_MAX 1.0 1.0 1.0
# Converted from an MIT-licensed t3mujinpack Hald CLUT by PhotoAtelier.
0.02352941 0.02352941 0.02352941
0.03921569 0.03921569 0.03921569
0.19215686 0.19215686 0.19215686
0.39215686 0.39215686 0.39215686
0.56862745 0.56862745 0.56862745
0.10588235 0.10588235 0.10588235
0.15294118 0.15294118 0.15294118
0.28235294 0.28235294 0.28235294
0.44705882 0.44705882 0.44705882
0.60392157 0.60392157 0.60392157
0.38431373 0.38431373 0.38431373
0.41176471 0.41176471 0.41176471
0.48235294 0.48235294 0.48235294
0.57647059 0.57647059 0.57647059
0.69411765 0.69411765 0.69411765
0.62745098 0.62745098 0.62745098
0.63921569 0.63921569 0.63921569
0.67843137 0.67843137 0.67843137
0.74117647 0.74117647 0.74117647
0.81960784 0.81960784 0.81960784
0.83921569 0.83921569 0.83921569
0.84705882 0.84705882 0.84705882
0.86666667 0.86666667 0.86666667
0.89803922 0.89803922 0.89803922
0.93725490 0.93725490 0.93725490
0.09019608 0.09019608 0.09019608
0.13725490 0.13725490 0.13725490
0.26666667 0.26666667 0.26666667
0.43921569 0.43921569 0.43921569
0.60000000 0.60000000 0.60000000
0.20000000 0.20000000 0.20000000
0.23529412 0.23529412 0.23529412
0.34901961 0.34901961 0.34901961
0.48627451 0.48627451 0.48627451
0.63137255 0.63137255 0.63137255
0.43529412 0.43529412 0.43529412
0.45490196 0.45490196 0.45490196
0.51764706 0.51764706 0.51764706
0.60784314 0.60784314 0.60784314
0.71764706 0.71764706 0.71764706
0.65490196 0.65490196 0.65490196
0.66666667 0.66666667 0.66666667
0.70196078 0.70196078 0.70196078
0.76078431 0.76078431 0.76078431
0.83529412 0.83529412 0.83529412
0.85098039 0.85098039 0.85098039
0.85882353 0.85882353 0.85882353
0.87843137 0.87843137 0.87843137
0.90588235 0.90588235 0.90588235
0.94117647 0.94117647 0.94117647
0.34117647 0.34117647 0.34117647
0.37254902 0.37254902 0.37254902
0.45098039 0.45098039 0.45098039
0.55686275 0.55686275 0.55686275
0.67843137 0.67843137 0.67843137
0.40784314 0.40784314 0.40784314
0.43137255 0.43137255 0.43137255
0.49803922 0.49803922 0.49803922
0.58823529 0.58823529 0.58823529
0.70588235 0.70588235 0.70588235
0.55294118 0.55294118 0.55294118
0.56862745 0.56862745 0.56862745
0.61176471 0.61176471 0.61176471
0.68627451 0.68627451 0.68627451
0.77647059 0.77647059 0.77647059
0.72549020 0.72549020 0.72549020
0.73333333 0.73333333 0.73333333
0.76470588 0.76470588 0.76470588
0.81568627 0.81568627 0.81568627
0.87450980 0.87450980 0.87450980
0.89019608 0.89019608 0.89019608
0.89411765 0.89411765 0.89411765
0.90980392 0.90980392 0.90980392
0.93333333 0.93333333 0.93333333
0.95686275 0.95686275 0.95686275
0.58039216 0.58039216 0.58039216
0.59215686 0.59215686 0.59215686
0.63529412 0.63529412 0.63529412
0.70588235 0.70588235 0.70588235
0.79215686 0.79215686 0.79215686
0.61176471 0.61176471 0.61176471
0.62352941 0.62352941 0.62352941
0.66666667 0.66666667 0.66666667
0.72941176 0.72941176 0.72941176
0.81176471 0.81176471 0.81176471
0.70196078 0.70196078 0.70196078
0.71372549 0.71372549 0.71372549
0.74509804 0.74509804 0.74509804
0.79607843 0.79607843 0.79607843
0.86274510 0.86274510 0.86274510
0.82745098 0.82745098 0.82745098
0.83137255 0.83137255 0.83137255
0.85490196 0.85490196 0.85490196
0.89019608 0.89019608 0.89019608
0.92941176 0.92941176 0.92941176
0.93725490 0.93725490 0.93725490
0.94117647 0.94117647 0.94117647
0.94901961 0.94901961 0.94901961
0.96078431 0.96078431 0.96078431
0.97647059 0.97647059 0.97647059
0.78431373 0.78431373 0.78431373
0.79607843 0.79607843 0.79607843
0.81960784 0.81960784 0.81960784
0.85882353 0.85882353 0.85882353
0.90980392 0.90980392 0.90980392
0.80392157 0.80392157 0.80392157
0.81176471 0.81176471 0.81176471
0.83529412 0.83529412 0.83529412
0.87450980 0.87450980 0.87450980
0.91764706 0.91764706 0.91764706
0.85882353 0.85882353 0.85882353
0.86666667 0.86666667 0.86666667
0.88235294 0.88235294 0.88235294
0.90980392 0.90980392 0.90980392
0.94509804 0.94509804 0.94509804
0.92549020 0.92549020 0.92549020
0.92941176 0.92941176 0.92941176
0.94117647 0.94117647 0.94117647
0.95686275 0.95686275 0.95686275
0.97254902 0.97254902 0.97254902
0.97647059 0.97647059 0.97647059
0.97647059 0.97647059 0.97647059
0.98039216 0.98039216 0.98039216
0.98823529 0.98823529 0.98823529
1.00000000 1.00000000 1.00000000
