assets/luts/open/t3-portra-160.cube
TITLE "Portrait 160 Film Emulation"
LUT_3D_SIZE 5
DOMAIN_MIN 0.0 0.0 0.0
DOMAIN_MAX 1.0 1.0 1.0
# Converted from an MIT-licensed t3mujinpack Hald CLUT by PhotoAtelier.
0.00000000 0.00392157 0.00784314
0.26274510 0.00000000 0.00000000
0.53725490 0.00000000 0.00000000
0.83137255 0.07058824 0.07843137
1.00000000 0.21568627 0.17647059
0.00000000 0.25098039 0.00000000
0.25098039 0.24705882 0.00000000
0.57254902 0.25098039 0.01176471
0.88235294 0.27843137 0.12941176
1.00000000 0.33725490 0.19607843
0.00000000 0.59607843 0.09803922
0.21960784 0.60000000 0.11372549
0.58039216 0.59215686 0.15294118
0.85882353 0.57254902 0.19607843
1.00000000 0.53333333 0.24313725
0.00000000 0.83921569 0.21568627
0.09411765 0.83921569 0.21960784
0.46666667 0.83529412 0.23137255
0.78039216 0.81568627 0.25490196
1.00000000 0.78431373 0.27058824
0.00000000 1.00000000 0.27058824
0.00000000 1.00000000 0.27058824
0.34901961 1.00000000 0.27450980
0.64313725 1.00000000 0.27843137
0.94901961 1.00000000 0.28627451
0.00000000 0.00000000 0.26666667
0.27843137 0.00000000 0.20784314
0.53725490 0.00000000 0.25882353
0.83921569 0.08235294 0.22745098
1.00000000 0.21960784 0.30588235
0.00000000 0.25098039 0.22352941
0.24313725 0.25098039 0.25490196
0.58431373 0.24705882 0.25882353
0.88627451 0.28235294 0.25490196
1.00000000 0.34117647 0.31372549
0.00000000 0.59607843 0.22745098
0.25098039 0.60000000 0.23529412
0.59607843 0.58823529 0.27450980
0.86666667 0.56862745 0.30980392
1.00000000 0.53333333 0.34117647
0.00000000 0.83921569 0.31764706
0.11764706 0.83921569 0.32156863
0.47450980 0.83529412 0.32941176
0.78823529 0.81568627 0.34509804
1.00000000 0.78431373 0.36078431
0.00000000 1.00000000 0.35294118
0.00000000 1.00000000 0.35294118
0.34901961 1.00000000 0.35686275
0.64313725 1.00000000 0.36470588
0.94901961 1.00000000 0.37647059
0.06274510 0.00000000 0.50196078
0.27450980 0.00000000 0.52156863
0.53333333 0.00000000 0.54509804
0.84313725 0.11372549 0.51764706
1.00000000 0.22745098 0.59607843
0.00000000 0.25490196 0.54117647
0.23921569 0.25490196 0.54509804
0.61176471 0.23921569 0.52941176
0.88627451 0.29411765 0.54901961
1.00000000 0.34509804 0.57647059
0.00000000 0.60000000 0.54117647
0.27058824 0.60000000 0.55294118
0.58039216 0.59215686 0.59215686
0.87843137 0.56078431 0.57647059
1.00000000 0.53333333 0.49019608
0.00000000 0.83921569 0.49411765
0.20392157 0.83921569 0.48627451
0.50980392 0.83137255 0.47450980
0.81568627 0.80784314 0.48627451
1.00000000 0.77647059 0.50980392
0.00000000 1.00000000 0.50196078
0.00000000 1.00000000 0.50196078
0.36862745 1.00000000 0.50588235
0.65490196 1.00000000 0.50980392
0.96862745 1.00000000 0.52549020
0.09411765 0.00000000 0.75294118
0.27450980 0.00000000 0.76078431
0.53725490 0.00000000 0.80392157
0.82352941 0.16862745 0.87058824
1.00000000 0.23529412 0.84705882
0.15294118 0.23921569 0.78823529
0.34509804 0.23529412 0.80392157
0.61176471 0.25882353 0.84705882
0.85490196 0.32156863 0.88235294
1.00000000 0.34901961 0.80784314
0.00000000 0.59607843 0.88235294
0.29411765 0.59215686 0.88235294
0.57254902 0.58823529 0.87058824
0.90588235 0.54509804 0.80392157
1.00000000 0.53725490 0.77647059
0.00000000 0.83529412 0.76470588
0.18431373 0.83529412 0.76862745
0.51372549 0.82745098 0.78039216
0.79607843 0.80392157 0.80784314
1.00000000 0.76470588 0.78431373
0.00000000 1.00000000 0.70980392
0.00000000 1.00000000 0.70196078
0.40784314 1.00000000 0.67450980
0.69411765 1.00000000 0.65490196
1.00000000 0.99607843 0.66666667
0.10588235 0.00000000 1.00000000
0.29019608 0.00000000 1.00000000
0.56078431 0.10588235 1.00000000
0.83137255 0.20784314 1.00000000
1.00000000 0.24705882 1.00000000
0.30588235 0.24313725 1.00000000
0.41176471 0.25490196 1.00000000
0.61960784 0.29803922 1.00000000
0.84705882 0.34117647 1.00000000
1.00000000 0.36078431 1.00000000
0.13333333 0.59215686 1.00000000
0.33725490 0.58431373 1.00000000
0.63529412 0.56470588 1.00000000
0.89019608 0.54117647 1.00000000
1.00000000 0.55294118 1.00000000
0.00000000 0.83529412 1.00000000
0.00000000 0.83137255 1.00000000
0.51764706 0.81176471 1.00000000
0.78431373 0.80000000 1.00000000
1.00000000 0.74509804 1.00000000
0.00000000 1.00000000 0.95294118
0.00000000 1.00000000 0.94901961
0.39607843 1.00000000 0.94901961
0.69411765 1.00000000 0.96470588
0.98431373 0.99607843 1.00000000
