assets/luts/open/t3-portra-400.cube
TITLE "Portrait 400 Film Emulation"
LUT_3D_SIZE 9
DOMAIN_MIN 0.0 0.0 0.0
DOMAIN_MAX 1.0 1.0 1.0
# Converted from an MIT-licensed t3mujinpack Hald CLUT by PhotoAtelier.
0.00784314 0.00784314 0.00000000
0.15294118 0.00000000 0.00000000
0.27843137 0.00000000 0.00000000
0.40784314 0.00000000 0.00000000
0.54509804 0.00000000 0.00000000
0.68235294 0.00000000 0.00000000
0.82352941 0.00000000 0.00000000
0.96078431 0.00000000 0.00000000
1.00000000 0.02745098 0.01568627
0.00000000 0.11372549 0.00000000
0.13725490 0.10588235 0.00000000
0.27450980 0.08235294 0.00000000
0.41568627 0.03137255 0.00000000
0.56078431 0.00784314 0.00000000
0.69411765 0.02745098 0.00000000
0.83137255 0.06274510 0.00000000
0.96862745 0.10196078 0.00000000
1.00000000 0.14509804 0.02352941
0.00000000 0.24705882 0.00000000
0.11372549 0.24705882 0.00000000
0.27450980 0.24313725 0.00000000
0.42352941 0.24313725 0.00000000
0.58039216 0.22745098 0.00000000
0.71372549 0.22352941 0.00000000
0.84705882 0.23529412 0.00000000
0.97647059 0.25098039 0.00000000
1.00000000 0.27450980 0.04705882
0.00000000 0.40392157 0.00000000
0.09411765 0.40392157 0.00000000
0.26274510 0.40784314 0.00000000
0.43529412 0.40000000 0.00000000
0.57254902 0.40000000 0.00000000
0.72941176 0.38431373 0.00000000
0.87058824 0.38039216 0.00000000
1.00000000 0.38823529 0.00784314
1.00000000 0.41176471 0.09019608
0.02352941 0.54901961 0.00000000
0.13333333 0.55294118 0.00000000
0.25882353 0.55686275 0.00000000
0.40784314 0.55686275 0.00000000
0.58039216 0.54509804 0.00000000
0.69019608 0.55686275 0.00000000
0.87843137 0.53725490 0.00000000
1.00000000 0.54117647 0.08627451
1.00000000 0.55294118 0.14117647
0.14117647 0.68627451 0.00000000
0.19607843 0.69019608 0.00000000
0.28627451 0.69411765 0.00000000
0.40784314 0.69803922 0.00000000
0.55686275 0.70196078 0.00000000
0.72941176 0.69803922 0.01960784
0.84313725 0.71372549 0.08235294
1.00000000 0.68627451 0.14509804
1.00000000 0.67058824 0.17254902
0.25098039 0.84313725 0.03529412
0.28627451 0.84705882 0.03921569
0.35294118 0.84705882 0.05490196
0.44705882 0.85098039 0.07450980
0.56078431 0.85098039 0.09411765
0.69019608 0.84705882 0.11764706
0.85490196 0.82745098 0.14117647
0.94901961 0.82352941 0.14901961
1.00000000 0.78039216 0.16862745
0.27058824 0.95294118 0.11764706
0.30196078 0.95294118 0.11764706
0.36470588 0.94901961 0.11764706
0.44705882 0.94901961 0.12156863
0.53725490 0.94509804 0.12156863
0.63529412 0.94117647 0.12549020
0.76078431 0.92941176 0.12941176
0.91764706 0.90588235 0.14117647
1.00000000 0.89411765 0.13725490
0.22352941 1.00000000 0.11372549
0.25882353 1.00000000 0.11372549
0.33333333 1.00000000 0.11372549
0.41960784 1.00000000 0.11372549
0.51372549 1.00000000 0.11372549
0.60392157 1.00000000 0.11372549
0.70980392 1.00000000 0.10980392
0.83529412 1.00000000 0.10980392
0.98823529 0.98823529 0.11764706
0.02745098 0.00000000 0.10588235
0.15686275 0.00000000 0.10196078
0.27843137 0.00000000 0.10980392
0.40392157 0.00000000 0.09019608
0.54901961 0.00000000 0.07450980
0.68627451 0.00000000 0.07058824
0.82745098 0.00000000 0.06666667
0.96470588 0.00000000 0.07450980
1.00000000 0.02745098 0.10196078
0.00392157 0.10980392 0.10588235
0.11372549 0.11372549 0.10588235
0.27450980 0.07843137 0.09803922
0.41960784 0.02745098 0.07843137
0.56470588 0.00784314 0.07058824
0.69411765 0.02745098 0.06666667
0.83137255 0.06274510 0.06666667
0.96862745 0.10196078 0.07450980
1.00000000 0.14509804 0.10588235
0.00000000 0.24705882 0.07058824
0.12549020 0.24705882 0.06666667
0.27450980 0.24705882 0.06274510
0.43137255 0.23921569 0.05882353
0.58431373 0.22745098 0.05882353
0.71764706 0.22352941 0.05882353
0.84705882 0.23529412 0.06274510
0.98039216 0.25098039 0.08235294
1.00000000 0.27450980 0.11764706
0.00000000 0.40392157 0.03137255
0.10588235 0.40392157 0.02745098
0.27058824 0.40392157 0.02745098
0.43529412 0.40000000 0.03137255
0.57647059 0.40000000 0.03137255
0.72941176 0.38431373 0.04705882
0.87058824 0.38039216 0.06666667
1.00000000 0.38823529 0.10196078
1.00000000 0.41176471 0.14509804
0.03137255 0.55294118 0.00000000
0.13725490 0.55294118 0.00000000
0.26274510 0.55686275 0.00000000
0.41176471 0.55686275 0.00000000
0.58431373 0.54509804 0.01568627
0.69411765 0.55686275 0.03529412
0.88235294 0.53725490 0.09411765
1.00000000 0.54117647 0.14509804
1.00000000 0.55294118 0.18823529
0.14901961 0.68627451 0.00000000
0.20000000 0.69019608 0.00000000
0.29019608 0.69411765 0.00392157
0.41176471 0.69803922 0.02352941
0.56078431 0.70196078 0.06274510
0.73333333 0.69803922 0.10980392
0.84705882 0.71372549 0.14117647
1.00000000 0.68627451 0.18431373
1.00000000 0.67058824 0.21176471
0.25490196 0.84313725 0.11764706
0.29019608 0.84705882 0.11764706
0.35686275 0.84705882 0.12549020
0.45098039 0.85098039 0.13725490
0.56078431 0.85098039 0.14901961
0.69019608 0.84705882 0.16470588
0.85490196 0.82745098 0.18431373
0.94901961 0.82352941 0.18823529
1.00000000 0.78039216 0.20784314
0.27450980 0.95294118 0.16078431
0.30588235 0.95294118 0.16078431
0.36862745 0.94901961 0.16470588
0.44705882 0.94901961 0.16470588
0.54117647 0.94509804 0.16862745
0.63921569 0.94117647 0.16862745
0.76470588 0.92941176 0.17647059
0.92156863 0.90588235 0.18431373
1.00000000 0.89411765 0.18431373
0.22745098 1.00000000 0.16078431
0.26274510 1.00000000 0.16078431
0.33333333 1.00000000 0.16078431
0.42352941 1.00000000 0.16470588
0.51764706 1.00000000 0.16470588
0.60392157 1.00000000 0.16470588
0.70980392 1.00000000 0.16470588
0.83529412 1.00000000 0.16470588
0.99215686 0.98823529 0.17254902
0.00784314 0.00000000 0.28627451
0.15294118 0.00000000 0.25882353
0.29019608 0.00000000 0.21568627
0.40784314 0.00000000 0.23137255
0.54901961 0.00000000 0.24705882
0.68627451 0.00000000 0.23529412
0.82745098 0.00000000 0.22352941
0.96470588 0.00000000 0.21960784
1.00000000 0.02745098 0.21960784
0.01176471 0.10980392 0.21960784
0.15294118 0.10196078 0.21176471
0.28627451 0.06666667 0.21960784
0.41960784 0.02352941 0.24313725
0.56470588 0.01176471 0.25098039
0.69803922 0.02745098 0.23137255
0.83529412 0.06666667 0.22352941
0.96862745 0.10196078 0.21568627
1.00000000 0.14509804 0.21960784
0.00000000 0.24705882 0.24313725
0.14509804 0.24313725 0.24313725
0.25490196 0.25490196 0.24705882
0.43529412 0.23529412 0.25098039
0.58823529 0.22352941 0.23529412
0.71764706 0.22352941 0.22352941
0.85098039 0.23529412 0.21960784
0.98039216 0.25098039 0.21568627
1.00000000 0.27450980 0.22352941
0.00000000 0.40392157 0.23529412
0.10980392 0.40392157 0.23137255
0.28627451 0.40392157 0.22745098
0.43529412 0.40000000 0.22352941
0.58823529 0.39607843 0.21960784
0.73725490 0.38431373 0.21568627
0.87450980 0.38039216 0.21568627
1.00000000 0.38823529 0.21960784
1.00000000 0.41176471 0.23921569
0.02745098 0.55294118 0.20784314
0.13725490 0.55294118 0.20784314
0.26666667 0.55686275 0.20784314
0.42352941 0.55294118 0.20784314
0.58823529 0.54509804 0.20784314
0.70980392 0.55294118 0.20784314
0.88627451 0.53725490 0.21960784
1.00000000 0.54117647 0.23921569
1.00000000 0.55294118 0.26274510
0.14901961 0.69019608 0.20000000
0.20000000 0.69019608 0.20000000
0.29411765 0.69411765 0.20000000
0.41568627 0.69803922 0.20392157
0.57254902 0.70196078 0.21176471
0.74117647 0.69803922 0.22352941
0.85882353 0.70980392 0.23921569
1.00000000 0.68627451 0.25882353
1.00000000 0.66666667 0.27450980
0.26274510 0.84313725 0.22745098
0.29411765 0.84705882 0.22745098
0.36078431 0.84705882 0.23137255
0.45490196 0.85098039 0.23529412
0.56470588 0.85098039 0.23921569
0.69803922 0.84705882 0.24313725
0.86274510 0.82745098 0.25490196
0.94901961 0.82352941 0.25882353
1.00000000 0.78039216 0.27058824
0.28627451 0.95294118 0.23921569
0.31372549 0.95294118 0.23921569
0.37254902 0.94901961 0.23921569
0.45098039 0.94901961 0.23921569
0.54117647 0.94509804 0.23921569
0.63921569 0.94117647 0.23921569
0.76862745 0.92941176 0.24705882
0.92549020 0.90588235 0.25490196
1.00000000 0.89803922 0.25882353
0.24313725 1.00000000 0.23137255
0.27450980 1.00000000 0.23529412
0.34117647 1.00000000 0.23529412
0.42745098 1.00000000 0.23529412
0.51764706 1.00000000 0.23921569
0.60784314 1.00000000 0.23921569
0.70980392 1.00000000 0.24313725
0.83529412 1.00000000 0.24705882
0.99215686 0.98823529 0.25490196
0.00000000 0.00000000 0.41960784
0.11372549 0.00000000 0.41960784
0.26274510 0.00000000 0.41568627
0.41176471 0.00000000 0.37254902
0.55686275 0.00000000 0.35686275
0.68627451 0.00000000 0.39607843
0.82352941 0.00000000 0.40392157
0.96470588 0.00000000 0.38039216
1.00000000 0.03529412 0.36470588
0.00000000 0.09803922 0.41568627
0.13333333 0.08235294 0.40784314
0.28627451 0.05098039 0.38431373
0.43529412 0.01176471 0.35686275
0.56862745 0.01176471 0.37254902
0.69411765 0.03921569 0.40000000
0.83137255 0.07450980 0.40000000
0.96862745 0.10588235 0.37647059
1.00000000 0.14901961 0.36470588
0.09803922 0.24313725 0.35686275
0.16862745 0.24313725 0.35294118
0.28627451 0.24705882 0.35294118
0.45098039 0.23137255 0.37647059
0.58823529 0.22352941 0.40000000
0.71764706 0.22745098 0.40392157
0.85098039 0.23921569 0.38823529
0.98039216 0.25098039 0.36862745
1.00000000 0.27450980 0.36470588
0.00000000 0.40392157 0.39607843
0.11764706 0.40392157 0.40000000
0.29803922 0.40000000 0.40000000
0.40784314 0.40784314 0.40000000
0.59215686 0.39215686 0.40392157
0.73725490 0.38039216 0.38823529
0.87450980 0.38039216 0.37254902
1.00000000 0.39215686 0.36470588
1.00000000 0.41568627 0.36862745
0.00000000 0.55294118 0.39215686
0.10196078 0.55686275 0.38823529
0.26666667 0.55686275 0.38431373
0.43529412 0.55294118 0.37647059
0.58431373 0.54901961 0.36862745
0.72549020 0.54509804 0.36470588
0.89411765 0.53333333 0.36470588
1.00000000 0.54117647 0.37254902
1.00000000 0.55294118 0.37647059
0.12941176 0.69019608 0.36470588
0.18823529 0.69019608 0.36078431
0.29019608 0.69411765 0.36078431
0.42352941 0.69803922 0.36078431
0.58431373 0.69803922 0.36470588
0.74509804 0.69803922 0.36862745
0.87450980 0.70588235 0.37254902
1.00000000 0.68235294 0.37254902
1.00000000 0.66666667 0.36862745
0.25882353 0.84705882 0.36862745
0.29411765 0.84705882 0.36862745
0.36078431 0.85098039 0.36470588
0.45490196 0.85098039 0.36470588
0.57254902 0.85098039 0.36470588
0.70588235 0.84313725 0.36078431
0.87058824 0.82352941 0.35686275
0.95686275 0.81960784 0.34901961
1.00000000 0.77647059 0.34901961
0.29803922 0.94901961 0.34117647
0.32156863 0.94901961 0.34117647
0.38039216 0.94901961 0.34117647
0.45490196 0.94901961 0.33725490
0.54509804 0.94509804 0.33333333
0.64705882 0.93725490 0.32941176
0.77647059 0.92549020 0.32941176
0.93333333 0.90196078 0.33333333
1.00000000 0.89803922 0.33333333
0.26274510 1.00000000 0.31372549
0.29411765 1.00000000 0.31372549
0.35294118 1.00000000 0.31372549
0.43529412 1.00000000 0.31764706
0.52156863 1.00000000 0.31764706
0.61176471 1.00000000 0.31764706
0.71764706 1.00000000 0.32156863
0.84313725 1.00000000 0.32549020
1.00000000 0.98431373 0.33725490
0.00784314 0.00000000 0.53333333
0.12549020 0.00000000 0.53725490
0.25098039 0.00000000 0.54901961
0.38823529 0.00000000 0.56078431
0.54117647 0.00000000 0.55294118
0.69019608 0.00000000 0.51764706
0.82745098 0.00000000 0.51764706
0.96078431 0.00000000 0.54901961
1.00000000 0.05882353 0.54509804
0.00000000 0.07450980 0.54901961
0.12549020 0.06666667 0.54901961
0.26274510 0.04705882 0.55686275
0.41176471 0.03137255 0.56470588
0.56078431 0.03137255 0.54117647
0.70196078 0.04313725 0.50980392
0.83529412 0.08235294 0.52549020
0.96470588 0.11764706 0.54901961
1.00000000 0.15686275 0.54509804
0.00000000 0.25882353 0.56470588
0.05882353 0.25098039 0.56078431
0.29019608 0.23921569 0.55686275
0.45490196 0.22745098 0.53725490
0.60000000 0.22352941 0.51372549
0.72156863 0.22745098 0.51372549
0.84705882 0.24313725 0.54509804
0.97647059 0.25882353 0.54901961
1.00000000 0.28235294 0.53333333
0.11764706 0.40000000 0.51372549
0.21176471 0.40000000 0.50980392
0.32549020 0.40000000 0.50588235
0.43529412 0.40392157 0.50980392
0.60784314 0.38823529 0.52941176
0.73725490 0.38039216 0.54901961
0.87058824 0.38039216 0.54901961
1.00000000 0.39607843 0.54117647
1.00000000 0.41568627 0.52941176
0.00000000 0.55686275 0.54117647
0.08235294 0.55686275 0.54509804
0.27058824 0.55294118 0.54901961
0.44705882 0.54901961 0.54901961
0.55686275 0.55686275 0.54901961
0.73333333 0.54117647 0.55294118
0.89411765 0.53333333 0.54117647
1.00000000 0.54117647 0.52941176
1.00000000 0.55294118 0.52549020
0.00000000 0.69411765 0.54901961
0.11372549 0.69411765 0.54901961
0.26274510 0.69803922 0.54509804
0.41960784 0.70196078 0.54117647
0.59607843 0.69803922 0.53725490
0.73725490 0.69803922 0.52941176
0.89411765 0.69803922 0.52549020
1.00000000 0.68235294 0.51764706
1.00000000 0.66274510 0.50196078
0.23529412 0.84705882 0.52549020
0.27058824 0.85098039 0.52549020
0.34509804 0.85098039 0.52156863
0.44705882 0.85098039 0.51764706
0.57254902 0.85098039 0.51372549
0.71764706 0.83921569 0.50588235
0.87450980 0.82352941 0.49411765
0.97647059 0.81176471 0.47843137
1.00000000 0.77254902 0.46274510
0.29019608 0.94901961 0.47843137
0.31764706 0.94901961 0.47843137
0.37254902 0.94901961 0.47450980
0.45098039 0.94509804 0.47058824
0.54509804 0.94509804 0.46274510
0.65098039 0.93725490 0.45098039
0.78823529 0.92156863 0.44313725
0.94509804 0.89803922 0.43529412
1.00000000 0.89411765 0.42352941
0.28235294 1.00000000 0.42352941
0.30588235 1.00000000 0.42352941
0.36470588 1.00000000 0.42352941
0.44313725 1.00000000 0.41960784
0.52941176 1.00000000 0.41568627
0.61568627 1.00000000 0.41176471
0.72549020 1.00000000 0.40784314
0.85490196 1.00000000 0.40784314
1.00000000 0.98039216 0.41568627
0.05490196 0.00000000 0.63921569
0.14509804 0.00000000 0.64313725
0.26274510 0.00000000 0.65490196
0.39215686 0.00000000 0.67843137
0.53333333 0.00000000 0.70588235
0.67058824 0.00000000 0.71372549
0.81960784 0.00000000 0.68235294
0.96470588 0.00000000 0.64313725
1.00000000 0.07450980 0.67058824
0.08235294 0.04705882 0.65098039
0.16470588 0.04313725 0.65882353
0.27843137 0.03921569 0.67058824
0.40784314 0.04313725 0.69411765
0.54509804 0.05882353 0.71372549
0.68235294 0.07450980 0.70980392
0.83137255 0.09411765 0.67058824
0.97254902 0.12156863 0.64313725
1.00000000 0.16470588 0.67843137
0.00000000 0.23921569 0.69411765
0.14901961 0.23921569 0.69803922
0.29411765 0.23529412 0.70588235
0.43529412 0.23137255 0.71372549
0.57647059 0.23137255 0.71372549
0.70980392 0.23529412 0.68627451
0.85098039 0.24313725 0.65098039
0.98039216 0.25882353 0.65490196
1.00000000 0.28627451 0.69019608
0.00000000 0.40000000 0.71372549
0.05882353 0.40392157 0.71372549
0.21568627 0.41176471 0.70588235
0.45098039 0.39215686 0.69411765
0.61176471 0.38431373 0.67058824
0.74901961 0.37647059 0.64705882
0.87450980 0.38431373 0.65490196
1.00000000 0.40000000 0.68627451
1.00000000 0.42352941 0.69803922
0.07450980 0.55294118 0.65098039
0.19215686 0.55294118 0.65098039
0.33725490 0.54901961 0.64705882
0.47450980 0.54509804 0.64313725
0.57647059 0.55294118 0.65098039
0.74901961 0.53725490 0.67450980
0.89411765 0.53725490 0.69411765
1.00000000 0.54509804 0.70196078
1.00000000 0.55686275 0.69411765
0.00000000 0.69803922 0.67843137
0.09019608 0.69803922 0.67843137
0.25882353 0.69803922 0.68627451
0.42745098 0.69803922 0.69411765
0.60392157 0.69411765 0.69803922
0.70980392 0.70980392 0.69803922
0.89803922 0.69411765 0.70196078
1.00000000 0.67843137 0.68235294
1.00000000 0.66274510 0.65098039
0.12549020 0.85098039 0.70196078
0.18823529 0.85098039 0.70196078
0.29411765 0.85098039 0.69803922
0.42352941 0.85490196 0.69019608
0.56862745 0.85098039 0.67843137
0.72549020 0.83529412 0.66274510
0.86274510 0.82352941 0.64313725
0.99607843 0.80392157 0.61960784
1.00000000 0.76862745 0.60000000
0.25882353 0.94901961 0.62745098
0.28627451 0.94901961 0.62352941
0.34901961 0.94901961 0.61960784
0.43529412 0.94509804 0.61176471
0.53725490 0.94117647 0.60392157
0.65098039 0.93333333 0.59215686
0.80000000 0.91764706 0.57647059
0.94509804 0.89411765 0.56470588
1.00000000 0.89019608 0.54509804
0.27450980 1.00000000 0.55294118
0.30196078 1.00000000 0.55294118
0.35686275 1.00000000 0.55294118
0.43529412 1.00000000 0.54509804
0.52156863 1.00000000 0.54117647
0.61568627 1.00000000 0.53333333
0.72941176 1.00000000 0.52549020
0.86666667 1.00000000 0.51764706
1.00000000 0.97647059 0.50980392
0.10196078 0.00000000 0.75686275
0.17254902 0.00000000 0.76078431
0.28235294 0.00000000 0.77647059
0.41176471 0.00000000 0.79607843
0.54117647 0.00000000 0.81960784
0.66666667 0.00000000 0.84705882
0.80392157 0.00000000 0.86666667
0.94509804 0.03529412 0.85490196
1.00000000 0.09803922 0.81176471
0.14117647 0.03529412 0.77254902
0.20000000 0.03529412 0.77647059
0.30196078 0.03921569 0.78823529
0.42352941 0.05098039 0.80784314
0.54901961 0.07058824 0.83137255
0.67450980 0.09411765 0.85490196
0.80784314 0.12156863 0.86666667
0.95294118 0.14509804 0.85098039
1.00000000 0.17647059 0.80784314
0.17254902 0.23137255 0.80784314
0.23137255 0.22745098 0.81176471
0.32941176 0.22745098 0.81960784
0.44705882 0.23137255 0.83529412
0.56862745 0.23529412 0.85490196
0.69019608 0.24705882 0.86666667
0.82745098 0.25490196 0.86274510
0.97254902 0.27058824 0.83137255
1.00000000 0.29411765 0.80000000
0.00000000 0.40784314 0.85098039
0.09411765 0.40392157 0.85490196
0.29803922 0.39607843 0.85882353
0.44705882 0.38823529 0.86666667
0.59215686 0.38431373 0.87058824
0.72156863 0.38431373 0.86274510
0.86274510 0.38823529 0.83529412
1.00000000 0.40392157 0.80392157
1.00000000 0.42745098 0.80784314
0.00000000 0.54901961 0.86666667
0.12156863 0.54901961 0.86274510
0.28235294 0.54901961 0.85882353
0.37647059 0.56078431 0.85098039
0.60392157 0.54117647 0.83529412
0.76078431 0.53333333 0.81568627
0.90980392 0.53725490 0.80000000
1.00000000 0.54901961 0.81176471
1.00000000 0.55686275 0.83921569
0.00000000 0.69803922 0.81176471
0.16078431 0.69803922 0.80784314
0.31764706 0.69803922 0.80392157
0.48627451 0.69411765 0.80000000
0.62745098 0.69803922 0.80000000
0.72941176 0.70588235 0.81176471
0.91372549 0.69019608 0.83137255
1.00000000 0.67450980 0.84313725
1.00000000 0.66274510 0.82352941
0.09019608 0.85490196 0.82745098
0.16862745 0.85490196 0.82745098
0.28235294 0.85490196 0.83137255
0.41568627 0.85098039 0.83529412
0.57254902 0.84313725 0.83921569
0.72941176 0.83137255 0.83137255
0.82745098 0.82745098 0.81568627
0.99607843 0.79215686 0.80392157
1.00000000 0.76470588 0.76862745
0.12156863 0.94901961 0.80784314
0.17647059 0.94901961 0.80392157
0.27058824 0.94901961 0.80392157
0.38039216 0.94509804 0.79607843
0.50980392 0.94117647 0.78431373
0.64313725 0.92941176 0.76470588
0.80392157 0.90980392 0.74117647
0.93725490 0.89411765 0.71764706
1.00000000 0.87450980 0.69803922
0.23137255 1.00000000 0.70980392
0.26274510 1.00000000 0.70980392
0.32549020 1.00000000 0.70588235
0.40784314 1.00000000 0.70196078
0.50588235 1.00000000 0.69019608
0.60784314 1.00000000 0.68235294
0.72941176 1.00000000 0.67058824
0.87843137 0.99607843 0.65882353
1.00000000 0.97647059 0.64705882
0.15294118 0.00000000 0.88627451
0.21176471 0.00000000 0.89019608
0.30980392 0.00000000 0.90196078
0.42745098 0.00000000 0.91764706
0.55686275 0.00000000 0.93725490
0.67843137 0.00000000 0.95686275
0.80784314 0.00000000 0.98039216
0.93725490 0.07450980 1.00000000
1.00000000 0.13725490 1.00000000
0.18823529 0.03921569 0.90196078
0.23921569 0.03921569 0.90588235
0.32941176 0.04705882 0.91372549
0.43921569 0.05882353 0.92941176
0.56470588 0.07843137 0.94509804
0.68235294 0.10196078 0.96470588
0.81176471 0.13333333 0.98823529
0.94117647 0.16470588 1.00000000
1.00000000 0.20000000 1.00000000
0.23921569 0.22352941 0.92941176
0.28235294 0.22745098 0.92941176
0.36078431 0.22745098 0.93725490
0.46274510 0.23137255 0.94901961
0.58039216 0.23921569 0.96470588
0.69411765 0.25098039 0.98039216
0.81960784 0.26274510 1.00000000
0.95294118 0.28235294 1.00000000
1.00000000 0.30980392 1.00000000
0.21176471 0.38823529 0.96470588
0.26666667 0.38823529 0.96470588
0.36470588 0.38431373 0.96862745
0.47843137 0.38431373 0.98039216
0.60000000 0.38431373 0.99215686
0.71372549 0.38823529 1.00000000
0.83921569 0.40000000 1.00000000
0.98039216 0.41568627 1.00000000
1.00000000 0.43529412 1.00000000
0.00000000 0.55294118 1.00000000
0.00000000 0.55686275 1.00000000
0.16078431 0.56078431 1.00000000
0.43529412 0.54509804 1.00000000
0.59607843 0.53725490 1.00000000
0.73725490 0.53725490 1.00000000
0.88627451 0.54117647 1.00000000
1.00000000 0.55294118 0.99607843
1.00000000 0.55686275 0.95686275
0.00000000 0.69803922 1.00000000
0.00000000 0.69803922 1.00000000
0.28235294 0.69803922 1.00000000
0.44705882 0.69803922 1.00000000
0.54509804 0.71372549 1.00000000
0.75686275 0.69411765 1.00000000
0.92156863 0.68235294 0.97254902
1.00000000 0.67058824 0.94117647
1.00000000 0.65882353 0.92549020
0.00000000 0.85490196 0.96862745
0.14901961 0.85490196 0.96470588
0.29803922 0.85098039 0.96078431
0.45490196 0.84705882 0.95294118
0.62352941 0.83529412 0.93725490
0.74901961 0.82352941 0.92941176
0.83921569 0.81960784 0.92156863
1.00000000 0.78431373 0.92549020
1.00000000 0.75686275 0.92156863
0.05882353 0.94901961 0.91764706
0.14117647 0.94901961 0.91764706
0.24705882 0.94509804 0.91764706
0.36862745 0.94117647 0.91764706
0.50196078 0.93725490 0.91764706
0.64313725 0.92549020 0.91764706
0.80784314 0.90196078 0.90588235
0.89803922 0.89803922 0.89019608
1.00000000 0.86666667 0.87843137
0.00392157 1.00000000 0.88627451
0.10980392 1.00000000 0.88235294
0.22352941 1.00000000 0.88235294
0.33725490 1.00000000 0.87843137
0.45490196 1.00000000 0.87450980
0.57647059 1.00000000 0.86274510
0.72156863 1.00000000 0.84313725
0.88627451 0.98823529 0.82352941
1.00000000 0.97647059 0.80000000
0.20784314 0.00000000 1.00000000
0.25098039 0.00000000 1.00000000
0.33725490 0.00000000 1.00000000
0.44705882 0.00000000 1.00000000
0.56862745 0.00000000 1.00000000
0.69019608 0.00000000 1.00000000
0.81568627 0.01960784 1.00000000
0.94509804 0.09019608 1.00000000
1.00000000 0.15686275 1.00000000
0.23137255 0.05098039 1.00000000
0.27058824 0.05098039 1.00000000
0.35294118 0.05882353 1.00000000
0.45882353 0.07450980 1.00000000
0.57647059 0.09019608 1.00000000
0.69411765 0.11372549 1.00000000
0.81960784 0.14117647 1.00000000
0.94901961 0.17254902 1.00000000
1.00000000 0.21960784 1.00000000
0.27843137 0.22745098 1.00000000
0.31372549 0.22745098 1.00000000
0.38431373 0.23137255 1.00000000
0.48235294 0.23921569 1.00000000
0.59215686 0.24705882 1.00000000
0.70588235 0.25490196 1.00000000
0.82745098 0.27058824 1.00000000
0.95686275 0.29019608 1.00000000
1.00000000 0.32156863 1.00000000
0.30588235 0.38039216 1.00000000
0.34117647 0.38039216 1.00000000
0.41176471 0.38039216 1.00000000
0.50588235 0.38039216 1.00000000
0.61568627 0.38431373 1.00000000
0.72549020 0.39215686 1.00000000
0.84705882 0.40392157 1.00000000
0.97647059 0.42352941 1.00000000
1.00000000 0.44705882 1.00000000
0.18039216 0.54509804 1.00000000
0.25882353 0.54117647 1.00000000
0.36862745 0.54117647 1.00000000
0.49411765 0.53725490 1.00000000
0.62745098 0.53333333 1.00000000
0.74901961 0.53725490 1.00000000
0.87843137 0.54901961 1.00000000
1.00000000 0.56078431 1.00000000
1.00000000 0.56470588 1.00000000
0.09019608 0.69411765 1.00000000
0.18039216 0.69411765 1.00000000
0.27843137 0.69803922 1.00000000
0.35686275 0.71372549 1.00000000
0.59215686 0.69803922 1.00000000
0.74901961 0.69019608 1.00000000
0.89411765 0.68235294 1.00000000
1.00000000 0.67058824 1.00000000
1.00000000 0.65882353 1.00000000
0.00000000 0.85098039 1.00000000
0.00000000 0.85098039 1.00000000
0.19215686 0.84705882 1.00000000
0.41960784 0.83921569 1.00000000
0.58431373 0.83137255 1.00000000
0.66666667 0.83137255 1.00000000
0.86274510 0.80392157 1.00000000
1.00000000 0.77647059 1.00000000
1.00000000 0.75294118 1.00000000
0.00000000 0.94509804 1.00000000
0.00000000 0.94509804 1.00000000
0.19607843 0.94117647 1.00000000
0.36862745 0.93725490 1.00000000
0.52941176 0.92941176 1.00000000
0.69019608 0.91372549 1.00000000
0.82352941 0.89803922 1.00000000
0.90980392 0.89411765 0.99607843
1.00000000 0.85882353 1.00000000
0.00000000 1.00000000 0.99215686
0.04313725 1.00000000 0.99215686
0.19607843 1.00000000 0.99215686
0.31764706 1.00000000 0.99215686
0.44313725 1.00000000 0.99215686
0.57254902 1.00000000 0.99607843
0.72549020 1.00000000 0.99215686
0.89019608 0.98431373 0.98431373
0.98039216 0.98039216 0.97254902
