assets/luts/open/t3-portra-160.cube
TITLE "Portrait 160 Film Emulation"
LUT_3D_SIZE 33
DOMAIN_MIN 0.0 0.0 0.0
DOMAIN_MAX 1.0 1.0 1.0
# Converted from an MIT-licensed t3mujinpack Hald CLUT by PhotoAtelier.
0.00000000 0.00392157 0.00784314
0.00392157 0.00000000 0.00392157
0.03137255 0.00000000 0.00000000
0.07058824 0.00000000 0.00000000
0.11372549 0.00000000 0.00000000
0.15294118 0.00000000 0.00000000
0.18823529 0.00000000 0.00000000
0.21960784 0.00000000 0.00000000
0.26274510 0.00000000 0.00000000
0.29803922 0.00000000 0.00000000
0.34117647 0.00000000 0.00000000
0.37254902 0.00000000 0.00000000
0.40784314 0.00000000 0.00000000
0.43529412 0.00000000 0.00000000
0.47450980 0.00000000 0.00000000
0.50196078 0.00000000 0.00000000
0.53725490 0.00000000 0.00000000
0.56862745 0.00000000 0.00000000
0.60000000 0.00000000 0.00000000
0.64313725 0.00000000 0.00784314
0.67450980 0.00000000 0.01960784
0.71764706 0.00000000 0.03529412
0.75294118 0.00000000 0.04705882
0.80000000 0.03137255 0.06666667
0.83137255 0.07058824 0.07843137
0.87450980 0.10980392 0.09803922
0.90980392 0.13333333 0.10980392
0.94901961 0.15686275 0.12549020
0.98039216 0.17254902 0.13725490
1.00000000 0.18823529 0.14901961
1.00000000 0.20000000 0.15686275
1.00000000 0.21176471 0.16862745
1.00000000 0.21568627 0.17647059
0.00000000 0.01176471 0.00000000
0.00000000 0.00784314 0.00000000
0.01960784 0.00784314 0.00000000
0.05490196 0.00000000 0.00000000
0.10588235 0.00000000 0.00000000
0.14509804 0.00000000 0.00000000
0.18431373 0.00000000 0.00000000
0.21568627 0.00000000 0.00000000
0.26274510 0.00000000 0.00000000
0.29803922 0.00000000 0.00000000
0.34117647 0.00000000 0.00000000
0.37254902 0.00000000 0.00000000
0.40784314 0.00000000 0.00000000
0.43921569 0.00000000 0.00000000
0.47450980 0.00000000 0.00000000
0.50588235 0.00000000 0.00000000
0.54117647 0.00000000 0.00000000
0.57254902 0.00000000 0.00000000
0.60392157 0.00000000 0.00000000
0.64705882 0.00000000 0.01176471
0.67843137 0.00000000 0.02352941
0.72156863 0.00000000 0.03921569
0.75686275 0.00392157 0.05098039
0.80000000 0.05882353 0.06666667
0.83529412 0.09019608 0.08235294
0.87843137 0.12156863 0.09803922
0.90980392 0.14509804 0.11372549
0.95294118 0.16862745 0.12941176
0.98431373 0.18039216 0.13725490
1.00000000 0.19607843 0.14901961
1.00000000 0.20784314 0.16078431
1.00000000 0.21960784 0.16862745
1.00000000 0.22352941 0.17647059
0.00000000 0.03529412 0.00000000
0.00000000 0.03137255 0.00000000
0.01960784 0.02745098 0.00000000
0.05098039 0.02745098 0.00000000
0.09803922 0.02352941 0.00000000
0.13725490 0.01960784 0.00000000
0.17647059 0.02352941 0.00000000
0.21176471 0.01960784 0.00000000
0.25882353 0.00392157 0.00000000
0.29411765 0.00000000 0.00000000
0.33725490 0.00000000 0.00000000
0.37254902 0.00000000 0.00000000
0.41176471 0.00000000 0.00000000
0.43921569 0.00000000 0.00000000
0.47843137 0.00000000 0.00000000
0.50588235 0.00000000 0.00000000
0.54509804 0.00000000 0.00000000
0.57647059 0.00000000 0.00000000
0.60784314 0.00000000 0.00000000
0.65098039 0.00000000 0.01176471
0.68627451 0.00000000 0.02745098
0.72549020 0.00000000 0.03921569
0.76078431 0.04313725 0.05490196
0.80392157 0.08627451 0.07058824
0.83921569 0.11372549 0.08627451
0.88235294 0.14117647 0.10196078
0.91372549 0.16078431 0.11372549
0.95294118 0.18039216 0.12941176
0.98431373 0.19215686 0.14117647
1.00000000 0.20784314 0.15294118
1.00000000 0.21960784 0.16078431
1.00000000 0.22745098 0.17254902
1.00000000 0.23529412 0.17647059
0.00000000 0.06666667 0.00000000
0.00000000 0.06274510 0.00000000
0.01568627 0.06274510 0.00000000
0.06274510 0.05882353 0.00000000
0.10196078 0.06666667 0.00000000
0.13333333 0.06666667 0.00000000
0.17647059 0.06666667 0.00000000
0.21176471 0.06274510 0.00000000
0.25490196 0.05490196 0.00000000
0.29019608 0.03921569 0.00000000
0.33333333 0.01568627 0.00000000
0.36862745 0.00000000 0.00000000
0.40784314 0.00000000 0.00000000
0.44313725 0.00000000 0.00000000
0.47843137 0.00000000 0.00000000
0.50980392 0.00000000 0.00000000
0.54901961 0.00000000 0.00000000
0.58039216 0.00000000 0.00000000
0.61568627 0.00000000 0.00000000
0.65490196 0.00000000 0.01568627
0.69019608 0.00000000 0.02745098
0.73333333 0.04313725 0.04313725
0.76470588 0.07843137 0.05882353
0.80784314 0.10980392 0.07450980
0.84313725 0.13333333 0.09019608
0.88235294 0.15686275 0.10588235
0.91764706 0.17647059 0.11764706
0.95686275 0.19215686 0.13333333
0.98431373 0.20784314 0.14117647
1.00000000 0.21960784 0.15294118
1.00000000 0.22745098 0.16470588
1.00000000 0.23921569 0.17254902
1.00000000 0.24313725 0.18039216
0.00000000 0.11372549 0.00000000
0.00000000 0.10980392 0.00000000
0.01568627 0.10980392 0.00000000
0.07450980 0.10588235 0.00000000
0.12156863 0.10196078 0.00000000
0.14117647 0.10588235 0.00000000
0.17647059 0.10980392 0.00000000
0.20784314 0.10980392 0.00000000
0.25098039 0.10588235 0.00000000
0.28235294 0.10196078 0.00000000
0.32941176 0.09019608 0.00000000
0.36470588 0.07843137 0.00000000
0.40784314 0.05882353 0.00000000
0.43921569 0.03921569 0.00000000
0.48235294 0.01960784 0.00000000
0.51372549 0.00784314 0.00000000
0.55686275 0.00392157 0.00000000
0.58823529 0.00784314 0.00000000
0.62352941 0.01960784 0.00784314
0.66274510 0.04705882 0.02352941
0.69803922 0.06666667 0.03529412
0.74117647 0.09411765 0.05098039
0.77254902 0.11764706 0.06666667
0.81568627 0.14117647 0.08235294
0.84705882 0.16078431 0.09803922
0.89019608 0.18431373 0.10980392
0.92156863 0.20000000 0.12549020
0.96078431 0.21568627 0.13725490
0.98823529 0.22745098 0.14509804
1.00000000 0.23921569 0.15686275
1.00000000 0.24705882 0.16470588
1.00000000 0.25490196 0.17647059
1.00000000 0.25882353 0.18039216
0.00000000 0.14117647 0.00000000
0.00000000 0.14117647 0.00000000
0.03137255 0.14117647 0.00000000
0.07450980 0.13725490 0.00000000
0.12156863 0.13725490 0.00000000
0.15294118 0.13725490 0.00000000
0.18039216 0.14117647 0.00000000
0.20392157 0.14117647 0.00000000
0.24313725 0.14117647 0.00000000
0.27843137 0.13725490 0.00000000
0.32156863 0.13333333 0.00000000
0.35686275 0.12549020 0.00000000
0.40000000 0.11372549 0.00000000
0.43921569 0.10196078 0.00000000
0.48235294 0.09019608 0.00000000
0.51764706 0.08235294 0.00000000
0.56078431 0.07450980 0.00000000
0.59607843 0.07843137 0.00392157
0.63137255 0.08627451 0.01568627
0.67450980 0.09803922 0.02745098
0.70588235 0.11372549 0.04313725
0.74901961 0.13333333 0.05882353
0.78039216 0.14901961 0.07450980
0.82352941 0.16862745 0.09019608
0.85490196 0.18431373 0.10196078
0.89411765 0.20392157 0.11764706
0.92549020 0.21960784 0.12941176
0.96470588 0.23529412 0.14117647
0.99215686 0.24313725 0.14901961
1.00000000 0.25490196 0.16078431
1.00000000 0.26274510 0.16862745
1.00000000 0.27058824 0.17647059
1.00000000 0.27450980 0.18431373
0.00000000 0.18039216 0.00000000
0.00000000 0.18039216 0.00000000
0.01568627 0.18039216 0.00000000
0.05882353 0.18039216 0.00000000
0.10980392 0.18039216 0.00000000
0.14509804 0.17647059 0.00000000
0.18823529 0.17647059 0.00000000
0.21176471 0.17647059 0.00000000
0.23921569 0.18039216 0.00000000
0.27058824 0.18039216 0.00000000
0.31372549 0.17647059 0.00000000
0.34901961 0.17647059 0.00000000
0.39607843 0.16862745 0.00000000
0.43137255 0.16078431 0.00000000
0.48235294 0.15294118 0.00000000
0.52156863 0.14901961 0.00000000
0.56862745 0.14117647 0.00000000
0.60392157 0.14117647 0.01176471
0.63921569 0.14509804 0.02352941
0.68235294 0.15294118 0.03921569
0.71764706 0.16078431 0.05490196
0.76078431 0.17647059 0.07058824
0.79215686 0.18823529 0.08235294
0.83137255 0.20392157 0.09803922
0.86274510 0.21960784 0.10980392
0.90196078 0.23529412 0.12549020
0.93333333 0.24705882 0.13725490
0.96862745 0.25882353 0.14901961
0.99607843 0.27058824 0.15686275
1.00000000 0.27843137 0.16470588
1.00000000 0.28627451 0.17254902
1.00000000 0.29019608 0.18039216
1.00000000 0.29411765 0.18823529
0.00000000 0.21176471 0.00000000
0.00000000 0.21176471 0.00000000
0.00000000 0.21176471 0.00000000
0.03137255 0.21176471 0.00000000
0.09019608 0.21176471 0.00000000
0.12941176 0.21176471 0.00000000
0.18039216 0.20784314 0.00000000
0.21176471 0.20784314 0.00000000
0.24705882 0.20784314 0.00000000
0.26666667 0.21176471 0.00000000
0.30588235 0.21176471 0.00000000
0.34117647 0.21176471 0.00000000
0.38823529 0.20784314 0.00000000
0.42745098 0.20784314 0.00000000
0.47843137 0.20000000 0.00000000
0.52156863 0.19607843 0.00000000
0.57254902 0.19215686 0.00392157
0.60784314 0.18823529 0.01568627
0.64705882 0.18823529 0.03137255
0.69411765 0.19607843 0.05098039
0.72549020 0.20000000 0.06666667
0.76862745 0.21176471 0.08235294
0.80392157 0.21960784 0.09411765
0.84313725 0.23529412 0.10980392
0.87450980 0.24705882 0.12156863
0.90980392 0.25882353 0.13333333
0.93725490 0.27058824 0.14117647
0.97254902 0.28235294 0.15294118
1.00000000 0.29019608 0.16078431
1.00000000 0.29803922 0.16862745
1.00000000 0.30196078 0.17647059
1.00000000 0.30980392 0.18431373
1.00000000 0.31372549 0.19215686
0.00000000 0.25098039 0.00000000
0.00000000 0.25098039 0.00000000
0.00000000 0.25098039 0.00000000
0.00000000 0.25098039 0.00000000
0.05882353 0.25098039 0.00000000
0.10980392 0.25098039 0.00000000
0.16470588 0.25098039 0.00000000
0.20392157 0.25098039 0.00000000
0.25098039 0.24705882 0.00000000
0.27843137 0.25098039 0.00000000
0.30980392 0.25490196 0.00000000
0.34117647 0.25882353 0.00000000
0.38823529 0.25882353 0.00000000
0.42352941 0.25882353 0.00000000
0.47450980 0.25490196 0.00000000
0.51764706 0.25490196 0.00000000
0.57254902 0.25098039 0.01176471
0.61176471 0.24705882 0.02745098
0.65490196 0.24705882 0.04705882
0.70196078 0.24705882 0.06666667
0.73725490 0.25098039 0.07843137
0.78039216 0.25490196 0.09411765
0.81568627 0.26274510 0.10588235
0.85490196 0.27058824 0.12156863
0.88235294 0.27843137 0.12941176
0.91764706 0.29019608 0.14117647
0.94509804 0.29803922 0.15294118
0.98039216 0.30980392 0.16078431
1.00000000 0.31764706 0.16862745
1.00000000 0.32549020 0.17647059
1.00000000 0.32941176 0.18431373
1.00000000 0.33333333 0.18823529
1.00000000 0.33725490 0.19607843
0.00000000 0.28235294 0.00000000
0.00000000 0.28235294 0.00000000
0.00000000 0.28235294 0.00000000
0.00000000 0.28235294 0.00000000
0.02745098 0.28627451 0.00000000
0.09019608 0.28627451 0.00000000
0.14901961 0.28627451 0.00000000
0.19215686 0.28627451 0.00000000
0.24705882 0.28627451 0.00000000
0.28235294 0.28235294 0.00000000
0.32156863 0.28627451 0.00000000
0.34901961 0.29411765 0.00000000
0.38823529 0.29803922 0.00000000
0.42745098 0.29803922 0.00000000
0.47450980 0.29803922 0.00000000
0.51764706 0.29803922 0.00392157
0.57254902 0.29411765 0.02352941
0.61176471 0.29411765 0.04313725
0.65490196 0.29019608 0.05882353
0.70588235 0.29019608 0.07843137
0.74509804 0.29019608 0.09019608
0.78823529 0.29411765 0.10588235
0.82352941 0.29803922 0.11764706
0.86274510 0.30196078 0.12941176
0.89019608 0.30980392 0.14117647
0.92549020 0.31764706 0.15294118
0.95294118 0.32549020 0.16078431
0.98431373 0.33333333 0.16862745
1.00000000 0.33725490 0.17254902
1.00000000 0.34509804 0.18039216
1.00000000 0.34901961 0.18823529
1.00000000 0.35294118 0.19215686
1.00000000 0.35686275 0.20000000
0.00000000 0.32549020 0.00000000
0.00000000 0.32941176 0.00000000
0.00000000 0.32941176 0.00000000
0.00000000 0.32941176 0.00000000
0.00000000 0.32941176 0.00000000
0.06666667 0.32941176 0.00000000
0.13725490 0.33333333 0.00000000
0.18039216 0.33333333 0.00000000
0.23921569 0.33333333 0.00000000
0.28235294 0.33333333 0.00000000
0.33333333 0.33333333 0.00000000
0.36470588 0.33725490 0.00000000
0.40000000 0.34117647 0.00000000
0.43137255 0.34901961 0.00000000
0.47843137 0.34901961 0.00784314
0.51764706 0.34901961 0.02352941
0.56862745 0.34901961 0.04313725
0.61176471 0.34901961 0.05882353
0.65490196 0.34901961 0.07450980
0.70588235 0.34509804 0.09411765
0.74901961 0.34117647 0.10588235
0.79607843 0.34117647 0.12156863
0.83137255 0.34117647 0.12941176
0.87058824 0.34509804 0.14117647
0.89803922 0.34509804 0.15294118
0.93333333 0.35294118 0.16078431
0.96078431 0.35686275 0.16862745
0.99215686 0.36078431 0.17647059
1.00000000 0.36470588 0.18039216
1.00000000 0.37254902 0.18823529
1.00000000 0.37647059 0.19215686
1.00000000 0.38039216 0.20000000
1.00000000 0.38431373 0.20392157
0.00000000 0.36470588 0.00000000
0.00000000 0.36470588 0.00000000
0.00000000 0.36470588 0.00000000
0.00000000 0.36862745 0.00000000
0.00000000 0.36862745 0.00000000
0.05098039 0.36862745 0.00000000
0.12941176 0.37254902 0.00000000
0.17647059 0.37254902 0.00000000
0.23137255 0.37254902 0.00000000
0.27450980 0.37647059 0.00000000
0.32941176 0.37647059 0.00000000
0.37254902 0.37647059 0.00000000
0.41568627 0.37647059 0.00392157
0.44313725 0.38431373 0.01568627
0.48235294 0.38823529 0.02745098
0.51764706 0.39215686 0.04313725
0.56862745 0.39215686 0.06274510
0.60784314 0.39215686 0.07450980
0.65098039 0.39215686 0.09019608
0.70588235 0.38823529 0.10588235
0.74509804 0.38431373 0.11764706
0.79607843 0.38039216 0.12941176
0.83137255 0.38039216 0.14117647
0.87450980 0.37647059 0.15294118
0.90196078 0.37647059 0.16078431
0.93725490 0.38039216 0.16862745
0.96470588 0.38039216 0.17647059
0.99607843 0.38431373 0.18431373
1.00000000 0.38823529 0.18823529
1.00000000 0.39215686 0.19607843
1.00000000 0.39607843 0.20000000
1.00000000 0.40000000 0.20392157
1.00000000 0.40392157 0.20784314
0.00000000 0.41568627 0.00000000
0.00000000 0.41568627 0.00000000
0.00000000 0.41568627 0.00000000
0.00000000 0.41960784 0.00000000
0.00000000 0.41960784 0.00000000
0.03921569 0.41960784 0.00000000
0.12156863 0.42352941 0.00000000
0.17254902 0.42352941 0.00000000
0.22745098 0.42352941 0.00000000
0.27058824 0.42745098 0.00000000
0.32549020 0.42745098 0.00784314
0.37254902 0.42745098 0.01960784
0.42352941 0.42745098 0.03529412
0.46274510 0.42745098 0.05098039
0.49411765 0.43529412 0.06274510
0.52156863 0.43921569 0.07058824
0.56862745 0.44313725 0.08627451
0.60784314 0.44313725 0.09411765
0.64705882 0.44313725 0.10588235
0.69803922 0.43921569 0.12156863
0.73725490 0.43529412 0.12941176
0.78823529 0.43137255 0.14117647
0.82745098 0.42745098 0.15294118
0.87058824 0.41960784 0.16078431
0.90588235 0.41960784 0.16862745
0.94117647 0.41568627 0.17647059
0.96862745 0.41568627 0.18431373
1.00000000 0.41568627 0.19215686
1.00000000 0.41960784 0.19607843
1.00000000 0.41960784 0.20392157
1.00000000 0.42352941 0.20784314
1.00000000 0.42745098 0.21176471
1.00000000 0.43137255 0.21568627
0.00000000 0.45882353 0.00000000
0.00000000 0.45882353 0.00000000
0.00000000 0.45882353 0.00000000
0.00000000 0.45882353 0.00000000
0.00000000 0.45882353 0.00000000
0.03137255 0.46274510 0.00000000
0.12156863 0.46274510 0.00392157
0.17254902 0.46274510 0.00784314
0.22745098 0.46666667 0.01568627
0.27058824 0.46666667 0.02745098
0.32156863 0.47058824 0.03921569
0.36470588 0.47058824 0.05098039
0.41960784 0.47058824 0.06274510
0.46274510 0.46666667 0.07450980
0.50980392 0.47058824 0.08627451
0.53725490 0.47450980 0.09411765
0.57254902 0.47843137 0.10196078
0.60392157 0.48235294 0.11372549
0.64313725 0.48235294 0.12156863
0.69019608 0.47843137 0.13333333
0.72941176 0.47450980 0.14117647
0.78039216 0.47058824 0.15294118
0.81960784 0.46274510 0.16078431
0.86666667 0.45882353 0.16862745
0.90196078 0.45098039 0.17647059
0.94117647 0.44705882 0.18431373
0.96862745 0.44313725 0.19215686
1.00000000 0.44313725 0.19607843
1.00000000 0.44313725 0.20392157
1.00000000 0.44313725 0.20784314
1.00000000 0.44705882 0.21176471
1.00000000 0.45098039 0.21960784
1.00000000 0.45098039 0.22352941
0.00000000 0.50980392 0.02745098
0.00000000 0.50980392 0.02745098
0.00000000 0.50980392 0.03137255
0.00000000 0.50980392 0.03137255
0.00000000 0.50980392 0.03529412
0.02352941 0.51372549 0.03921569
0.11764706 0.51372549 0.04705882
0.16862745 0.51372549 0.05098039
0.22352941 0.51764706 0.05882353
0.26666667 0.51764706 0.06666667
0.31764706 0.51764706 0.07450980
0.36078431 0.51764706 0.08235294
0.41568627 0.51764706 0.09019608
0.45882353 0.51764706 0.09803922
0.50980392 0.51764706 0.10980392
0.54901961 0.51764706 0.11764706
0.58431373 0.51764706 0.12549020
0.60784314 0.52549020 0.12941176
0.63921569 0.52549020 0.13725490
0.68235294 0.52156863 0.14509804
0.72156863 0.52156863 0.15294118
0.76862745 0.51764706 0.16078431
0.80392157 0.50980392 0.16862745
0.85098039 0.50196078 0.17647059
0.89019608 0.49411765 0.18431373
0.93333333 0.48627451 0.19215686
0.96470588 0.48235294 0.20000000
1.00000000 0.47843137 0.20392157
1.00000000 0.47450980 0.21176471
1.00000000 0.47450980 0.21568627
1.00000000 0.47450980 0.21960784
1.00000000 0.47843137 0.22352941
1.00000000 0.48235294 0.22745098
0.00000000 0.54901961 0.06274510
0.00000000 0.54901961 0.06666667
0.00000000 0.54901961 0.06666667
0.00000000 0.54901961 0.06666667
0.00000000 0.54901961 0.07058824
0.02352941 0.55294118 0.07450980
0.11764706 0.55294118 0.07843137
0.16862745 0.55294118 0.08235294
0.22352941 0.55294118 0.08627451
0.26666667 0.55686275 0.09019608
0.31764706 0.55686275 0.09803922
0.35686275 0.55686275 0.10196078
0.40784314 0.55686275 0.10980392
0.44705882 0.55686275 0.11764706
0.50196078 0.55294118 0.12549020
0.54509804 0.55294118 0.13333333
0.58823529 0.54901961 0.14117647
0.61568627 0.55294118 0.14509804
0.63921569 0.55686275 0.14901961
0.67843137 0.55686275 0.15686275
0.70980392 0.55294118 0.16078431
0.75686275 0.54901961 0.16862745
0.79215686 0.54509804 0.17647059
0.83921569 0.53725490 0.18431373
0.87843137 0.52941176 0.19215686
0.92156863 0.52156863 0.19607843
0.95686275 0.51372549 0.20392157
0.99607843 0.50980392 0.21176471
1.00000000 0.50588235 0.21568627
1.00000000 0.50196078 0.22352941
1.00000000 0.50196078 0.22745098
1.00000000 0.50196078 0.23137255
1.00000000 0.50196078 0.23529412
0.00000000 0.59607843 0.09803922
0.00000000 0.59607843 0.09803922
0.00000000 0.59607843 0.10196078
0.00000000 0.59607843 0.10196078
0.00000000 0.59607843 0.10196078
0.01568627 0.59607843 0.10588235
0.11372549 0.59607843 0.10588235
0.16470588 0.60000000 0.10980392
0.21960784 0.60000000 0.11372549
0.25882353 0.60000000 0.11764706
0.30980392 0.60000000 0.12156863
0.34901961 0.60000000 0.12549020
0.39607843 0.60000000 0.13333333
0.43529412 0.60000000 0.13725490
0.48627451 0.59607843 0.14117647
0.52941176 0.59607843 0.14901961
0.58039216 0.59215686 0.15294118
0.61568627 0.58823529 0.16078431
0.64705882 0.58823529 0.16470588
0.67450980 0.59215686 0.16862745
0.70196078 0.59215686 0.17254902
0.74509804 0.58823529 0.18039216
0.77647059 0.58431373 0.18431373
0.82352941 0.58039216 0.19215686
0.85882353 0.57254902 0.19607843
0.90588235 0.56470588 0.20392157
0.94117647 0.55686275 0.21176471
0.98823529 0.54901961 0.21568627
1.00000000 0.54509804 0.22352941
1.00000000 0.53725490 0.22745098
1.00000000 0.53725490 0.23529412
1.00000000 0.53333333 0.23921569
1.00000000 0.53333333 0.24313725
0.00000000 0.62745098 0.12156863
0.00000000 0.63137255 0.12156863
0.00000000 0.63137255 0.12156863
0.00000000 0.63137255 0.12156863
0.00000000 0.63137255 0.12156863
0.00000000 0.63137255 0.12549020
0.10588235 0.63137255 0.12549020
0.16078431 0.63137255 0.12941176
0.21568627 0.63137255 0.13333333
0.25490196 0.63137255 0.13333333
0.30196078 0.63137255 0.13725490
0.34117647 0.63137255 0.14117647
0.38823529 0.63137255 0.14509804
0.42745098 0.63137255 0.14901961
0.47450980 0.63137255 0.15294118
0.51372549 0.62745098 0.15686275
0.56470588 0.62352941 0.16470588
0.60392157 0.61960784 0.16862745
0.64313725 0.61568627 0.17254902
0.68235294 0.61568627 0.18039216
0.70196078 0.61568627 0.18431373
0.73333333 0.61568627 0.18823529
0.76862745 0.61568627 0.19215686
0.81176471 0.61176471 0.19607843
0.84705882 0.60392157 0.20392157
0.89019608 0.60000000 0.20784314
0.92941176 0.59215686 0.21568627
0.97647059 0.58431373 0.22352941
1.00000000 0.57647059 0.22745098
1.00000000 0.56862745 0.23529412
1.00000000 0.56470588 0.23921569
1.00000000 0.56078431 0.24313725
1.00000000 0.56078431 0.24705882
0.00000000 0.65882353 0.13725490
0.00000000 0.65882353 0.13725490
0.00000000 0.66274510 0.13725490
0.00000000 0.66274510 0.13725490
0.00000000 0.66274510 0.14117647
0.00000000 0.66274510 0.14117647
0.09411765 0.66274510 0.14117647
0.14901961 0.66274510 0.14509804
0.20784314 0.66274510 0.14509804
0.24705882 0.66274510 0.14901961
0.29411765 0.66274510 0.15294118
0.33333333 0.66274510 0.15294118
0.37647059 0.66274510 0.15686275
0.41568627 0.65882353 0.16078431
0.46274510 0.65882353 0.16470588
0.50196078 0.65882353 0.16862745
0.54901961 0.65490196 0.17254902
0.58823529 0.65098039 0.17647059
0.63137255 0.64705882 0.18039216
0.67450980 0.64313725 0.18823529
0.70588235 0.63921569 0.19215686
0.73333333 0.64313725 0.19607843
0.75686275 0.64313725 0.20000000
0.80000000 0.63921569 0.20392157
0.83529412 0.63529412 0.20784314
0.87843137 0.63137255 0.21568627
0.91372549 0.62352941 0.21960784
0.96078431 0.61568627 0.22745098
1.00000000 0.61176471 0.23137255
1.00000000 0.60000000 0.23921569
1.00000000 0.59607843 0.24313725
1.00000000 0.58823529 0.25098039
1.00000000 0.58431373 0.25490196
0.00000000 0.69803922 0.15686275
0.00000000 0.69803922 0.15686275
0.00000000 0.69803922 0.15686275
0.00000000 0.69803922 0.15686275
0.00000000 0.69803922 0.15686275
0.00000000 0.69803922 0.15686275
0.06666667 0.69803922 0.16078431
0.13333333 0.69803922 0.16078431
0.19215686 0.69803922 0.16078431
0.23529412 0.69803922 0.16470588
0.28235294 0.69803922 0.16470588
0.32156863 0.69803922 0.16862745
0.36470588 0.69411765 0.17254902
0.40000000 0.69411765 0.17254902
0.44705882 0.69411765 0.17647059
0.48235294 0.69411765 0.18039216
0.52941176 0.69019608 0.18431373
0.56862745 0.68627451 0.18823529
0.60784314 0.68627451 0.19215686
0.65882353 0.67843137 0.19607843
0.69803922 0.67450980 0.20000000
0.73725490 0.67450980 0.20784314
0.76078431 0.67450980 0.20784314
0.78823529 0.67450980 0.21176471
0.81960784 0.67450980 0.21568627
0.86274510 0.67058824 0.22352941
0.89803922 0.66666667 0.22745098
0.94509804 0.65882353 0.23529412
0.98039216 0.65098039 0.23921569
1.00000000 0.64313725 0.24705882
1.00000000 0.63529412 0.25098039
1.00000000 0.62745098 0.25490196
1.00000000 0.61960784 0.25882353
0.00000000 0.72156863 0.16862745
0.00000000 0.72156863 0.16862745
0.00000000 0.72156863 0.16862745
0.00000000 0.72156863 0.16862745
0.00000000 0.72156863 0.16862745
0.00000000 0.72156863 0.16862745
0.03137255 0.72156863 0.17254902
0.11372549 0.72156863 0.17254902
0.18039216 0.72156863 0.17254902
0.22352941 0.72156863 0.17647059
0.27058824 0.72156863 0.17647059
0.30980392 0.72156863 0.18039216
0.35686275 0.72156863 0.18039216
0.39215686 0.72156863 0.18431373
0.43529412 0.72156863 0.18823529
0.47058824 0.72156863 0.18823529
0.51764706 0.71764706 0.19215686
0.55294118 0.71764706 0.19607843
0.59215686 0.71372549 0.20000000
0.64313725 0.70980392 0.20392157
0.68235294 0.70588235 0.20784314
0.72941176 0.70196078 0.21568627
0.76078431 0.69803922 0.21960784
0.79215686 0.69803922 0.22352941
0.81568627 0.70196078 0.22352941
0.85098039 0.69803922 0.23137255
0.88627451 0.69411765 0.23529412
0.92941176 0.69019608 0.23921569
0.96470588 0.68235294 0.24313725
1.00000000 0.67450980 0.25098039
1.00000000 0.66666667 0.25490196
1.00000000 0.65882353 0.25882353
1.00000000 0.65098039 0.26274510
0.00000000 0.75686275 0.18039216
0.00000000 0.75686275 0.18039216
0.00000000 0.75686275 0.18039216
0.00000000 0.75686275 0.18039216
0.00000000 0.75686275 0.18431373
0.00000000 0.75686275 0.18431373
0.00000000 0.75686275 0.18431373
0.08235294 0.75686275 0.18431373
0.16078431 0.75686275 0.18823529
0.20784314 0.75686275 0.18823529
0.25882353 0.75686275 0.18823529
0.29803922 0.75686275 0.19215686
0.34117647 0.75294118 0.19215686
0.37647059 0.75294118 0.19607843
0.42352941 0.75294118 0.20000000
0.45882353 0.75294118 0.20000000
0.50196078 0.75294118 0.20392157
0.53725490 0.74901961 0.20784314
0.57647059 0.74901961 0.21176471
0.62352941 0.74509804 0.21568627
0.66274510 0.74117647 0.21960784
0.70980392 0.73725490 0.22352941
0.74901961 0.73333333 0.22745098
0.79215686 0.72941176 0.23137255
0.81960784 0.72941176 0.23529412
0.84313725 0.73333333 0.23921569
0.87058824 0.72941176 0.24313725
0.91372549 0.72549020 0.24705882
0.94901961 0.72156863 0.25098039
