assets/luts/open/t3-portra-160.cube
TITLE "Portrait 160 Film Emulation"
LUT_3D_SIZE 9
DOMAIN_MIN 0.0 0.0 0.0
DOMAIN_MAX 1.0 1.0 1.0
# Converted from an MIT-licensed t3mujinpack Hald CLUT by PhotoAtelier.
0.00000000 0.00392157 0.00784314
0.11372549 0.00000000 0.00000000
0.26274510 0.00000000 0.00000000
0.40784314 0.00000000 0.00000000
0.53725490 0.00000000 0.00000000
0.67450980 0.00000000 0.01960784
0.83137255 0.07058824 0.07843137
0.98039216 0.17254902 0.13725490
1.00000000 0.21568627 0.17647059
0.00000000 0.11372549 0.00000000
0.12156863 0.10196078 0.00000000
0.25098039 0.10588235 0.00000000
0.40784314 0.05882353 0.00000000
0.55686275 0.00392157 0.00000000
0.69803922 0.06666667 0.03529412
0.84705882 0.16078431 0.09803922
0.98823529 0.22745098 0.14509804
1.00000000 0.25882353 0.18039216
0.00000000 0.25098039 0.00000000
0.05882353 0.25098039 0.00000000
0.25098039 0.24705882 0.00000000
0.38823529 0.25882353 0.00000000
0.57254902 0.25098039 0.01176471
0.73725490 0.25098039 0.07843137
0.88235294 0.27843137 0.12941176
1.00000000 0.31764706 0.16862745
1.00000000 0.33725490 0.19607843
0.00000000 0.41568627 0.00000000
0.00000000 0.41960784 0.00000000
0.22745098 0.42352941 0.00000000
0.42352941 0.42745098 0.03529412
0.56862745 0.44313725 0.08627451
0.73725490 0.43529412 0.12941176
0.90588235 0.41960784 0.16862745
1.00000000 0.41960784 0.19607843
1.00000000 0.43137255 0.21568627
0.00000000 0.59607843 0.09803922
0.00000000 0.59607843 0.10196078
0.21960784 0.60000000 0.11372549
0.39607843 0.60000000 0.13333333
0.58039216 0.59215686 0.15294118
0.70196078 0.59215686 0.17254902
0.85882353 0.57254902 0.19607843
1.00000000 0.54509804 0.22352941
1.00000000 0.53333333 0.24313725
0.00000000 0.72156863 0.16862745
0.00000000 0.72156863 0.16862745
0.18039216 0.72156863 0.17254902
0.35686275 0.72156863 0.18039216
0.51764706 0.71764706 0.19215686
0.68235294 0.70588235 0.20784314
0.81568627 0.70196078 0.22352941
0.96470588 0.68235294 0.24313725
1.00000000 0.65098039 0.26274510
0.00000000 0.83921569 0.21568627
0.00000000 0.83921569 0.21960784
0.09411765 0.83921569 0.21960784
0.30980392 0.83921569 0.22745098
0.46666667 0.83529412 0.23137255
0.61176471 0.83137255 0.24313725
0.78039216 0.81568627 0.25490196
0.91372549 0.80392157 0.26274510
1.00000000 0.78431373 0.27058824
0.00000000 0.94117647 0.25098039
0.00000000 0.94117647 0.25490196
0.00000000 0.94117647 0.25490196
0.24313725 0.94117647 0.25490196
0.41568627 0.93725490 0.25882353
0.55294118 0.93333333 0.26274510
0.69803922 0.92549020 0.26666667
0.85882353 0.90980392 0.27058824
1.00000000 0.89019608 0.27843137
0.00000000 1.00000000 0.27058824
0.00000000 1.00000000 0.27058824
0.00000000 1.00000000 0.27058824
0.12549020 1.00000000 0.27058824
0.34901961 1.00000000 0.27450980
0.49803922 1.00000000 0.27450980
0.64313725 1.00000000 0.27843137
0.78823529 1.00000000 0.28235294
0.94901961 1.00000000 0.28627451
0.00000000 0.00000000 0.08627451
0.13333333 0.00000000 0.06666667
0.26274510 0.00000000 0.10588235
0.40784314 0.00000000 0.10980392
0.54117647 0.00000000 0.05490196
0.67843137 0.00000000 0.09019608
0.83529412 0.07450980 0.14901961
0.98039216 0.17254902 0.19607843
1.00000000 0.21960784 0.22745098
0.00000000 0.10980392 0.09019608
0.09803922 0.10588235 0.10980392
0.24313725 0.10588235 0.11764706
0.41176471 0.05098039 0.08235294
0.56078431 0.00000000 0.05882353
0.70196078 0.07058824 0.10588235
0.85098039 0.16470588 0.16078431
0.98823529 0.22745098 0.20392157
1.00000000 0.25882353 0.23137255
0.00000000 0.25098039 0.08235294
0.06666667 0.25098039 0.07058824
0.25490196 0.24705882 0.04705882
0.39607843 0.25882353 0.03529412
0.57647059 0.24705882 0.08627451
0.74117647 0.25098039 0.14509804
0.88235294 0.28235294 0.18823529
1.00000000 0.31764706 0.21960784
1.00000000 0.33725490 0.23921569
0.00000000 0.41568627 0.03529412
0.00000000 0.41960784 0.04705882
0.24313725 0.42352941 0.07058824
0.43137255 0.42745098 0.11372549
0.57254902 0.44313725 0.14901961
0.74117647 0.43529412 0.18823529
0.90588235 0.41960784 0.21960784
1.00000000 0.41960784 0.23921569
1.00000000 0.43137255 0.25882353
0.00000000 0.59607843 0.16078431
0.00000000 0.59607843 0.16470588
0.22745098 0.60000000 0.17254902
0.40000000 0.60000000 0.18431373
0.58431373 0.59215686 0.20392157
0.70196078 0.59215686 0.21960784
0.86274510 0.57254902 0.23921569
1.00000000 0.54117647 0.25882353
1.00000000 0.53333333 0.27843137
0.00000000 0.72156863 0.21176471
0.00000000 0.72156863 0.21176471
0.18431373 0.72156863 0.21568627
0.35686275 0.72156863 0.22352941
0.51764706 0.71764706 0.23137255
0.68627451 0.70588235 0.24705882
0.81568627 0.70196078 0.26274510
0.96470588 0.68235294 0.27843137
1.00000000 0.65098039 0.29803922
0.00000000 0.83921569 0.25098039
0.00000000 0.83921569 0.25098039
0.09803922 0.83921569 0.25490196
0.30980392 0.83921569 0.25882353
0.46666667 0.83529412 0.26666667
0.61568627 0.83137255 0.27450980
0.78039216 0.81568627 0.28627451
0.91372549 0.80392157 0.29411765
1.00000000 0.78431373 0.30196078
0.00000000 0.94117647 0.28235294
0.00000000 0.94117647 0.28235294
0.00000000 0.94117647 0.28627451
0.24313725 0.94117647 0.28627451
0.41568627 0.93725490 0.29019608
0.55294118 0.93333333 0.29411765
0.70196078 0.92549020 0.29803922
0.86274510 0.90980392 0.30196078
1.00000000 0.89019608 0.30980392
0.00000000 1.00000000 0.29803922
0.00000000 1.00000000 0.29803922
0.00000000 1.00000000 0.29803922
0.12549020 1.00000000 0.29803922
0.34901961 1.00000000 0.30196078
0.49803922 1.00000000 0.30196078
0.64313725 1.00000000 0.30588235
0.78823529 1.00000000 0.30980392
0.94901961 1.00000000 0.31764706
0.00000000 0.00000000 0.26666667
0.12941176 0.00000000 0.24705882
0.27843137 0.00000000 0.20784314
0.41568627 0.00000000 0.20392157
0.53725490 0.00000000 0.25882353
0.67843137 0.00000000 0.25882353
0.83921569 0.08235294 0.22745098
0.98431373 0.17647059 0.26666667
1.00000000 0.21960784 0.30588235
0.00000000 0.10588235 0.21176471
0.12156863 0.10980392 0.20000000
0.27058824 0.09411765 0.19607843
0.41568627 0.03529412 0.23137255
0.55686275 0.00784314 0.26666667
0.70196078 0.07843137 0.24705882
0.85490196 0.16470588 0.23137255
0.99215686 0.22745098 0.27843137
1.00000000 0.26274510 0.30588235
0.00000000 0.25098039 0.22352941
0.09411765 0.25098039 0.23137255
0.24313725 0.25098039 0.25490196
0.39215686 0.25882353 0.26666667
0.58431373 0.24705882 0.25882353
0.74509804 0.25098039 0.23137255
0.88627451 0.28235294 0.25490196
1.00000000 0.31764706 0.29411765
1.00000000 0.34117647 0.31372549
0.00000000 0.41960784 0.26666667
0.00000000 0.42352941 0.26274510
0.25098039 0.42745098 0.25098039
0.43921569 0.42745098 0.23529412
0.58431373 0.44313725 0.22745098
0.75294118 0.43137255 0.25098039
0.90980392 0.41568627 0.29019608
1.00000000 0.41960784 0.30980392
1.00000000 0.43137255 0.32549020
0.00000000 0.59607843 0.22745098
0.05490196 0.59607843 0.23137255
0.25098039 0.60000000 0.23529412
0.41960784 0.60000000 0.25098039
0.59607843 0.58823529 0.27450980
0.70980392 0.58823529 0.29019608
0.86666667 0.56862745 0.30980392
1.00000000 0.54117647 0.32549020
1.00000000 0.53333333 0.34117647
0.00000000 0.72156863 0.28235294
0.00000000 0.72156863 0.28627451
0.20000000 0.72156863 0.29019608
0.36470588 0.72156863 0.29411765
0.52941176 0.71764706 0.30196078
0.69411765 0.70196078 0.31372549
0.81568627 0.70196078 0.32549020
0.97254902 0.68235294 0.34117647
1.00000000 0.65098039 0.35686275
0.00000000 0.83921569 0.31764706
0.00000000 0.83921569 0.31764706
0.11764706 0.83921569 0.32156863
0.31764706 0.83921569 0.32549020
0.47450980 0.83529412 0.32941176
0.61960784 0.83137255 0.33725490
0.78823529 0.81568627 0.34509804
0.91372549 0.80392157 0.35294118
1.00000000 0.78431373 0.36078431
0.00000000 0.94117647 0.34117647
0.00000000 0.94117647 0.34117647
0.00000000 0.94117647 0.34117647
0.25098039 0.94117647 0.34509804
0.41568627 0.93725490 0.34509804
0.55686275 0.93333333 0.34901961
0.70196078 0.92549020 0.35294118
0.86274510 0.90588235 0.36078431
1.00000000 0.89019608 0.36862745
0.00000000 1.00000000 0.35294118
0.00000000 1.00000000 0.35294118
0.00000000 1.00000000 0.35294118
0.12549020 1.00000000 0.35686275
0.34901961 1.00000000 0.35686275
0.49803922 1.00000000 0.36078431
0.64313725 1.00000000 0.36470588
0.78823529 1.00000000 0.36862745
0.94901961 1.00000000 0.37647059
0.02352941 0.00000000 0.37647059
0.13333333 0.00000000 0.38039216
0.27058824 0.00000000 0.39607843
0.40784314 0.00000000 0.38039216
0.54901961 0.00000000 0.33725490
0.68627451 0.00000000 0.37254902
0.83137255 0.10588235 0.44313725
0.98431373 0.18431373 0.42352941
1.00000000 0.21960784 0.37647059
0.00000000 0.10980392 0.39215686
0.08235294 0.10588235 0.39607843
0.27058824 0.07843137 0.38823529
0.42745098 0.01568627 0.35686275
0.57254902 0.00784314 0.34117647
0.70196078 0.09411765 0.39607843
0.84705882 0.18039216 0.44705882
0.99215686 0.23137255 0.41568627
1.00000000 0.25882353 0.37647059
0.00000000 0.24705882 0.35686275
0.14509804 0.24705882 0.34901961
0.26274510 0.25490196 0.33725490
0.42745098 0.25098039 0.34509804
0.59607843 0.24313725 0.38823529
0.74117647 0.25490196 0.44313725
0.88235294 0.29019608 0.44313725
1.00000000 0.32156863 0.38823529
1.00000000 0.34117647 0.38039216
0.00000000 0.41960784 0.37647059
0.06666667 0.42352941 0.38431373
0.27058824 0.42352941 0.40392157
0.42352941 0.43137255 0.43529412
0.58039216 0.44313725 0.45098039
0.75686275 0.43137255 0.44313725
0.91372549 0.41568627 0.40000000
1.00000000 0.41960784 0.37647059
1.00000000 0.43137255 0.39607843
0.00000000 0.60000000 0.45490196
0.00000000 0.60000000 0.45098039
0.22745098 0.60000000 0.44313725
0.42352941 0.59607843 0.42745098
0.60000000 0.58823529 0.40000000
0.72156863 0.58823529 0.37254902
0.88235294 0.56470588 0.37254902
1.00000000 0.53725490 0.39607843
1.00000000 0.53333333 0.41960784
0.00000000 0.72156863 0.36470588
0.03529412 0.72156863 0.36470588
0.23921569 0.72156863 0.36078431
0.39215686 0.72156863 0.36078431
0.54901961 0.71372549 0.36862745
0.70588235 0.70196078 0.38431373
0.82352941 0.69803922 0.40000000
0.98039216 0.67843137 0.41568627
1.00000000 0.64705882 0.43137255
0.00000000 0.83921569 0.38823529
0.00000000 0.83921569 0.39215686
0.15686275 0.83921569 0.39607843
0.33333333 0.83921569 0.40000000
0.48235294 0.83529412 0.40392157
0.63137255 0.82745098 0.41176471
0.80000000 0.81176471 0.41960784
0.91764706 0.80392157 0.42745098
1.00000000 0.78039216 0.43137255
0.00000000 0.94117647 0.41568627
0.00000000 0.94117647 0.41568627
0.00000000 0.94117647 0.41568627
0.26274510 0.94117647 0.41568627
0.42352941 0.93725490 0.41960784
0.56078431 0.93333333 0.41960784
0.70980392 0.92156863 0.42352941
0.87450980 0.90588235 0.43137255
1.00000000 0.89411765 0.43921569
0.00000000 1.00000000 0.42352941
0.00000000 1.00000000 0.42352941
0.00000000 1.00000000 0.42352941
0.14509804 1.00000000 0.42352941
0.35686275 1.00000000 0.42745098
0.50196078 1.00000000 0.43137255
0.64705882 1.00000000 0.43529412
0.79215686 1.00000000 0.44313725
0.95686275 1.00000000 0.45098039
0.06274510 0.00000000 0.50196078
0.15686275 0.00000000 0.50980392
0.27450980 0.00000000 0.52156863
0.39607843 0.00000000 0.53333333
0.53333333 0.00000000 0.54509804
0.68235294 0.00000000 0.53333333
0.84313725 0.11372549 0.51764706
0.98039216 0.19215686 0.56862745
1.00000000 0.22745098 0.59607843
0.00392157 0.09019608 0.51764706
0.14901961 0.07843137 0.52156863
0.28235294 0.04705882 0.52941176
0.41568627 0.01960784 0.54117647
0.56078431 0.04705882 0.54509804
0.70980392 0.11372549 0.52549020
0.85882353 0.18823529 0.52549020
0.98431373 0.24313725 0.58039216
1.00000000 0.26666667 0.59215686
0.00000000 0.25490196 0.54117647
0.00000000 0.25490196 0.54117647
0.23921569 0.25490196 0.54509804
0.43137255 0.24705882 0.54509804
0.61176471 0.23921569 0.52941176
0.75686275 0.25882353 0.51764706
0.88627451 0.29411765 0.54901961
0.99215686 0.32941176 0.59607843
1.00000000 0.34509804 0.57647059
0.00000000 0.42352941 0.53333333
0.15294118 0.42352941 0.52941176
0.32156863 0.42352941 0.52156863
0.44705882 0.43529412 0.51764706
0.61176471 0.43529412 0.52549020
0.77254902 0.42352941 0.55686275
0.90196078 0.41568627 0.59607843
1.00000000 0.42352941 0.58823529
1.00000000 0.43529412 0.52941176
0.00000000 0.60000000 0.54117647
0.07843137 0.60000000 0.54509804
0.27058824 0.60000000 0.55294118
0.43921569 0.59215686 0.57254902
0.58039216 0.59215686 0.59215686
0.70980392 0.58431373 0.59607843
0.87843137 0.56078431 0.57647059
1.00000000 0.53725490 0.52549020
1.00000000 0.53333333 0.49019608
0.00000000 0.72549020 0.59215686
0.00000000 0.72156863 0.59215686
0.14901961 0.72156863 0.58823529
0.36078431 0.71764706 0.58039216
0.54509804 0.70980392 0.56078431
0.70980392 0.69803922 0.52941176
0.83529412 0.69411765 0.49411765
0.99607843 0.67058824 0.48235294
1.00000000 0.64313725 0.49803922
0.00000000 0.83921569 0.49411765
0.00000000 0.83921569 0.49019608
0.20392157 0.83921569 0.48627451
0.36078431 0.83529412 0.47843137
0.50980392 0.83137255 0.47450980
0.65490196 0.82352941 0.47450980
0.81568627 0.80784314 0.48627451
0.92549020 0.80000000 0.49803922
1.00000000 0.77647059 0.50980392
0.00000000 0.94117647 0.48235294
0.00000000 0.94117647 0.48627451
0.07450980 0.94117647 0.48627451
0.29019608 0.93725490 0.49019608
0.44313725 0.93333333 0.49411765
0.57647059 0.92941176 0.49803922
0.72156863 0.92156863 0.50196078
0.88627451 0.90196078 0.50980392
1.00000000 0.89019608 0.51372549
0.00000000 1.00000000 0.50196078
0.00000000 1.00000000 0.50196078
0.00000000 1.00000000 0.50196078
0.17647059 1.00000000 0.50196078
0.36862745 1.00000000 0.50588235
0.51372549 1.00000000 0.50588235
0.65490196 1.00000000 0.50980392
0.80392157 1.00000000 0.51764706
0.96862745 1.00000000 0.52549020
0.09411765 0.00000000 0.62745098
0.16862745 0.00000000 0.62745098
0.27450980 0.00000000 0.63529412
0.39607843 0.00000000 0.64705882
0.52941176 0.00000000 0.67450980
0.67058824 0.04313725 0.70588235
0.83137255 0.14509804 0.72156863
0.98431373 0.20000000 0.67450980
1.00000000 0.22745098 0.65882353
0.12549020 0.05098039 0.63529412
0.19607843 0.03921569 0.63921569
0.30196078 0.02352941 0.64313725
0.42352941 0.02745098 0.65882353
0.55686275 0.08235294 0.68627451
0.69019608 0.14901961 0.71372549
0.84313725 0.20784314 0.71372549
0.98823529 0.24705882 0.66666667
1.00000000 0.26666667 0.66274510
0.00000000 0.25098039 0.65882353
0.10196078 0.25098039 0.66274510
0.28235294 0.24705882 0.67450980
0.45098039 0.23921569 0.69019608
0.60392157 0.24705882 0.71372549
0.73725490 0.27058824 0.72156863
0.87843137 0.30588235 0.69019608
1.00000000 0.32941176 0.65882353
1.00000000 0.34509804 0.67843137
0.00000000 0.42352941 0.71372549
0.10196078 0.42745098 0.71764706
0.24313725 0.43529412 0.72156863
0.42745098 0.43921569 0.72549020
0.61568627 0.43137255 0.71372549
0.78431373 0.41960784 0.68627451
0.91764706 0.41568627 0.65882353
1.00000000 0.42352941 0.66666667
1.00000000 0.43921569 0.70588235
0.00000000 0.60000000 0.69411765
0.11764706 0.59607843 0.69019608
0.31372549 0.59607843 0.68235294
0.48235294 0.58823529 0.67058824
0.59607843 0.59215686 0.65882353
0.74117647 0.57647059 0.65882353
0.89411765 0.55294118 0.67843137
1.00000000 0.53725490 0.70980392
1.00000000 0.53725490 0.69803922
0.00000000 0.72156863 0.65490196
0.00000000 0.72156863 0.65882353
0.23529412 0.72156863 0.66274510
0.40000000 0.71764706 0.67058824
0.56470588 0.70588235 0.68627451
0.69019608 0.70196078 0.70588235
0.82352941 0.69411765 0.70588235
0.99215686 0.66666667 0.68627451
1.00000000 0.63921569 0.63529412
0.00000000 0.83921569 0.70196078
0.00000000 0.83921569 0.70196078
0.00000000 0.83921569 0.69803922
0.29803922 0.83529412 0.69411765
0.47843137 0.83137255 0.68235294
0.64705882 0.82352941 0.65882353
0.81960784 0.80392157 0.62352941
0.93725490 0.79607843 0.58823529
1.00000000 0.76862745 0.56862745
0.00000000 0.94117647 0.60000000
0.00000000 0.94117647 0.59607843
0.11764706 0.93725490 0.59215686
0.31372549 0.93725490 0.58039216
0.46274510 0.93333333 0.56862745
0.60000000 0.92941176 0.56078431
0.74509804 0.91764706 0.56078431
0.90588235 0.89803922 0.57254902
1.00000000 0.89019608 0.58039216
0.00000000 1.00000000 0.56078431
0.00000000 1.00000000 0.56078431
0.00000000 1.00000000 0.56470588
0.22745098 1.00000000 0.56862745
0.39215686 1.00000000 0.57254902
0.52941176 1.00000000 0.57647059
0.66666667 1.00000000 0.58431373
0.81568627 1.00000000 0.59215686
0.98431373 1.00000000 0.60000000
0.09411765 0.00000000 0.75294118
0.16862745 0.00000000 0.75294118
0.27450980 0.00000000 0.76078431
0.40000000 0.00000000 0.77647059
0.53725490 0.00000000 0.80392157
0.67843137 0.09411765 0.83529412
0.82352941 0.16862745 0.87058824
0.96078431 0.21568627 0.88235294
1.00000000 0.23529412 0.84705882
0.16470588 0.02745098 0.76078431
0.21568627 0.02745098 0.76470588
0.30980392 0.03137255 0.77254902
0.42745098 0.06274510 0.78823529
0.56078431 0.11764706 0.81568627
0.69411765 0.17254902 0.84705882
0.83529412 0.22745098 0.87450980
0.96470588 0.26274510 0.87843137
1.00000000 0.27450980 0.83529412
0.15294118 0.23921569 0.78823529
0.22745098 0.23921569 0.79215686
0.34509804 0.23529412 0.80392157
0.47843137 0.23921569 0.82352941
0.61176471 0.25882353 0.84705882
0.73333333 0.28627451 0.86666667
0.85490196 0.32156863 0.88235294
0.97647059 0.34117647 0.86666667
1.00000000 0.34901961 0.80784314
0.00000000 0.43529412 0.84313725
0.10196078 0.43529412 0.84705882
0.28627451 0.43529412 0.85490196
0.45882353 0.43529412 0.86666667
0.63137255 0.42745098 0.87843137
0.76862745 0.41960784 0.88627451
0.89019608 0.42352941 0.87058824
1.00000000 0.43137255 0.82352941
1.00000000 0.44313725 0.77647059
0.00000000 0.59607843 0.88235294
0.08627451 0.59215686 0.88235294
0.29411765 0.59215686 0.88235294
0.41568627 0.59215686 0.87843137
0.57254902 0.58823529 0.87058824
0.74117647 0.56862745 0.84313725
0.90588235 0.54509804 0.80392157
1.00000000 0.53333333 0.77647059
1.00000000 0.53725490 0.77647059
0.00000000 0.72156863 0.83137255
0.00000000 0.71764706 0.82745098
0.23529412 0.71764706 0.81960784
0.43137255 0.70980392 0.80392157
0.60000000 0.69803922 0.78823529
0.70588235 0.69803922 0.77254902
0.85490196 0.68627451 0.76862745
1.00000000 0.65882353 0.78431373
1.00000000 0.63921569 0.81176471
0.00000000 0.83529412 0.76470588
0.00000000 0.83529412 0.76470588
0.18431373 0.83529412 0.76862745
0.35686275 0.83529412 0.77254902
0.51372549 0.82745098 0.78039216
0.66666667 0.81568627 0.79607843
0.79607843 0.80392157 0.80784314
0.92156863 0.79215686 0.80392157
1.00000000 0.76470588 0.78431373
0.00000000 0.94117647 0.80784314
0.00000000 0.94117647 0.80392157
0.00000000 0.93725490 0.80392157
0.20000000 0.93725490 0.80000000
0.40392157 0.93333333 0.79215686
0.56862745 0.92549020 0.78039216
0.74117647 0.91372549 0.75294118
0.90588235 0.89411765 0.71764706
1.00000000 0.88627451 0.67843137
0.00000000 1.00000000 0.70980392
0.00000000 1.00000000 0.70588235
0.00000000 1.00000000 0.70196078
0.23137255 1.00000000 0.69019608
0.40784314 1.00000000 0.67450980
0.54901961 1.00000000 0.66274510
0.69411765 1.00000000 0.65490196
0.84313725 1.00000000 0.65490196
1.00000000 0.99607843 0.66666667
0.08627451 0.00000000 0.87843137
0.16470588 0.00000000 0.88235294
0.27450980 0.00000000 0.89019608
0.40392157 0.00000000 0.90980392
0.54509804 0.05098039 0.93725490
0.68627451 0.12941176 0.96862745
0.82745098 0.18823529 0.99607843
0.96078431 0.22745098 1.00000000
1.00000000 0.24313725 1.00000000
0.17254902 0.05098039 0.89019608
0.22352941 0.05490196 0.89411765
0.31764706 0.07450980 0.90588235
0.43529412 0.10588235 0.92549020
0.56470588 0.15294118 0.94901961
0.69803922 0.20000000 0.97647059
0.83529412 0.24313725 1.00000000
0.96078431 0.27058824 1.00000000
1.00000000 0.28235294 1.00000000
0.26274510 0.23137255 0.92549020
0.30588235 0.23137255 0.92941176
0.38823529 0.23529412 0.93725490
0.49803922 0.25098039 0.95686275
0.61568627 0.27450980 0.97647059
0.73333333 0.30588235 0.99607843
0.85098039 0.32941176 1.00000000
0.96470588 0.34901961 1.00000000
1.00000000 0.35686275 1.00000000
0.17254902 0.43137255 0.97647059
0.24705882 0.43137255 0.97647059
0.37254902 0.43137255 0.98431373
0.51764706 0.42352941 0.99215686
0.65490196 0.41960784 1.00000000
0.76862745 0.41960784 1.00000000
0.87450980 0.42745098 1.00000000
0.97647059 0.43921569 1.00000000
1.00000000 0.45098039 0.98823529
0.10196078 0.58823529 1.00000000
0.16862745 0.59215686 1.00000000
0.27450980 0.59215686 1.00000000
0.43137255 0.58823529 1.00000000
0.59215686 0.58039216 1.00000000
0.74509804 0.56078431 1.00000000
0.89019608 0.54117647 1.00000000
1.00000000 0.53725490 0.98431373
1.00000000 0.54509804 0.93725490
0.00000000 0.71764706 1.00000000
0.00000000 0.71372549 1.00000000
0.20784314 0.70980392 1.00000000
0.41176471 0.70196078 1.00000000
0.53725490 0.70196078 0.99607843
0.68235294 0.69803922 0.98431373
0.85490196 0.67843137 0.95686275
1.00000000 0.65098039 0.91372549
1.00000000 0.63529412 0.87843137
0.00000000 0.83529412 0.95294118
0.00000000 0.83529412 0.94901961
0.07058824 0.83529412 0.94117647
0.34901961 0.83137255 0.92941176
0.54117647 0.81960784 0.90980392
0.70196078 0.80784314 0.89019608
0.81176471 0.80392157 0.87450980
0.95294118 0.78431373 0.86666667
1.00000000 0.75294118 0.87843137
0.00000000 0.93725490 0.86274510
0.00000000 0.93725490 0.86274510
0.06274510 0.93725490 0.86274510
0.29803922 0.93333333 0.86274510
0.45490196 0.92941176 0.86274510
0.60000000 0.92156863 0.87058824
0.75686275 0.90588235 0.88627451
0.88235294 0.89411765 0.89803922
1.00000000 0.88235294 0.89411765
0.00000000 1.00000000 0.89411765
0.00000000 1.00000000 0.89411765
0.00000000 1.00000000 0.89411765
0.00000000 1.00000000 0.89411765
0.32156863 1.00000000 0.89019608
0.49411765 1.00000000 0.88627451
0.66274510 1.00000000 0.87450980
0.83529412 1.00000000 0.85490196
1.00000000 0.99215686 0.81960784
0.10588235 0.00000000 1.00000000
0.18039216 0.00000000 1.00000000
0.29019608 0.00000000 1.00000000
0.41960784 0.03921569 1.00000000
0.56078431 0.10588235 1.00000000
0.69411765 0.16078431 1.00000000
0.83137255 0.20784314 1.00000000
0.95686275 0.23529412 1.00000000
1.00000000 0.24705882 1.00000000
0.18823529 0.09411765 1.00000000
0.23529412 0.10196078 1.00000000
0.32941176 0.11764706 1.00000000
0.44705882 0.14509804 1.00000000
0.57647059 0.18431373 1.00000000
0.70588235 0.22352941 1.00000000
0.83529412 0.25490196 1.00000000
0.95686275 0.27450980 1.00000000
1.00000000 0.28627451 1.00000000
0.30588235 0.24313725 1.00000000
0.34117647 0.24705882 1.00000000
0.41176471 0.25490196 1.00000000
0.50980392 0.27058824 1.00000000
0.61960784 0.29803922 1.00000000
0.72941176 0.32156863 1.00000000
0.84705882 0.34117647 1.00000000
0.96078431 0.35294118 1.00000000
1.00000000 0.36078431 1.00000000
0.32941176 0.41960784 1.00000000
0.37254902 0.41960784 1.00000000
0.45490196 0.41960784 1.00000000
0.56078431 0.41568627 1.00000000
0.66666667 0.41960784 1.00000000
0.76470588 0.42352941 1.00000000
0.86666667 0.43529412 1.00000000
0.96862745 0.44705882 1.00000000
1.00000000 0.45490196 1.00000000
0.13333333 0.59215686 1.00000000
0.21568627 0.58823529 1.00000000
0.33725490 0.58431373 1.00000000
0.48235294 0.57647059 1.00000000
0.63529412 0.56470588 1.00000000
0.76862745 0.54901961 1.00000000
0.89019608 0.54117647 1.00000000
0.99215686 0.54509804 1.00000000
1.00000000 0.55294118 1.00000000
0.00000000 0.70588235 1.00000000
0.15686275 0.70588235 1.00000000
0.29411765 0.70196078 1.00000000
0.40000000 0.70588235 1.00000000
0.54117647 0.70196078 1.00000000
0.69411765 0.69019608 1.00000000
0.85882353 0.66666667 1.00000000
1.00000000 0.64705882 1.00000000
1.00000000 0.63921569 1.00000000
0.00000000 0.83529412 1.00000000
0.00000000 0.83137255 1.00000000
0.00000000 0.83137255 1.00000000
0.31372549 0.82352941 1.00000000
0.51764706 0.81176471 1.00000000
0.64313725 0.80784314 1.00000000
0.78431373 0.80000000 1.00000000
0.95294118 0.77647059 1.00000000
1.00000000 0.74509804 1.00000000
0.00000000 0.93725490 1.00000000
0.00000000 0.93725490 1.00000000
0.00000000 0.93333333 1.00000000
0.21960784 0.92941176 1.00000000
0.44705882 0.92549020 1.00000000
0.61960784 0.91372549 1.00000000
0.79215686 0.89803922 0.97647059
0.89803922 0.89019608 0.95686275
1.00000000 0.87450980 0.95294118
0.00000000 1.00000000 0.95294118
0.00000000 1.00000000 0.95294118
0.00000000 1.00000000 0.94901961
0.21176471 1.00000000 0.94901961
0.39607843 1.00000000 0.94901961
0.54117647 1.00000000 0.95294118
0.69411765 1.00000000 0.96470588
0.85490196 1.00000000 0.98039216
0.98431373 0.99607843 1.00000000
