assets/luts/open/t3-portra-400.cube
TITLE "Portrait 400 Film Emulation"
LUT_3D_SIZE 5
DOMAIN_MIN 0.0 0.0 0.0
DOMAIN_MAX 1.0 1.0 1.0
# Converted from an MIT-licensed t3mujinpack Hald CLUT by PhotoAtelier.
0.00784314 0.00784314 0.00000000
0.27843137 0.00000000 0.00000000
0.54509804 0.00000000 0.00000000
0.82352941 0.00000000 0.00000000
1.00000000 0.02745098 0.01568627
0.00000000 0.24705882 0.00000000
0.27450980 0.24313725 0.00000000
0.58039216 0.22745098 0.00000000
0.84705882 0.23529412 0.00000000
1.00000000 0.27450980 0.04705882
0.02352941 0.54901961 0.00000000
0.25882353 0.55686275 0.00000000
0.58039216 0.54509804 0.00000000
0.87843137 0.53725490 0.00000000
1.00000000 0.55294118 0.14117647
0.25098039 0.84313725 0.03529412
0.35294118 0.84705882 0.05490196
0.56078431 0.85098039 0.09411765
0.85490196 0.82745098 0.14117647
1.00000000 0.78039216 0.16862745
0.22352941 1.00000000 0.11372549
0.33333333 1.00000000 0.11372549
0.51372549 1.00000000 0.11372549
0.70980392 1.00000000 0.10980392
0.98823529 0.98823529 0.11764706
0.00784314 0.00000000 0.28627451
0.29019608 0.00000000 0.21568627
0.54901961 0.00000000 0.24705882
0.82745098 0.00000000 0.22352941
1.00000000 0.02745098 0.21960784
0.00000000 0.24705882 0.24313725
0.25490196 0.25490196 0.24705882
0.58823529 0.22352941 0.23529412
0.85098039 0.23529412 0.21960784
1.00000000 0.27450980 0.22352941
0.02745098 0.55294118 0.20784314
0.26666667 0.55686275 0.20784314
0.58823529 0.54509804 0.20784314
0.88627451 0.53725490 0.21960784
1.00000000 0.55294118 0.26274510
0.26274510 0.84313725 0.22745098
0.36078431 0.84705882 0.23137255
0.56470588 0.85098039 0.23921569
0.86274510 0.82745098 0.25490196
1.00000000 0.78039216 0.27058824
0.24313725 1.00000000 0.23137255
0.34117647 1.00000000 0.23529412
0.51764706 1.00000000 0.23921569
0.70980392 1.00000000 0.24313725
0.99215686 0.98823529 0.25490196
0.00784314 0.00000000 0.53333333
0.25098039 0.00000000 0.54901961
0.54117647 0.00000000 0.55294118
0.82745098 0.00000000 0.51764706
1.00000000 0.05882353 0.54509804
0.00000000 0.25882353 0.56470588
0.29019608 0.23921569 0.55686275
0.60000000 0.22352941 0.51372549
0.84705882 0.24313725 0.54509804
1.00000000 0.28235294 0.53333333
0.00000000 0.55686275 0.54117647
0.27058824 0.55294118 0.54901961
0.55686275 0.55686275 0.54901961
0.89411765 0.53333333 0.54117647
1.00000000 0.55294118 0.52549020
0.23529412 0.84705882 0.52549020
0.34509804 0.85098039 0.52156863
0.57254902 0.85098039 0.51372549
0.87450980 0.82352941 0.49411765
1.00000000 0.77254902 0.46274510
0.28235294 1.00000000 0.42352941
0.36470588 1.00000000 0.42352941
0.52941176 1.00000000 0.41568627
0.72549020 1.00000000 0.40784314
1.00000000 0.98039216 0.41568627
0.10196078 0.00000000 0.75686275
0.28235294 0.00000000 0.77647059
0.54117647 0.00000000 0.81960784
0.80392157 0.00000000 0.86666667
1.00000000 0.09803922 0.81176471
0.17254902 0.23137255 0.80784314
0.32941176 0.22745098 0.81960784
0.56862745 0.23529412 0.85490196
0.82745098 0.25490196 0.86274510
1.00000000 0.29411765 0.80000000
0.00000000 0.54901961 0.86666667
0.28235294 0.54901961 0.85882353
0.60392157 0.54117647 0.83529412
0.90980392 0.53725490 0.80000000
1.00000000 0.55686275 0.83921569
0.09019608 0.85490196 0.82745098
0.28235294 0.85490196 0.83137255
0.57254902 0.84313725 0.83921569
0.82745098 0.82745098 0.81568627
1.00000000 0.76470588 0.76862745
0.23137255 1.00000000 0.70980392
0.32549020 1.00000000 0.70588235
0.50588235 1.00000000 0.69019608
0.72941176 1.00000000 0.67058824
1.00000000 0.97647059 0.64705882
0.20784314 0.00000000 1.00000000
0.33725490 0.00000000 1.00000000
0.56862745 0.00000000 1.00000000
0.81568627 0.01960784 1.00000000
1.00000000 0.15686275 1.00000000
0.27843137 0.22745098 1.00000000
0.38431373 0.23137255 1.00000000
0.59215686 0.24705882 1.00000000
0.82745098 0.27058824 1.00000000
1.00000000 0.32156863 1.00000000
0.18039216 0.54509804 1.00000000
0.36862745 0.54117647 1.00000000
0.62745098 0.53333333 1.00000000
0.87843137 0.54901961 1.00000000
1.00000000 0.56470588 1.00000000
0.00000000 0.85098039 1.00000000
0.19215686 0.84705882 1.00000000
0.58431373 0.83137255 1.00000000
0.86274510 0.80392157 1.00000000
1.00000000 0.75294118 1.00000000
0.00000000 1.00000000 0.99215686
0.19607843 1.00000000 0.99215686
0.44313725 1.00000000 0.99215686
0.72549020 1.00000000 0.99215686
0.98039216 0.98039216 0.97254902
