assets/luts/open/t3-velvia-50.cube
TITLE "Velvia 50 Landscape Emulation"
LUT_3D_SIZE 5
DOMAIN_MIN 0.0 0.0 0.0
DOMAIN_MAX 1.0 1.0 1.0
# Converted from an MIT-licensed t3mujinpack Hald CLUT by PhotoAtelier.
0.00392157 0.00000000 0.00000000
0.22352941 0.00000000 0.00000000
0.46666667 0.00000000 0.00000000
0.75686275 0.00000000 0.00000000
1.00000000 0.00000000 0.00000000
0.00000000 0.17647059 0.00000000
0.16470588 0.18431373 0.00000000
0.49019608 0.15294118 0.00000000
0.78039216 0.07843137 0.00000000
1.00000000 0.00000000 0.00000000
0.00000000 0.48627451 0.00000000
0.10588235 0.49019608 0.00000000
0.45490196 0.49411765 0.00000000
0.77647059 0.46666667 0.00000000
1.00000000 0.42745098 0.00000000
0.00000000 0.75294118 0.00000000
0.00000000 0.75294118 0.00000000
0.41568627 0.75294118 0.00000000
0.70588235 0.74509804 0.00000000
1.00000000 0.71764706 0.00000000
0.00000000 1.00000000 0.00000000
0.00000000 1.00000000 0.00000000
0.27450980 1.00000000 0.00000000
0.65882353 0.99607843 0.00000000
0.94901961 0.99215686 0.00000000
0.00000000 0.00000000 0.27843137
0.21568627 0.00000000 0.20784314
0.47450980 0.00000000 0.18039216
0.76078431 0.00000000 0.23921569
1.00000000 0.00000000 0.21960784
0.00000000 0.17647059 0.17647059
0.18431373 0.18039216 0.17647059
0.49803922 0.14901961 0.23137255
0.78431373 0.07450980 0.22745098
1.00000000 0.00000000 0.22352941
0.00000000 0.48627451 0.23137255
0.09019608 0.49019608 0.22352941
0.46274510 0.49411765 0.21176471
0.78431373 0.46666667 0.21568627
1.00000000 0.42745098 0.22352941
0.00000000 0.75294118 0.19607843
0.00000000 0.75294118 0.19607843
0.41176471 0.75294118 0.19607843
0.70588235 0.74509804 0.20000000
1.00000000 0.71764706 0.21176471
0.00000000 1.00000000 0.18039216
0.00000000 1.00000000 0.18039216
0.28627451 1.00000000 0.18431373
0.65882353 0.99607843 0.18823529
0.94901961 0.99215686 0.19215686
0.00000000 0.00000000 0.48235294
0.18431373 0.00000000 0.47058824
0.47450980 0.00000000 0.48627451
0.76470588 0.00000000 0.49019608
1.00000000 0.00000000 0.48627451
0.00000000 0.18431373 0.47843137
0.17254902 0.17647059 0.48627451
0.50980392 0.13333333 0.49411765
0.79215686 0.06274510 0.48627451
1.00000000 0.00000000 0.50980392
0.00000000 0.49019608 0.48627451
0.14117647 0.49019608 0.48627451
0.49019608 0.48627451 0.47843137
0.79215686 0.45882353 0.50588235
1.00000000 0.42352941 0.51372549
0.00000000 0.75294118 0.52941176
0.00000000 0.74901961 0.52156863
0.40000000 0.75294118 0.50196078
0.70980392 0.74509804 0.47843137
1.00000000 0.70980392 0.46666667
0.00000000 1.00000000 0.45098039
0.00000000 1.00000000 0.45098039
0.32549020 1.00000000 0.45098039
0.65490196 1.00000000 0.45098039
0.94901961 0.99215686 0.45490196
0.00000000 0.00000000 0.69411765
0.18431373 0.00000000 0.70588235
0.47843137 0.00000000 0.74901961
0.75686275 0.00000000 0.78431373
1.00000000 0.00000000 0.78431373
0.00000000 0.16470588 0.73725490
0.21568627 0.15294118 0.74901961
0.51372549 0.11764706 0.77254902
0.78039216 0.07058824 0.78823529
1.00000000 0.00392157 0.77647059
0.00000000 0.49411765 0.78823529
0.00000000 0.49411765 0.78823529
0.48235294 0.48235294 0.78823529
0.80000000 0.44705882 0.77647059
1.00000000 0.41960784 0.74901961
0.00000000 0.74901961 0.75294118
0.00000000 0.75294118 0.74901961
0.43529412 0.74509804 0.74117647
0.73725490 0.73725490 0.72941176
1.00000000 0.70196078 0.74509804
0.00000000 1.00000000 0.77254902
0.00000000 1.00000000 0.77254902
0.30588235 0.99607843 0.76862745
0.64313725 1.00000000 0.74509804
0.95294118 0.99215686 0.71764706
0.03921569 0.00000000 0.93725490
0.25098039 0.00000000 0.95686275
0.50588235 0.00000000 0.99607843
0.75686275 0.00000000 1.00000000
1.00000000 0.00000000 1.00000000
0.14117647 0.12549020 0.98431373
0.29411765 0.11764706 0.99607843
0.53333333 0.09803922 1.00000000
0.77647059 0.07058824 1.00000000
1.00000000 0.05098039 1.00000000
0.00000000 0.48627451 1.00000000
0.14901961 0.48235294 1.00000000
0.52549020 0.46274510 1.00000000
0.80000000 0.43921569 1.00000000
1.00000000 0.41960784 1.00000000
0.00000000 0.74901961 1.00000000
0.00000000 0.74901961 1.00000000
0.36470588 0.74901961 1.00000000
0.72941176 0.72941176 1.00000000
1.00000000 0.69411765 1.00000000
0.00000000 1.00000000 1.00000000
0.00000000 0.99607843 1.00000000
0.30588235 1.00000000 0.99607843
0.67450980 0.99215686 0.98431373
0.98431373 0.98039216 0.97254902
