assets/luts/open/t3-velvia-50.cube
TITLE "Velvia 50 Landscape Emulation"
LUT_3D_SIZE 9
DOMAIN_MIN 0.0 0.0 0.0
DOMAIN_MAX 1.0 1.0 1.0
# Converted from an MIT-licensed t3mujinpack Hald CLUT by PhotoAtelier.
0.00392157 0.00000000 0.00000000
0.12941176 0.00000000 0.00000000
0.22352941 0.00000000 0.00000000
0.32941176 0.00000000 0.00000000
0.46666667 0.00000000 0.00000000
0.61176471 0.00000000 0.00000000
0.75686275 0.00000000 0.00000000
0.89803922 0.00000000 0.00000000
1.00000000 0.00000000 0.00000000
0.00000000 0.08235294 0.00000000
0.02745098 0.06274510 0.00000000
0.19215686 0.02745098 0.00000000
0.32941176 0.00000000 0.00000000
0.47843137 0.00000000 0.00000000
0.61960784 0.00000000 0.00000000
0.76470588 0.00000000 0.00000000
0.90588235 0.00000000 0.00000000
1.00000000 0.00000000 0.00000000
0.00000000 0.17647059 0.00000000
0.01176471 0.17647059 0.00000000
0.16470588 0.18431373 0.00000000
0.32549020 0.18039216 0.00000000
0.49019608 0.15294118 0.00000000
0.63529412 0.12156863 0.00000000
0.78039216 0.07843137 0.00000000
0.91764706 0.03137255 0.00000000
1.00000000 0.00000000 0.00000000
0.00000000 0.32941176 0.00000000
0.00000000 0.33333333 0.00000000
0.15686275 0.33725490 0.00000000
0.30980392 0.34509804 0.00000000
0.47843137 0.34117647 0.00000000
0.63921569 0.32156863 0.00000000
0.79215686 0.30196078 0.00000000
0.92941176 0.28235294 0.00000000
1.00000000 0.26666667 0.00000000
0.00000000 0.48627451 0.00000000
0.00000000 0.48627451 0.00000000
0.10588235 0.49019608 0.00000000
0.30980392 0.49019608 0.00000000
0.45490196 0.49411765 0.00000000
0.61568627 0.48627451 0.00000000
0.77647059 0.46666667 0.00000000
0.92941176 0.44705882 0.00000000
1.00000000 0.42745098 0.00000000
0.00000000 0.61960784 0.00000000
0.00000000 0.61960784 0.00000000
0.05882353 0.61960784 0.00000000
0.27843137 0.62352941 0.00000000
0.44705882 0.61960784 0.00000000
0.58039216 0.61960784 0.00000000
0.74509804 0.61176471 0.00000000
0.90196078 0.59215686 0.00000000
1.00000000 0.56862745 0.00000000
0.00000000 0.75294118 0.00000000
0.00000000 0.75294118 0.00000000
0.00000000 0.75294118 0.00000000
0.24705882 0.74901961 0.00000000
0.41568627 0.75294118 0.00000000
0.55686275 0.74901961 0.00000000
0.70588235 0.74509804 0.00000000
0.86274510 0.73333333 0.00000000
1.00000000 0.71764706 0.00000000
0.00000000 0.88235294 0.00000000
0.00000000 0.88235294 0.00000000
0.00000000 0.88235294 0.00000000
0.05490196 0.87843137 0.00000000
0.38039216 0.87450980 0.00000000
0.53333333 0.87450980 0.00000000
0.67450980 0.87450980 0.00000000
0.82745098 0.86666667 0.00000000
0.98039216 0.85882353 0.00000000
0.00000000 1.00000000 0.00000000
0.00000000 1.00000000 0.00000000
0.00000000 1.00000000 0.00000000
0.00000000 1.00000000 0.00000000
0.27450980 1.00000000 0.00000000
0.49803922 1.00000000 0.00000000
0.65882353 0.99607843 0.00000000
0.79607843 0.99607843 0.00000000
0.94901961 0.99215686 0.00000000
0.00000000 0.00000000 0.14117647
0.13333333 0.00000000 0.11372549
0.22352941 0.00000000 0.05490196
0.32941176 0.00000000 0.06666667
0.46666667 0.00000000 0.08627451
0.61176471 0.00000000 0.07843137
0.76078431 0.00000000 0.08235294
0.90196078 0.00000000 0.09019608
1.00000000 0.00000000 0.09803922
0.00000000 0.07843137 0.05882353
0.05490196 0.05490196 0.04313725
0.19215686 0.02352941 0.03921569
0.32941176 0.00000000 0.09019608
0.47843137 0.00000000 0.08235294
0.62352941 0.00000000 0.07843137
0.76862745 0.00000000 0.08235294
0.90588235 0.00000000 0.09019608
1.00000000 0.00000000 0.09803922
0.00000000 0.17647059 0.07843137
0.00000000 0.18039216 0.08627451
0.15686275 0.18431373 0.09019608
0.32549020 0.18039216 0.07843137
0.49411765 0.15294118 0.07058824
0.63921569 0.12156863 0.07450980
0.78431373 0.07843137 0.08235294
0.91764706 0.02745098 0.09411765
1.00000000 0.00000000 0.10196078
0.00000000 0.33333333 0.06274510
0.00000000 0.33725490 0.06274510
0.16470588 0.33725490 0.05882353
0.31372549 0.34509804 0.05098039
0.48235294 0.34117647 0.05490196
0.64313725 0.32156863 0.06666667
0.79215686 0.29803922 0.08235294
0.92941176 0.28235294 0.09411765
1.00000000 0.26666667 0.10196078
0.00000000 0.48627451 0.03921569
0.00000000 0.48627451 0.03921569
0.10588235 0.49019608 0.03529412
0.31372549 0.49019608 0.03921569
0.45882353 0.49411765 0.04313725
0.61568627 0.48627451 0.05490196
0.78039216 0.46666667 0.07450980
0.92941176 0.44313725 0.08627451
1.00000000 0.42745098 0.09803922
0.00000000 0.61960784 0.02352941
0.00000000 0.61960784 0.02352941
0.07058824 0.61960784 0.02745098
0.27843137 0.62352941 0.02745098
0.44705882 0.61960784 0.03529412
0.58431373 0.61960784 0.03921569
0.74509804 0.61176471 0.05490196
0.90588235 0.59215686 0.07058824
1.00000000 0.56862745 0.08627451
0.00000000 0.75294118 0.00392157
0.00000000 0.75294118 0.00784314
0.00000000 0.75294118 0.01176471
0.25098039 0.74901961 0.01568627
0.41568627 0.75294118 0.01568627
0.56078431 0.74901961 0.01568627
0.70588235 0.74509804 0.02352941
0.86666667 0.73333333 0.03921569
1.00000000 0.71764706 0.05882353
0.00000000 0.88235294 0.00000000
0.00000000 0.88235294 0.00000000
0.00000000 0.87843137 0.00000000
0.07058824 0.87843137 0.00000000
0.38431373 0.87450980 0.00000000
0.53333333 0.87450980 0.00000000
0.67843137 0.87450980 0.00000000
0.82745098 0.86666667 0.00000000
0.98039216 0.85882353 0.01568627
0.00000000 1.00000000 0.00000000
0.00000000 1.00000000 0.00000000
0.00000000 1.00000000 0.00000000
0.00000000 1.00000000 0.00000000
0.27843137 1.00000000 0.00000000
0.49803922 1.00000000 0.00000000
0.65882353 0.99607843 0.00000000
0.79607843 0.99607843 0.00000000
0.94901961 0.99215686 0.00000000
0.00000000 0.00000000 0.27843137
0.12156863 0.00000000 0.25490196
0.21568627 0.00000000 0.20784314
0.33333333 0.00000000 0.18039216
0.47450980 0.00000000 0.18039216
0.61176471 0.00000000 0.22352941
0.76078431 0.00000000 0.23921569
0.90196078 0.00000000 0.22352941
1.00000000 0.00000000 0.21960784
0.00000000 0.05882353 0.21176471
0.03921569 0.04705882 0.20392157
0.20000000 0.00784314 0.18431373
0.34117647 0.00000000 0.17647059
0.48627451 0.00000000 0.18823529
0.62352941 0.00000000 0.23921569
0.76862745 0.00000000 0.23529412
0.90980392 0.00000000 0.22352941
1.00000000 0.00000000 0.21960784
0.00000000 0.17647059 0.17647059
0.00000000 0.18039216 0.17647059
0.18431373 0.18039216 0.17647059
0.33725490 0.17647059 0.18823529
0.49803922 0.14901961 0.23137255
0.63921569 0.11764706 0.24705882
0.78431373 0.07450980 0.22745098
0.92156863 0.02352941 0.21960784
1.00000000 0.00000000 0.22352941
0.00000000 0.33333333 0.21960784
0.00000000 0.33725490 0.22352941
0.15294118 0.33725490 0.23921569
0.31372549 0.34509804 0.24705882
0.48235294 0.33725490 0.23921569
0.64705882 0.31764706 0.22352941
0.79607843 0.29803922 0.21960784
0.93333333 0.27843137 0.21960784
1.00000000 0.26666667 0.22352941
0.00000000 0.48627451 0.23137255
0.00000000 0.48627451 0.22745098
0.09019608 0.49019608 0.22352941
0.31764706 0.49019608 0.21960784
0.46274510 0.49411765 0.21176471
0.61960784 0.48627451 0.21176471
0.78431373 0.46666667 0.21568627
0.93333333 0.44313725 0.21960784
1.00000000 0.42745098 0.22352941
0.00000000 0.61960784 0.20784314
0.00000000 0.61960784 0.20784314
0.07843137 0.61960784 0.20392157
0.27843137 0.62352941 0.20392157
0.45490196 0.61960784 0.20392157
0.58431373 0.61960784 0.20392157
0.74901961 0.60784314 0.20784314
0.90980392 0.58823529 0.21176471
1.00000000 0.56862745 0.21960784
0.00000000 0.75294118 0.19607843
0.00000000 0.75294118 0.19607843
0.00000000 0.75294118 0.19607843
0.25882353 0.74901961 0.19607843
0.41176471 0.75294118 0.19607843
0.56470588 0.74901961 0.20000000
0.70588235 0.74509804 0.20000000
0.86666667 0.73333333 0.20392157
1.00000000 0.71764706 0.21176471
0.00000000 0.88235294 0.18823529
0.00000000 0.88235294 0.18823529
0.00000000 0.87843137 0.18823529
0.10196078 0.87843137 0.18823529
0.38823529 0.87450980 0.19215686
0.53333333 0.87450980 0.19215686
0.68235294 0.87058824 0.19215686
0.82745098 0.86666667 0.19607843
0.98431373 0.85882353 0.20000000
0.00000000 1.00000000 0.18039216
0.00000000 1.00000000 0.18039216
0.00000000 1.00000000 0.18039216
0.00000000 1.00000000 0.18039216
0.28627451 1.00000000 0.18431373
0.50196078 1.00000000 0.18431373
0.65882353 0.99607843 0.18823529
0.79607843 0.99607843 0.18823529
0.94901961 0.99215686 0.19215686
0.00000000 0.00000000 0.38431373
0.07843137 0.00000000 0.36470588
0.20000000 0.00000000 0.34509804
0.32941176 0.00000000 0.33333333
0.47843137 0.00000000 0.33333333
0.61960784 0.00000000 0.33333333
0.76470588 0.00000000 0.33725490
0.89803922 0.00000000 0.38431373
1.00000000 0.00000000 0.38039216
0.00000000 0.04705882 0.34509804
0.00000000 0.03137255 0.34117647
0.19215686 0.00000000 0.33333333
0.34117647 0.00000000 0.33333333
0.49019608 0.00000000 0.33333333
0.63137255 0.00000000 0.33333333
0.77254902 0.00000000 0.34509804
0.90588235 0.00000000 0.39215686
1.00000000 0.00000000 0.37647059
0.00000000 0.18431373 0.33333333
0.00000000 0.18431373 0.33333333
0.17647059 0.18431373 0.33333333
0.34901961 0.16862745 0.33333333
0.50980392 0.14117647 0.33333333
0.65098039 0.10980392 0.33725490
0.78431373 0.07058824 0.36862745
0.91764706 0.03137255 0.39607843
1.00000000 0.00000000 0.36470588
0.00000000 0.33725490 0.33333333
0.00000000 0.33725490 0.33333333
0.16470588 0.34117647 0.33333333
0.34117647 0.34117647 0.33333333
0.49803922 0.33333333 0.34117647
0.65098039 0.31764706 0.37254902
0.79215686 0.29803922 0.40000000
0.93333333 0.27843137 0.37254902
1.00000000 0.26666667 0.35686275
0.00000000 0.48627451 0.35686275
0.00000000 0.49019608 0.36078431
0.08627451 0.49019608 0.36862745
0.30588235 0.49019608 0.38431373
0.45882353 0.49411765 0.39607843
0.61568627 0.48235294 0.38823529
0.78823529 0.46274510 0.36862745
0.93725490 0.44313725 0.35294118
1.00000000 0.42352941 0.34901961
0.00000000 0.61960784 0.38823529
0.00000000 0.61960784 0.38431373
0.00000000 0.61960784 0.38039216
0.26666667 0.62352941 0.36862745
0.45490196 0.61960784 0.35686275
0.58823529 0.61960784 0.34901961
0.74901961 0.60784314 0.34509804
0.91372549 0.58823529 0.34117647
1.00000000 0.56470588 0.34117647
0.00000000 0.75294118 0.34117647
0.00000000 0.75294118 0.34117647
0.00000000 0.74901961 0.34117647
0.26274510 0.74901961 0.33725490
0.41176471 0.75294118 0.33333333
0.57254902 0.74901961 0.33333333
0.70980392 0.74509804 0.33333333
0.87058824 0.73333333 0.33333333
1.00000000 0.71372549 0.33725490
0.00000000 0.88235294 0.32549020
0.00000000 0.87843137 0.32549020
0.00000000 0.87843137 0.32549020
0.14509804 0.87450980 0.32549020
0.39607843 0.87450980 0.32549020
0.53333333 0.87450980 0.32549020
0.68627451 0.87058824 0.32549020
0.82745098 0.86666667 0.32941176
0.98823529 0.85490196 0.33333333
0.00000000 1.00000000 0.32156863
0.00000000 1.00000000 0.32156863
0.00000000 1.00000000 0.32156863
0.00000000 1.00000000 0.32156863
0.30196078 1.00000000 0.32156863
0.50980392 0.99607843 0.32549020
0.65882353 0.99607843 0.32549020
0.80392157 0.99607843 0.32549020
0.94901961 0.99215686 0.32941176
0.00000000 0.00000000 0.48235294
0.00000000 0.00000000 0.47450980
0.18431373 0.00000000 0.47058824
0.32549020 0.00000000 0.47450980
0.47450980 0.00000000 0.48627451
0.61960784 0.00000000 0.49411765
0.76470588 0.00000000 0.49019608
0.90588235 0.00000000 0.48235294
1.00000000 0.00000000 0.48627451
0.00000000 0.01568627 0.47058824
0.00000000 0.00000000 0.47058824
0.18823529 0.00000000 0.47058824
0.34117647 0.00000000 0.47843137
0.49019608 0.00000000 0.49019608
0.63137255 0.00000000 0.49411765
0.77254902 0.00000000 0.49019608
0.90980392 0.00000000 0.48235294
1.00000000 0.00000000 0.49019608
0.00000000 0.18431373 0.47843137
0.00000000 0.18431373 0.48235294
0.17254902 0.17647059 0.48627451
0.35294118 0.16078431 0.49019608
0.50980392 0.13333333 0.49411765
0.65098039 0.10588235 0.49411765
0.79215686 0.06274510 0.48627451
0.92549020 0.01568627 0.48235294
1.00000000 0.00000000 0.50980392
0.00000000 0.34117647 0.49411765
0.00000000 0.34117647 0.49411765
0.12941176 0.34509804 0.49411765
0.33725490 0.34117647 0.49411765
0.50980392 0.32941176 0.49019608
0.66274510 0.30980392 0.48627451
0.80392157 0.29019608 0.48235294
0.93333333 0.27843137 0.49803922
1.00000000 0.26666667 0.53333333
0.00000000 0.49019608 0.48627451
0.00000000 0.49019608 0.48627451
0.14117647 0.49019608 0.48627451
0.31764706 0.49411765 0.48235294
0.49019608 0.48627451 0.47843137
0.63529412 0.47843137 0.48235294
0.79215686 0.45882353 0.50588235
0.92941176 0.43921569 0.53333333
1.00000000 0.42352941 0.51372549
0.00000000 0.61960784 0.48235294
0.00000000 0.61960784 0.48235294
0.00000000 0.62352941 0.48627451
0.27843137 0.62352941 0.49803922
0.44705882 0.61960784 0.51372549
0.58431373 0.61960784 0.52941176
0.74509804 0.60784314 0.52549020
0.91764706 0.58431373 0.50196078
1.00000000 0.56078431 0.48235294
0.00000000 0.75294118 0.52941176
0.00000000 0.75294118 0.52549020
0.00000000 0.74901961 0.52156863
0.22352941 0.74901961 0.51372549
0.40000000 0.75294118 0.50196078
0.57254902 0.74509804 0.49019608
0.70980392 0.74509804 0.47843137
0.87450980 0.73333333 0.47058824
1.00000000 0.70980392 0.46666667
0.00000000 0.87843137 0.47058824
0.00000000 0.87843137 0.47058824
0.00000000 0.87843137 0.46666667
0.17647059 0.87450980 0.46666667
0.40000000 0.87450980 0.46274510
0.52941176 0.87450980 0.45882353
0.69411765 0.87058824 0.45882353
0.83137255 0.86666667 0.45490196
0.99215686 0.85490196 0.45490196
0.00000000 1.00000000 0.45098039
0.00000000 1.00000000 0.45098039
0.00000000 1.00000000 0.45098039
0.00000000 1.00000000 0.45098039
0.32549020 1.00000000 0.45098039
0.51764706 0.99607843 0.45098039
0.65490196 1.00000000 0.45098039
0.81176471 0.99607843 0.45098039
0.94901961 0.99215686 0.45490196
0.00000000 0.00000000 0.58039216
0.00000000 0.00000000 0.58039216
0.17647059 0.00000000 0.58431373
0.32549020 0.00000000 0.60000000
0.47450980 0.00000000 0.61568627
0.61568627 0.00000000 0.63137255
0.76078431 0.00000000 0.63921569
0.90196078 0.00000000 0.63921569
1.00000000 0.00000000 0.62352941
0.00000000 0.00000000 0.58431373
0.00000000 0.00000000 0.58823529
0.18823529 0.00000000 0.59607843
0.34117647 0.00000000 0.60784314
0.49019608 0.00000000 0.62352941
0.62745098 0.00000000 0.63529412
0.76862745 0.00000000 0.63921569
0.90588235 0.00000000 0.63529412
1.00000000 0.00000000 0.61960784
0.00000000 0.18039216 0.60784314
0.00000000 0.17647059 0.61176471
0.18823529 0.16862745 0.61568627
0.36078431 0.15294118 0.62745098
0.50980392 0.12941176 0.63529412
0.64705882 0.10196078 0.63921569
0.78431373 0.06666667 0.63921569
0.92156863 0.02352941 0.63137255
1.00000000 0.00000000 0.61568627
0.00000000 0.34509804 0.63529412
0.00000000 0.34117647 0.63529412
0.12941176 0.34117647 0.63921569
0.33725490 0.33725490 0.63921569
0.51372549 0.32156863 0.64313725
0.65882353 0.30588235 0.63921569
0.80392157 0.29019608 0.63137255
0.93725490 0.27450980 0.61960784
1.00000000 0.26274510 0.60784314
0.00000000 0.49019608 0.63921569
0.00000000 0.49019608 0.63921569
0.04705882 0.49019608 0.63921569
0.29803922 0.49411765 0.63529412
0.48627451 0.48627451 0.63137255
0.64313725 0.47450980 0.62352941
0.80392157 0.45490196 0.61568627
0.94509804 0.43529412 0.60784314
1.00000000 0.41960784 0.61568627
0.00000000 0.62352941 0.61960784
0.00000000 0.62352941 0.61960784
0.00000000 0.62352941 0.61960784
0.30196078 0.61960784 0.61568627
0.45098039 0.61960784 0.60784314
0.61568627 0.61176471 0.60392157
0.76862745 0.60000000 0.60392157
0.92156863 0.58039216 0.62745098
1.00000000 0.56078431 0.65098039
0.00000000 0.74901961 0.60000000
0.00000000 0.74901961 0.60000000
0.00000000 0.74901961 0.60392157
0.22745098 0.75294118 0.60784314
0.41176471 0.74901961 0.61960784
0.56470588 0.74509804 0.63529412
0.70588235 0.74117647 0.65098039
0.86666667 0.72941176 0.64313725
1.00000000 0.70980392 0.61568627
0.00000000 0.87843137 0.64705882
0.00000000 0.87843137 0.64705882
0.00000000 0.87843137 0.64705882
0.10980392 0.87450980 0.64313725
0.36862745 0.87450980 0.63137255
0.51764706 0.87450980 0.61960784
0.69411765 0.87058824 0.60392157
0.83137255 0.86666667 0.59215686
0.99607843 0.85490196 0.58431373
0.00000000 1.00000000 0.58823529
0.00000000 1.00000000 0.58823529
0.00000000 1.00000000 0.58823529
0.00000000 1.00000000 0.58431373
0.34117647 1.00000000 0.58039216
0.52156863 0.99607843 0.58039216
0.65490196 1.00000000 0.57647059
0.81960784 0.99215686 0.57254902
0.95294118 0.99215686 0.57254902
0.00000000 0.00000000 0.69411765
0.00000000 0.00000000 0.69803922
0.18431373 0.00000000 0.70588235
0.33333333 0.00000000 0.72549020
0.47843137 0.00000000 0.74901961
0.61568627 0.00000000 0.76862745
0.75686275 0.00000000 0.78431373
0.89411765 0.00000000 0.78823529
1.00000000 0.00000000 0.78431373
0.00000000 0.00000000 0.70588235
0.00000000 0.00000000 0.70980392
0.20392157 0.00000000 0.72156863
0.34901961 0.00000000 0.73725490
0.49411765 0.00000000 0.75686275
0.62745098 0.00000000 0.77254902
0.76470588 0.00000000 0.78431373
0.89803922 0.00000000 0.78823529
1.00000000 0.00000000 0.78431373
0.00000000 0.16470588 0.73725490
0.00000000 0.16078431 0.74117647
0.21568627 0.15294118 0.74901961
0.36862745 0.13725490 0.76078431
0.51372549 0.11764706 0.77254902
0.64313725 0.09803922 0.78431373
0.78039216 0.07058824 0.78823529
0.91372549 0.03529412 0.78823529
1.00000000 0.00392157 0.77647059
0.00000000 0.34117647 0.77254902
0.00000000 0.34117647 0.77254902
0.14509804 0.33725490 0.77647059
0.35686275 0.32941176 0.78039216
0.52156863 0.31372549 0.78823529
0.65882353 0.30196078 0.78823529
0.79607843 0.29019608 0.78823529
0.92941176 0.27450980 0.78039216
1.00000000 0.26666667 0.76862745
0.00000000 0.49411765 0.78823529
0.00000000 0.49411765 0.78823529
0.00000000 0.49411765 0.78823529
0.30588235 0.48627451 0.78823529
0.48235294 0.48235294 0.78823529
0.64705882 0.46666667 0.78431373
0.80000000 0.44705882 0.77647059
0.94117647 0.43137255 0.76470588
1.00000000 0.41960784 0.74901961
0.00000000 0.62352941 0.78431373
0.00000000 0.62352941 0.78039216
0.00000000 0.61960784 0.78039216
0.25882353 0.61960784 0.77647059
0.43921569 0.61960784 0.77254902
0.60784314 0.61176471 0.76470588
0.77647059 0.59607843 0.75686275
0.93333333 0.57254902 0.74509804
1.00000000 0.55686275 0.73333333
0.00000000 0.74901961 0.75294118
0.00000000 0.74901961 0.75294118
0.00000000 0.75294118 0.74901961
0.21176471 0.75294118 0.74509804
0.43529412 0.74509804 0.74117647
0.56862745 0.74509804 0.73333333
0.73725490 0.73725490 0.72941176
0.89019608 0.72549020 0.72549020
1.00000000 0.70196078 0.74509804
0.00000000 0.87450980 0.72156863
0.00000000 0.87450980 0.72156863
0.00000000 0.87450980 0.72156863
0.20000000 0.87450980 0.72549020
0.37254902 0.87450980 0.72941176
0.53333333 0.87450980 0.73725490
0.68627451 0.87058824 0.75686275
0.82745098 0.86666667 0.77254902
0.98823529 0.85490196 0.76862745
0.00000000 1.00000000 0.77254902
0.00000000 1.00000000 0.77254902
0.00000000 1.00000000 0.77254902
0.00000000 1.00000000 0.77254902
0.30588235 0.99607843 0.76862745
0.49019608 0.99607843 0.76078431
0.64313725 1.00000000 0.74509804
0.81568627 0.99215686 0.72941176
0.95294118 0.99215686 0.71764706
0.00000000 0.00000000 0.81568627
0.03921569 0.00000000 0.81960784
0.21176471 0.00000000 0.83137255
0.35294118 0.00000000 0.85098039
0.49019608 0.00000000 0.87450980
0.61960784 0.00000000 0.89803922
0.75686275 0.00000000 0.91372549
0.89019608 0.00000000 0.92549020
1.00000000 0.00000000 0.92941176
0.00000000 0.00000000 0.83137255
0.08627451 0.00000000 0.83529412
0.23137255 0.00000000 0.84705882
0.36470588 0.00000000 0.86274510
0.50196078 0.00000000 0.88235294
0.62745098 0.00000000 0.90196078
0.76078431 0.00000000 0.91764706
0.89411765 0.00000000 0.92549020
1.00000000 0.00000000 0.92941176
0.00000000 0.14509804 0.86274510
0.11764706 0.14509804 0.86666667
0.25490196 0.13725490 0.87450980
0.38823529 0.12549020 0.88627451
0.52156863 0.10980392 0.90196078
0.64705882 0.09019608 0.91372549
0.77647059 0.07058824 0.92549020
0.90588235 0.05098039 0.92941176
1.00000000 0.03137255 0.92549020
0.00000000 0.33333333 0.90196078
0.00000000 0.32941176 0.90196078
0.22352941 0.32549020 0.90588235
0.38431373 0.31764706 0.91372549
0.52941176 0.30588235 0.92156863
0.65882353 0.29803922 0.92549020
0.79215686 0.28627451 0.92941176
0.92156863 0.27843137 0.92941176
1.00000000 0.26666667 0.92156863
0.00000000 0.49019608 0.92549020
0.00000000 0.49019608 0.92549020
0.00000000 0.48627451 0.92549020
0.30980392 0.48627451 0.92941176
0.50196078 0.47450980 0.92941176
0.65490196 0.45882353 0.92941176
0.80000000 0.44313725 0.92941176
0.93333333 0.43137255 0.92156863
1.00000000 0.41960784 0.90980392
0.00000000 0.61960784 0.92941176
0.00000000 0.62352941 0.92941176
0.00000000 0.62352941 0.92941176
0.20784314 0.62352941 0.92549020
0.45098039 0.61176471 0.92549020
0.60784314 0.60784314 0.92156863
0.78039216 0.58823529 0.91372549
0.92941176 0.56862745 0.90588235
1.00000000 0.55294118 0.89411765
0.00000000 0.75294118 0.91372549
0.00000000 0.75294118 0.91372549
0.00000000 0.75294118 0.90980392
0.18431373 0.74901961 0.90980392
0.40392157 0.74901961 0.90196078
0.55686275 0.74509804 0.89803922
0.73333333 0.73333333 0.89019608
0.89803922 0.71764706 0.87843137
1.00000000 0.69803922 0.86666667
0.00000000 0.87450980 0.88235294
0.00000000 0.87450980 0.87843137
0.00000000 0.87450980 0.87843137
0.09019608 0.87450980 0.87450980
0.36470588 0.87450980 0.87058824
0.54901961 0.87058824 0.86274510
0.69411765 0.87058824 0.85490196
0.85882353 0.85882353 0.85098039
1.00000000 0.84705882 0.84705882
0.00000000 1.00000000 0.84705882
0.00000000 1.00000000 0.84705882
0.00000000 1.00000000 0.84705882
0.05882353 0.99607843 0.84705882
0.36078431 0.99607843 0.84705882
0.49803922 1.00000000 0.84705882
0.65882353 0.99607843 0.85882353
0.80784314 0.99215686 0.87843137
0.94901961 0.98823529 0.89411765
0.03921569 0.00000000 0.93725490
0.13725490 0.00000000 0.94509804
0.25098039 0.00000000 0.95686275
0.37647059 0.00000000 0.97254902
0.50588235 0.00000000 0.99607843
0.62745098 0.00000000 1.00000000
0.75686275 0.00000000 1.00000000
0.88627451 0.00000000 1.00000000
1.00000000 0.00000000 1.00000000
0.09803922 0.00000000 0.95294118
0.16470588 0.00000000 0.95686275
0.27058824 0.00000000 0.96862745
0.38823529 0.00000000 0.98431373
0.51372549 0.00000000 1.00000000
0.63529412 0.00000000 1.00000000
0.76470588 0.00000000 1.00000000
0.89019608 0.00000000 1.00000000
1.00000000 0.00000000 1.00000000
0.14117647 0.12549020 0.98431373
0.20000000 0.12549020 0.98823529
0.29411765 0.11764706 0.99607843
0.41176471 0.10980392 1.00000000
0.53333333 0.09803922 1.00000000
0.65098039 0.08627451 1.00000000
0.77647059 0.07058824 1.00000000
0.90196078 0.05882353 1.00000000
1.00000000 0.05098039 1.00000000
0.07450980 0.31764706 1.00000000
0.16862745 0.31764706 1.00000000
0.28627451 0.31372549 1.00000000
0.41568627 0.30588235 1.00000000
0.54509804 0.29803922 1.00000000
0.66666667 0.29411765 1.00000000
0.79215686 0.28627451 1.00000000
0.91764706 0.27843137 1.00000000
1.00000000 0.27058824 1.00000000
0.00000000 0.48627451 1.00000000
0.00000000 0.48627451 1.00000000
0.14901961 0.48235294 1.00000000
0.36470588 0.47450980 1.00000000
0.52549020 0.46274510 1.00000000
0.66274510 0.45098039 1.00000000
0.80000000 0.43921569 1.00000000
0.92941176 0.42745098 1.00000000
1.00000000 0.41960784 1.00000000
0.00000000 0.62352941 1.00000000
0.00000000 0.62352941 1.00000000
0.00000000 0.61960784 1.00000000
0.25882353 0.61568627 1.00000000
0.45098039 0.60784314 1.00000000
0.62352941 0.59607843 1.00000000
0.78431373 0.58039216 1.00000000
0.92941176 0.56470588 1.00000000
1.00000000 0.55294118 1.00000000
0.00000000 0.74901961 1.00000000
0.00000000 0.74901961 1.00000000
0.00000000 0.74901961 1.00000000
0.10196078 0.74901961 1.00000000
0.36470588 0.74901961 1.00000000
0.56862745 0.73725490 1.00000000
0.72941176 0.72941176 1.00000000
0.90196078 0.70980392 1.00000000
1.00000000 0.69411765 1.00000000
0.00000000 0.87450980 1.00000000
0.00000000 0.87450980 1.00000000
0.00000000 0.87843137 1.00000000
0.00000000 0.87450980 1.00000000
0.34901961 0.87058824 1.00000000
0.52549020 0.87058824 1.00000000
0.67843137 0.86666667 1.00000000
0.85490196 0.85490196 1.00000000
1.00000000 0.83921569 1.00000000
0.00000000 1.00000000 1.00000000
0.00000000 1.00000000 1.00000000
0.00000000 0.99607843 1.00000000
0.00000000 0.99607843 1.00000000
0.30588235 1.00000000 0.99607843
0.48627451 1.00000000 0.99215686
0.67450980 0.99215686 0.98431373
0.81568627 0.99215686 0.98039216
0.98431373 0.98039216 0.97254902
