dist-v2/assets/luts/open/t3-astia-100f.cube
TITLE "Astia 100F Slide Emulation"
LUT_3D_SIZE 33
DOMAIN_MIN 0.0 0.0 0.0
DOMAIN_MAX 1.0 1.0 1.0
# Converted from an MIT-licensed t3mujinpack Hald CLUT by PhotoAtelier.
0.01176471 0.01960784 0.01568627
0.02352941 0.01960784 0.01568627
0.05490196 0.01568627 0.01568627
0.10196078 0.00392157 0.01568627
0.14117647 0.00000000 0.01568627
0.16862745 0.00000000 0.01568627
0.20392157 0.00000000 0.01568627
0.23137255 0.00000000 0.01568627
0.26274510 0.00000000 0.01960784
0.29411765 0.00000000 0.02352941
0.33333333 0.00000000 0.02745098
0.36470588 0.00000000 0.02745098
0.40392157 0.00000000 0.03137255
0.43529412 0.00000000 0.02745098
0.47450980 0.00000000 0.01960784
0.50980392 0.00000000 0.01176471
0.54901961 0.00000000 0.00000000
0.58039216 0.00000000 0.00000000
0.61176471 0.00000000 0.00000000
0.65098039 0.00000000 0.00000000
0.68235294 0.00000000 0.00000000
0.72156863 0.00000000 0.00000000
0.75294118 0.00000000 0.00000000
0.78823529 0.00000000 0.00000000
0.81960784 0.00000000 0.00000000
0.85882353 0.00000000 0.00000000
0.88627451 0.00000000 0.00000000
0.92549020 0.00000000 0.00000000
0.95294118 0.00000000 0.00000000
0.98823529 0.00000000 0.00000000
1.00000000 0.00000000 0.00000000
1.00000000 0.00000000 0.00000000
1.00000000 0.00000000 0.00000000
0.02352941 0.03137255 0.01568627
0.03137255 0.03529412 0.01568627
0.04705882 0.03921569 0.01568627
0.07843137 0.03137255 0.01176471
0.13725490 0.01568627 0.01568627
0.16862745 0.00784314 0.01568627
0.20392157 0.00000000 0.01568627
0.23137255 0.00000000 0.01568627
0.26666667 0.00000000 0.01960784
0.29411765 0.00000000 0.02352941
0.33333333 0.00000000 0.02745098
0.36470588 0.00000000 0.03137255
0.40392157 0.00000000 0.02745098
0.43529412 0.00000000 0.02745098
0.47450980 0.00000000 0.01960784
0.50980392 0.00000000 0.01176471
0.54901961 0.00000000 0.00000000
0.58039216 0.00000000 0.00000000
0.61176471 0.00000000 0.00000000
0.65098039 0.00000000 0.00000000
0.68235294 0.00000000 0.00000000
0.72156863 0.00000000 0.00000000
0.75294118 0.00000000 0.00000000
0.79215686 0.00000000 0.00000000
0.81960784 0.00000000 0.00000000
0.85882353 0.00000000 0.00000000
0.88627451 0.00000000 0.00000000
0.92549020 0.00000000 0.00000000
0.95294118 0.00000000 0.00000000
0.98823529 0.00000000 0.00000000
1.00000000 0.00000000 0.00000000
1.00000000 0.00000000 0.00000000
1.00000000 0.00000000 0.00000000
0.03921569 0.05098039 0.01568627
0.05098039 0.05490196 0.01568627
0.06274510 0.05882353 0.01176471
0.07450980 0.06274510 0.01176471
0.12156863 0.05882353 0.01568627
0.16078431 0.04705882 0.01568627
0.20392157 0.03921569 0.01568627
0.23137255 0.03137255 0.01960784
0.26666667 0.02745098 0.02352941
0.29803922 0.02745098 0.02745098
0.33333333 0.02352941 0.02745098
0.36470588 0.02352941 0.03137255
0.40392157 0.01960784 0.02745098
0.43529412 0.01176471 0.02352941
0.47450980 0.00392157 0.01568627
0.50980392 0.00000000 0.00784314
0.54901961 0.00000000 0.00000000
0.58039216 0.00000000 0.00000000
0.61176471 0.00000000 0.00000000
0.65098039 0.00000000 0.00000000
0.68235294 0.00000000 0.00000000
0.72156863 0.00000000 0.00000000
0.75294118 0.00000000 0.00000000
0.79215686 0.00000000 0.00000000
0.81960784 0.00000000 0.00000000
0.85882353 0.00000000 0.00000000
0.88627451 0.00000000 0.00000000
0.92549020 0.00000000 0.00000000
0.95294118 0.00000000 0.00000000
0.98823529 0.00000000 0.00000000
1.00000000 0.00000000 0.00000000
1.00000000 0.00000000 0.00000000
1.00000000 0.00000000 0.00000000
0.05098039 0.07843137 0.01568627
0.06666667 0.07843137 0.01568627
0.08235294 0.07843137 0.01568627
0.09411765 0.08235294 0.01568627
0.10980392 0.09019608 0.01568627
0.14901961 0.08627451 0.01568627
0.20000000 0.07843137 0.01960784
0.23137255 0.07058824 0.02352941
0.27058824 0.06666667 0.02745098
0.30196078 0.06666667 0.02745098
0.33725490 0.06666667 0.03137255
0.36862745 0.06666667 0.02745098
0.40392157 0.06274510 0.02745098
0.43529412 0.06274510 0.01960784
0.47450980 0.05490196 0.01176471
0.50980392 0.05098039 0.00392157
0.54901961 0.03921569 0.00000000
0.58039216 0.03137255 0.00000000
0.61176471 0.01960784 0.00000000
0.65098039 0.00784314 0.00000000
0.68235294 0.00000000 0.00000000
0.72156863 0.00000000 0.00000000
0.75294118 0.00000000 0.00000000
0.79215686 0.00000000 0.00000000
0.82352941 0.00000000 0.00000000
0.85882353 0.00000000 0.00000000
0.89019608 0.00000000 0.00000000
0.92549020 0.00000000 0.00000000
0.95294118 0.00000000 0.00000000
0.98823529 0.00000000 0.00000000
1.00000000 0.00000000 0.00000000
1.00000000 0.00000000 0.00000000
1.00000000 0.00000000 0.00000000
0.04705882 0.11372549 0.01568627
0.07058824 0.11372549 0.01568627
0.09411765 0.11372549 0.01960784
0.11372549 0.11372549 0.01960784
0.13333333 0.11764706 0.01960784
0.14509804 0.12549020 0.01960784
0.18039216 0.12549020 0.02352941
0.22745098 0.11764706 0.02745098
0.27058824 0.11372549 0.02745098
0.30196078 0.10980392 0.03137255
0.34117647 0.10980392 0.03137255
0.37254902 0.10980392 0.02745098
0.40784314 0.10980392 0.02352941
0.43921569 0.10980392 0.01568627
0.47843137 0.10588235 0.00784314
0.50980392 0.10588235 0.00000000
0.54509804 0.09803922 0.00000000
0.57647059 0.09411765 0.00000000
0.61176471 0.09019608 0.00000000
0.65098039 0.08235294 0.00000000
0.68235294 0.07843137 0.00000000
0.72156863 0.06666667 0.00000000
0.75294118 0.06274510 0.00000000
0.79215686 0.05490196 0.00000000
0.82352941 0.04705882 0.00000000
0.85882353 0.03921569 0.00000000
0.89019608 0.03529412 0.00000000
0.92549020 0.03137255 0.00000000
0.95294118 0.02745098 0.00000000
0.98823529 0.02352941 0.00000000
1.00000000 0.01960784 0.00000000
1.00000000 0.01568627 0.00000000
1.00000000 0.00784314 0.00000000
0.03921569 0.14509804 0.01960784
0.07058824 0.14509804 0.02352941
0.10196078 0.14509804 0.02352941
0.12549020 0.14509804 0.02352941
0.15294118 0.14509804 0.02352941
0.16470588 0.14901961 0.02745098
0.18039216 0.15686275 0.02745098
0.20784314 0.16078431 0.02745098
0.26666667 0.14901961 0.02745098
0.30196078 0.14509804 0.03137255
0.34509804 0.14117647 0.02745098
0.37647059 0.14117647 0.02352941
0.41176471 0.14117647 0.01960784
0.43921569 0.14117647 0.01176471
0.47843137 0.14117647 0.00392157
0.50980392 0.14117647 0.00000000
0.54509804 0.13725490 0.00000000
0.57647059 0.13333333 0.00000000
0.61176471 0.13333333 0.00000000
0.65098039 0.12549020 0.00000000
0.68235294 0.12156863 0.00000000
0.72156863 0.11764706 0.00000000
0.75294118 0.11372549 0.00000000
0.79215686 0.10980392 0.00000000
0.82352941 0.10196078 0.00000000
0.85882353 0.09803922 0.00000000
0.89019608 0.09411765 0.00000000
0.92549020 0.09411765 0.00000000
0.95294118 0.09019608 0.00000000
0.98823529 0.08627451 0.00000000
1.00000000 0.08235294 0.00000000
1.00000000 0.07843137 0.00000000
1.00000000 0.07450980 0.00000000
0.04705882 0.18431373 0.02745098
0.07450980 0.18431373 0.02745098
0.10588235 0.18431373 0.02745098
0.12941176 0.18431373 0.03137255
0.16470588 0.18039216 0.03137255
0.18823529 0.18039216 0.03137255
0.20784314 0.18823529 0.03137255
0.22352941 0.19215686 0.02745098
0.24705882 0.20000000 0.02352941
0.29411765 0.19215686 0.02352941
0.34117647 0.18823529 0.02352941
0.37647059 0.18431373 0.01960784
0.41568627 0.18039216 0.01176471
0.44705882 0.18039216 0.00784314
0.48235294 0.18039216 0.00000000
0.50980392 0.18039216 0.00000000
0.54901961 0.18039216 0.00000000
0.58039216 0.18039216 0.00000000
0.61176471 0.17647059 0.00000000
0.65098039 0.17647059 0.00000000
0.68235294 0.17254902 0.00000000
0.72156863 0.16862745 0.00000000
0.75294118 0.16470588 0.00000000
0.79215686 0.16078431 0.00000000
0.82352941 0.15686275 0.00000000
0.86274510 0.15294118 0.00000000
0.89019608 0.14901961 0.00000000
0.92549020 0.14509804 0.00000000
0.95686275 0.14509804 0.00000000
0.98823529 0.14117647 0.00000000
1.00000000 0.13725490 0.00000000
1.00000000 0.13333333 0.00000000
1.00000000 0.13333333 0.00000000
0.05098039 0.21568627 0.03137255
0.07843137 0.21568627 0.03137255
0.10588235 0.21568627 0.03137255
0.13333333 0.21568627 0.03137255
0.16862745 0.21176471 0.03137255
0.19607843 0.21176471 0.03137255
0.22745098 0.21568627 0.03137255
0.24313725 0.21960784 0.02745098
0.25882353 0.22352941 0.02352941
0.27843137 0.23137255 0.01568627
0.33333333 0.22352941 0.01568627
0.37254902 0.21960784 0.01176471
0.41568627 0.21568627 0.00392157
0.44705882 0.21176471 0.00000000
0.48235294 0.21176471 0.00000000
0.51372549 0.21176471 0.00000000
0.54901961 0.21568627 0.00000000
0.58039216 0.21568627 0.00000000
0.61176471 0.21176471 0.00000000
0.65098039 0.21176471 0.00000000
0.68235294 0.20784314 0.00000000
0.72156863 0.20784314 0.00000000
0.75294118 0.20392157 0.00000000
0.79215686 0.20000000 0.00000000
0.82352941 0.19607843 0.00000000
0.86274510 0.19215686 0.00000000
0.89019608 0.18823529 0.00000000
0.92549020 0.18431373 0.00000000
0.95686275 0.18039216 0.00000000
0.98823529 0.18039216 0.00000000
1.00000000 0.17647059 0.00000000
1.00000000 0.17254902 0.00000000
1.00000000 0.16862745 0.00000000
0.06666667 0.25490196 0.02745098
0.08627451 0.25490196 0.02745098
0.11372549 0.25490196 0.02745098
0.13725490 0.25490196 0.02745098
0.17254902 0.25490196 0.02745098
0.20392157 0.25490196 0.02745098
0.23921569 0.25098039 0.02352941
0.26274510 0.25098039 0.02352941
0.28627451 0.25490196 0.01568627
0.30196078 0.26274510 0.01176471
0.31764706 0.27058824 0.00392157
0.35686275 0.26666667 0.00000000
0.41176471 0.25882353 0.00000000
0.44705882 0.25490196 0.00000000
0.48627451 0.25098039 0.00000000
0.51764706 0.25098039 0.00000000
0.55294118 0.25098039 0.00000000
0.58039216 0.25490196 0.00000000
0.61176471 0.25490196 0.00000000
0.65098039 0.25490196 0.00000000
0.68235294 0.25098039 0.00000000
0.72156863 0.25098039 0.00000000
0.75294118 0.24705882 0.00000000
0.79215686 0.24313725 0.00000000
0.82352941 0.24313725 0.00000000
0.85882353 0.23921569 0.00000000
0.89019608 0.23529412 0.00000000
0.92549020 0.23137255 0.00000000
0.95686275 0.22745098 0.00000000
0.98823529 0.22352941 0.00000000
1.00000000 0.21960784 0.00000000
1.00000000 0.21568627 0.00000000
1.00000000 0.21176471 0.00000000
0.07450980 0.28627451 0.02352941
0.09411765 0.28627451 0.02352941
0.11764706 0.28627451 0.02352941
0.14117647 0.28627451 0.02352941
0.17647059 0.28627451 0.01960784
0.20392157 0.28627451 0.01960784
0.24313725 0.28235294 0.01568627
0.27058824 0.28235294 0.01568627
0.30196078 0.28235294 0.01176471
0.32156863 0.28627451 0.00784314
0.33725490 0.29411765 0.00000000
0.34901961 0.29803922 0.00000000
0.39607843 0.29411765 0.00000000
0.44313725 0.29019608 0.00000000
0.48627451 0.28627451 0.00000000
0.52156863 0.28235294 0.00000000
0.55686275 0.28235294 0.00000000
0.58431373 0.28235294 0.00000000
0.61568627 0.28627451 0.00000000
0.65098039 0.28627451 0.00000000
0.68235294 0.28627451 0.00000000
0.72156863 0.28235294 0.00000000
0.75294118 0.28235294 0.00000000
0.78823529 0.27843137 0.00000000
0.81960784 0.27450980 0.00000000
0.85882353 0.27058824 0.00000000
0.89019608 0.27058824 0.00000000
0.92549020 0.26274510 0.00000000
0.95294118 0.25882353 0.00000000
0.98823529 0.25490196 0.00000000
1.00000000 0.25098039 0.00000000
1.00000000 0.24705882 0.00000000
1.00000000 0.24705882 0.00000000
0.09019608 0.32549020 0.01568627
0.10588235 0.32549020 0.01568627
0.12549020 0.32549020 0.01568627
0.14901961 0.32549020 0.01176471
0.17647059 0.32549020 0.01176471
0.20392157 0.32549020 0.01176471
0.24313725 0.32156863 0.00784314
0.27058824 0.32156863 0.00784314
0.30980392 0.32156863 0.00392157
0.33725490 0.32156863 0.00000000
0.36078431 0.32156863 0.00000000
0.37647059 0.32941176 0.00000000
0.39215686 0.33725490 0.00000000
0.41960784 0.33725490 0.00000000
0.48235294 0.32941176 0.00000000
0.51764706 0.32549020 0.00000000
0.56078431 0.32156863 0.00000000
0.59215686 0.32156863 0.00000000
0.61960784 0.32156863 0.00000000
0.65490196 0.32549020 0.00000000
0.68235294 0.32549020 0.00000000
0.72156863 0.32549020 0.00000000
0.74901961 0.32156863 0.00000000
0.78823529 0.32156863 0.00000000
0.81960784 0.31764706 0.00000000
0.85490196 0.31372549 0.00000000
0.88627451 0.30980392 0.00000000
0.92156863 0.30588235 0.00000000
0.95294118 0.30196078 0.00000000
0.98823529 0.29803922 0.00000000
1.00000000 0.29411765 0.00000000
1.00000000 0.29019608 0.00000000
1.00000000 0.28627451 0.00000000
0.09803922 0.35686275 0.00784314
0.11372549 0.35686275 0.00784314
0.13333333 0.35686275 0.00784314
0.15294118 0.35686275 0.00392157
0.18039216 0.35686275 0.00392157
0.20784314 0.35686275 0.00000000
0.24313725 0.35294118 0.00000000
0.27450980 0.35294118 0.00000000
0.31372549 0.35294118 0.00000000
0.34117647 0.34901961 0.00000000
0.37647059 0.35294118 0.00000000
0.39607843 0.35294118 0.00000000
0.41568627 0.36078431 0.00000000
0.42745098 0.36862745 0.00000000
0.46274510 0.36862745 0.00000000
0.50980392 0.36078431 0.00000000
0.55686275 0.35686275 0.00000000
0.59215686 0.35294118 0.00000000
0.62352941 0.35294118 0.00000000
0.65882353 0.35294118 0.00000000
0.68627451 0.35294118 0.00000000
0.72156863 0.35294118 0.00000000
0.74901961 0.35294118 0.00000000
0.78823529 0.35294118 0.00000000
0.81568627 0.34901961 0.00000000
0.85490196 0.34509804 0.00000000
0.88235294 0.34509804 0.00000000
0.92156863 0.33725490 0.00000000
0.94901961 0.33333333 0.00000000
0.98431373 0.32941176 0.00000000
1.00000000 0.32549020 0.00000000
1.00000000 0.32156863 0.00000000
1.00000000 0.31764706 0.00000000
0.10980392 0.39607843 0.00000000
0.12549020 0.39607843 0.00000000
0.14509804 0.39607843 0.00000000
0.16470588 0.39607843 0.00000000
0.18823529 0.39607843 0.00000000
0.21176471 0.39607843 0.00000000
0.24705882 0.39607843 0.00000000
0.27450980 0.39215686 0.00000000
0.31372549 0.39215686 0.00000000
0.34509804 0.39215686 0.00000000
0.38039216 0.38823529 0.00000000
0.41176471 0.38823529 0.00000000
0.43921569 0.39215686 0.00000000
0.45490196 0.39607843 0.00000000
0.47058824 0.40392157 0.00000000
0.49019608 0.40784314 0.00000000
0.54509804 0.40000000 0.00000000
0.58823529 0.39607843 0.00000000
0.61960784 0.39215686 0.00000000
0.65882353 0.39215686 0.00000000
0.69019608 0.39215686 0.00000000
0.72549020 0.39215686 0.00000000
0.74901961 0.39215686 0.00000000
0.78431373 0.39215686 0.00000000
0.81568627 0.38823529 0.00000000
0.85098039 0.38431373 0.00000000
0.88235294 0.38431373 0.00000000
0.91764706 0.37647059 0.00000000
0.94509804 0.37647059 0.00000000
0.98431373 0.36862745 0.00000000
1.00000000 0.36470588 0.00000000
1.00000000 0.36078431 0.00000000
1.00000000 0.35686275 0.00000000
0.12156863 0.42745098 0.00000000
0.13725490 0.42745098 0.00000000
0.15294118 0.42745098 0.00000000
0.16862745 0.42745098 0.00000000
0.19607843 0.42745098 0.00000000
0.21960784 0.42745098 0.00000000
0.25098039 0.42352941 0.00000000
0.27843137 0.42352941 0.00000000
0.31372549 0.42352941 0.00000000
0.34509804 0.42352941 0.00000000
0.38431373 0.42352941 0.00000000
0.41568627 0.41960784 0.00000000
0.44705882 0.41960784 0.00000000
0.47058824 0.42352941 0.00000000
0.49019608 0.42745098 0.00000000
0.50196078 0.43529412 0.00000000
0.52549020 0.43921569 0.00000000
0.57254902 0.43137255 0.00000000
0.61568627 0.42745098 0.00000000
0.65882353 0.42352941 0.00000000
0.69019608 0.41960784 0.00000000
0.72549020 0.41960784 0.00000000
0.75294118 0.41960784 0.00000000
0.78431373 0.41960784 0.00000000
0.81176471 0.41960784 0.00000000
0.84705882 0.41568627 0.00000000
0.87843137 0.41176471 0.00000000
0.91372549 0.40784314 0.00000000
0.94117647 0.40392157 0.00000000
0.98039216 0.40000000 0.00000000
1.00000000 0.39607843 0.00000000
1.00000000 0.39215686 0.00000000
1.00000000 0.38823529 0.00000000
0.13333333 0.46274510 0.00000000
0.14901961 0.46274510 0.00000000
0.16470588 0.46274510 0.00000000
0.18039216 0.46274510 0.00000000
0.20392157 0.46274510 0.00000000
0.22745098 0.46274510 0.00000000
0.25490196 0.46274510 0.00000000
0.28235294 0.46274510 0.00000000
0.31372549 0.46274510 0.00000000
0.34509804 0.46274510 0.00000000
0.38039216 0.46274510 0.00000000
0.41568627 0.45882353 0.00000000
0.45490196 0.45882353 0.00000000
0.48235294 0.45882353 0.00000000
0.50980392 0.45882353 0.00000000
0.52549020 0.46274510 0.00000000
0.54509804 0.47058824 0.00000000
0.55686275 0.47450980 0.00000000
0.59215686 0.47450980 0.00000000
0.65098039 0.46274510 0.00000000
0.68627451 0.45882353 0.00000000
0.72549020 0.45490196 0.00000000
0.75294118 0.45490196 0.00000000
0.78823529 0.45490196 0.00000000
0.81176471 0.45098039 0.00000000
0.84705882 0.45098039 0.00000000
0.87450980 0.45098039 0.00000000
0.90980392 0.44705882 0.00000000
0.93725490 0.44313725 0.00000000
0.97254902 0.43921569 0.00000000
1.00000000 0.43529412 0.00000000
1.00000000 0.43137255 0.00000000
1.00000000 0.42352941 0.00000000
0.14509804 0.49411765 0.00000000
0.15686275 0.49411765 0.00000000
0.17254902 0.49411765 0.00000000
0.18823529 0.49411765 0.00000000
0.21176471 0.49411765 0.00000000
0.23137255 0.49411765 0.00000000
0.26274510 0.49411765 0.00000000
0.28627451 0.49411765 0.00000000
0.31764706 0.49411765 0.00000000
0.34509804 0.49411765 0.00000000
0.38039216 0.49411765 0.00000000
0.41176471 0.49019608 0.00000000
0.45098039 0.49019608 0.00000000
0.48235294 0.48627451 0.00000000
0.51764706 0.48627451 0.00000000
0.54117647 0.48627451 0.00000000
0.56078431 0.49411765 0.00000000
0.57254902 0.49803922 0.00000000
0.58823529 0.50196078 0.00000000
0.63137255 0.50196078 0.00000000
0.67450980 0.49019608 0.00000000
0.72156863 0.48627451 0.00000000
0.75294118 0.48235294 0.00000000
0.78823529 0.48235294 0.00000000
0.81568627 0.47843137 0.00000000
0.84705882 0.47843137 0.00000000
0.87058824 0.47843137 0.00000000
0.90588235 0.47450980 0.00000000
0.93333333 0.47450980 0.00000000
0.96862745 0.47058824 0.00000000
1.00000000 0.46666667 0.00000000
1.00000000 0.45882353 0.00000000
1.00000000 0.45490196 0.00000000
0.15686275 0.53333333 0.00000000
0.16470588 0.53333333 0.00000000
0.18039216 0.53333333 0.00000000
0.19607843 0.53333333 0.00000000
0.21568627 0.53333333 0.00000000
0.23921569 0.53333333 0.00000000
0.26666667 0.53333333 0.00000000
0.29019608 0.53333333 0.00000000
0.32156863 0.52941176 0.00000000
0.34901961 0.52941176 0.00000000
0.38039216 0.52941176 0.00000000
0.41176471 0.52941176 0.00000000
0.44705882 0.52941176 0.00000000
0.47843137 0.52549020 0.00000000
0.51764706 0.52156863 0.00000000
0.54901961 0.52156863 0.00000000
0.57647059 0.52156863 0.00000000
0.59607843 0.52549020 0.00000000
0.60784314 0.52941176 0.00000000
0.62352941 0.53725490 0.00000000
0.64705882 0.53725490 0.00000000
0.70588235 0.52549020 0.00000000
0.74509804 0.52156863 0.00000000
0.78431373 0.51764706 0.00000000
0.81176471 0.51372549 0.00000000
0.84705882 0.51372549 0.00000000
0.87058824 0.50980392 0.00000000
0.90588235 0.50980392 0.00000000
0.92941176 0.50980392 0.00000000
0.96470588 0.50588235 0.00000000
0.99215686 0.50196078 0.00000000
1.00000000 0.49803922 0.00000000
1.00000000 0.49411765 0.00000000
0.16078431 0.56078431 0.00000000
0.17254902 0.56078431 0.00000000
0.18823529 0.56078431 0.00000000
0.20000000 0.56078431 0.00000000
0.22352941 0.56078431 0.00000000
0.24313725 0.56078431 0.00000000
0.27058824 0.56078431 0.00000000
0.29411765 0.56078431 0.00000000
0.32549020 0.56078431 0.00000000
0.34901961 0.56078431 0.00000000
0.38431373 0.55686275 0.00000000
0.41176471 0.55686275 0.00000000
0.44313725 0.55686275 0.00000000
0.47450980 0.55686275 0.00000000
0.51372549 0.55294118 0.00000000
0.54509804 0.54901961 0.00000000
0.58039216 0.54901961 0.00000000
0.60784314 0.54901961 0.00000000
0.62352941 0.55294118 0.00000000
0.63921569 0.55686275 0.00000000
0.65098039 0.56078431 0.00000000
0.68235294 0.56470588 0.00000000
0.72941176 0.55294118 0.00000000
0.77647059 0.54509804 0.00000000
0.80784314 0.54117647 0.00000000
0.84705882 0.53725490 0.00000000
0.87058824 0.53725490 0.00000000
0.90196078 0.53725490 0.00000000
0.92941176 0.53333333 0.00000000
0.96078431 0.53333333 0.00000000
0.98823529 0.52941176 0.00000000
1.00000000 0.52549020 0.00000000
1.00000000 0.52156863 0.00000000
0.16862745 0.58823529 0.00000000
0.17647059 0.58823529 0.00000000
0.19215686 0.58823529 0.00000000
0.20392157 0.58823529 0.00000000
0.22352941 0.58823529 0.00000000
0.24313725 0.58823529 0.00000000
0.27058824 0.58823529 0.00000000
0.29411765 0.58823529 0.00000000
0.32549020 0.58823529 0.00000000
0.34901961 0.58823529 0.00000000
0.38431373 0.58823529 0.00000000
0.40784314 0.58431373 0.00000000
0.44313725 0.58431373 0.00000000
0.47058824 0.58431373 0.00000000
0.50980392 0.58039216 0.00000000
0.54117647 0.58039216 0.00000000
0.58039216 0.57647059 0.00000000
0.60784314 0.57647059 0.00000000
0.63529412 0.57647059 0.00000000
0.65490196 0.57647059 0.00000000
0.66666667 0.58039216 0.00000000
0.68235294 0.58823529 0.00000000
0.70588235 0.58823529 0.00000000
0.76470588 0.57647059 0.00000000
0.80000000 0.57254902 0.00000000
0.83921569 0.56862745 0.00000000
0.87058824 0.56470588 0.00000000
0.90196078 0.56078431 0.00000000
0.92941176 0.56078431 0.00000000
0.96078431 0.56078431 0.00000000
0.98823529 0.55686275 0.00000000
1.00000000 0.55294118 0.00000000
1.00000000 0.55294118 0.00000000
0.17254902 0.62352941 0.00000000
0.18039216 0.62352941 0.00000000
0.19607843 0.62352941 0.00000000
0.20784314 0.62352941 0.00000000
0.22745098 0.62352941 0.00000000
0.24705882 0.62352941 0.00000000
0.27058824 0.62352941 0.00000000
0.29411765 0.62352941 0.00000000
0.32549020 0.62352941 0.00000000
0.34901961 0.61960784 0.00000000
0.38039216 0.61960784 0.00000000
0.40784314 0.61960784 0.00000000
0.44313725 0.61960784 0.00000000
0.47058824 0.61960784 0.00000000
0.50588235 0.61568627 0.00000000
0.53333333 0.61568627 0.00000000
0.57254902 0.61176471 0.00000000
0.60392157 0.60784314 0.00000000
0.63529412 0.60784314 0.00000000
0.66666667 0.60784314 0.00000000
0.68627451 0.60784314 0.00000000
0.70196078 0.61176471 0.00000000
0.71372549 0.61568627 0.00000000
0.73333333 0.61960784 0.00000000
0.78039216 0.61568627 0.00000000
0.83137255 0.60392157 0.00000000
0.86274510 0.60000000 0.00000000
0.90196078 0.59607843 0.00000000
0.92549020 0.59215686 0.00000000
0.96078431 0.59215686 0.00000000
0.98431373 0.59215686 0.00000000
1.00000000 0.58823529 0.00000000
1.00000000 0.58823529 0.00000000
0.17647059 0.65098039 0.00000000
0.18431373 0.65098039 0.00000000
0.19607843 0.65098039 0.00000000
0.20784314 0.65098039 0.00000000
0.22745098 0.65098039 0.00000000
0.24705882 0.65098039 0.00000000
0.27450980 0.65098039 0.00000000
0.29411765 0.64705882 0.00000000
0.32549020 0.64705882 0.00000000
0.34901961 0.64705882 0.00000000
0.38039216 0.64705882 0.00000000
0.40784314 0.64705882 0.00000000
0.43921569 0.64705882 0.00000000
0.46666667 0.64313725 0.00000000
0.50196078 0.64313725 0.00000000
0.52941176 0.64313725 0.00000000
0.56862745 0.63921569 0.00000000
0.60000000 0.63921569 0.00000000
0.63137255 0.63529412 0.00000000
0.66666667 0.63137255 0.00000000
0.69019608 0.63137255 0.00000000
0.71764706 0.63137255 0.00000000
0.72941176 0.63529412 0.00000000
0.74509804 0.64313725 0.00000000
0.75686275 0.64705882 0.00000000
0.81176471 0.63921569 0.00000000
0.85098039 0.63137255 0.00000000
0.89411765 0.62352941 0.00000000
0.92549020 0.61960784 0.00000000
0.95686275 0.61568627 0.00000000
0.98431373 0.61568627 0.00000000
1.00000000 0.61568627 0.00000000
1.00000000 0.61176471 0.00000000
0.17647059 0.68235294 0.00000000
0.18431373 0.68235294 0.00000000
0.19607843 0.68235294 0.00000000
0.21176471 0.68235294 0.00000000
0.22745098 0.68235294 0.00000000
0.24705882 0.68235294 0.00000000
0.27450980 0.68235294 0.00000000
0.29411765 0.68235294 0.00000000
0.32156863 0.68235294 0.00000000
0.34901961 0.67843137 0.00000000
0.38039216 0.67843137 0.00000000
0.40392157 0.67843137 0.00000000
0.43921569 0.67843137 0.00000000
0.46274510 0.67843137 0.00000000
0.49803922 0.67450980 0.00000000
0.52549020 0.67450980 0.00000000
0.56078431 0.67450980 0.00000000
0.59215686 0.67058824 0.00000000
0.61960784 0.67058824 0.00000000
0.65882353 0.66666667 0.00000000
0.69019608 0.66274510 0.00000000
0.72156863 0.66274510 0.00000000
0.74509804 0.66274510 0.00000000
0.76078431 0.66666667 0.00000000
0.77254902 0.67058824 0.00000000
0.78823529 0.67843137 0.00000000
0.82352941 0.67058824 0.00000000
0.88235294 0.66274510 0.00000000
0.91372549 0.65490196 0.00000000
