dist-v2/assets/luts/open/t3-astia-100f.cube
TITLE "Astia 100F Slide Emulation"
LUT_3D_SIZE 5
DOMAIN_MIN 0.0 0.0 0.0
DOMAIN_MAX 1.0 1.0 1.0
# Converted from an MIT-licensed t3mujinpack Hald CLUT by PhotoAtelier.
0.01176471 0.01960784 0.01568627
0.26274510 0.00000000 0.01960784
0.54901961 0.00000000 0.00000000
0.81960784 0.00000000 0.00000000
1.00000000 0.00000000 0.00000000
0.06666667 0.25490196 0.02745098
0.28627451 0.25490196 0.01568627
0.55294118 0.25098039 0.00000000
0.82352941 0.24313725 0.00000000
1.00000000 0.21176471 0.00000000
0.15686275 0.53333333 0.00000000
0.32156863 0.52941176 0.00000000
0.57647059 0.52156863 0.00000000
0.81176471 0.51372549 0.00000000
1.00000000 0.49411765 0.00000000
0.17647059 0.76470588 0.00000000
0.31764706 0.76470588 0.00000000
0.54901961 0.75686275 0.00000000
0.80392157 0.74117647 0.00000000
1.00000000 0.73333333 0.00000000
0.13725490 0.98823529 0.00000000
0.29019608 0.98823529 0.00000000
0.52156863 0.98823529 0.00000000
0.76470588 0.98039216 0.00000000
1.00000000 0.96862745 0.00000000
0.10980392 0.00000000 0.19215686
0.28627451 0.00000000 0.19607843
0.54901961 0.00000000 0.27058824
0.81960784 0.00000000 0.29411765
1.00000000 0.00000000 0.25490196
0.12549020 0.25098039 0.23921569
0.26274510 0.26666667 0.26274510
0.54901961 0.25490196 0.28627451
0.81960784 0.23921569 0.29411765
1.00000000 0.21176471 0.23921569
0.12941176 0.53333333 0.29803922
0.30980392 0.52941176 0.29803922
0.56862745 0.52549020 0.28627451
0.81176471 0.51372549 0.24313725
1.00000000 0.49019608 0.20392157
0.18039216 0.76470588 0.20000000
0.32156863 0.76078431 0.19607843
0.55294118 0.75686275 0.18431373
0.80392157 0.74117647 0.16862745
1.00000000 0.73333333 0.15294118
0.15686275 0.98823529 0.09803922
0.29803922 0.98823529 0.09803922
0.52549020 0.98431373 0.09411765
0.76862745 0.98039216 0.09411765
1.00000000 0.96862745 0.10588235
0.18039216 0.00000000 0.44313725
0.33333333 0.00000000 0.44313725
0.58039216 0.00000000 0.45098039
0.83137255 0.00000000 0.47843137
1.00000000 0.00000000 0.54509804
0.14509804 0.26666667 0.44313725
0.34509804 0.25098039 0.44705882
0.57647059 0.25098039 0.46274510
0.83137255 0.23529412 0.50196078
1.00000000 0.21176471 0.54509804
0.21960784 0.52941176 0.49411765
0.35686275 0.52549020 0.50196078
0.53333333 0.53333333 0.53333333
0.80392157 0.51372549 0.54509804
1.00000000 0.49019608 0.54117647
0.12549020 0.76470588 0.53725490
0.29411765 0.76078431 0.53725490
0.54117647 0.75294118 0.53333333
0.78823529 0.74117647 0.52156863
1.00000000 0.72941176 0.48235294
0.16078431 0.98823529 0.45098039
0.30588235 0.98823529 0.44705882
0.53333333 0.98431373 0.43921569
0.77254902 0.98039216 0.42745098
1.00000000 0.96862745 0.41568627
0.24313725 0.00000000 0.72156863
0.37254902 0.00000000 0.71764706
0.60392157 0.00000000 0.70980392
0.84705882 0.00000000 0.70588235
1.00000000 0.00000000 0.70588235
0.27058824 0.24705882 0.70980392
0.38039216 0.24705882 0.70980392
0.60784314 0.23921569 0.70588235
0.85490196 0.21960784 0.70588235
1.00000000 0.20392157 0.70588235
0.33725490 0.52156863 0.70588235
0.40784314 0.52549020 0.70196078
0.60000000 0.52156863 0.70196078
0.82745098 0.50980392 0.70588235
1.00000000 0.48235294 0.71764706
0.26666667 0.75686275 0.70980392
0.37254902 0.75686275 0.70980392
0.58039216 0.74901961 0.72549020
0.74901961 0.75294118 0.75294118
1.00000000 0.72941176 0.76078431
0.03529412 0.98823529 0.75686275
0.25882353 0.98823529 0.75686275
0.50980392 0.98431373 0.75686275
0.76078431 0.98039216 0.75686275
1.00000000 0.96862745 0.74509804
0.27843137 0.00000000 1.00000000
0.39215686 0.00000000 1.00000000
0.61176471 0.00000000 1.00000000
0.85098039 0.00000000 0.98431373
1.00000000 0.00000000 0.95686275
0.30588235 0.23921569 1.00000000
0.41568627 0.23529412 1.00000000
0.63137255 0.22745098 0.99215686
0.86274510 0.21568627 0.97647059
1.00000000 0.19607843 0.94901961
0.31764706 0.52549020 0.97647059
0.43529412 0.51764706 0.97254902
0.62745098 0.50980392 0.96078431
0.84705882 0.49803922 0.94509804
1.00000000 0.47058824 0.92941176
0.36862745 0.74901961 0.92941176
0.45882353 0.74509804 0.92941176
0.62352941 0.74117647 0.92549020
0.81176471 0.73725490 0.92156863
1.00000000 0.72549020 0.92156863
0.28627451 0.98431373 0.92549020
0.38039216 0.98431373 0.92549020
0.57254902 0.98039216 0.92941176
0.80000000 0.97254902 0.94901961
0.97647059 0.98039216 0.98039216
