dist-v2/assets/luts/open/t3-astia-100f.cube
TITLE "Astia 100F Slide Emulation"
LUT_3D_SIZE 9
DOMAIN_MIN 0.0 0.0 0.0
DOMAIN_MAX 1.0 1.0 1.0
# Converted from an MIT-licensed t3mujinpack Hald CLUT by PhotoAtelier.
0.01176471 0.01960784 0.01568627
0.14117647 0.00000000 0.01568627
0.26274510 0.00000000 0.01960784
0.40392157 0.00000000 0.03137255
0.54901961 0.00000000 0.00000000
0.68235294 0.00000000 0.00000000
0.81960784 0.00000000 0.00000000
0.95294118 0.00000000 0.00000000
1.00000000 0.00000000 0.00000000
0.04705882 0.11372549 0.01568627
0.13333333 0.11764706 0.01960784
0.27058824 0.11372549 0.02745098
0.40784314 0.10980392 0.02352941
0.54509804 0.09803922 0.00000000
0.68235294 0.07843137 0.00000000
0.82352941 0.04705882 0.00000000
0.95294118 0.02745098 0.00000000
1.00000000 0.00784314 0.00000000
0.06666667 0.25490196 0.02745098
0.17254902 0.25490196 0.02745098
0.28627451 0.25490196 0.01568627
0.41176471 0.25882353 0.00000000
0.55294118 0.25098039 0.00000000
0.68235294 0.25098039 0.00000000
0.82352941 0.24313725 0.00000000
0.95686275 0.22745098 0.00000000
1.00000000 0.21176471 0.00000000
0.10980392 0.39607843 0.00000000
0.18823529 0.39607843 0.00000000
0.31372549 0.39215686 0.00000000
0.43921569 0.39215686 0.00000000
0.54509804 0.40000000 0.00000000
0.69019608 0.39215686 0.00000000
0.81568627 0.38823529 0.00000000
0.94509804 0.37647059 0.00000000
1.00000000 0.35686275 0.00000000
0.15686275 0.53333333 0.00000000
0.21568627 0.53333333 0.00000000
0.32156863 0.52941176 0.00000000
0.44705882 0.52941176 0.00000000
0.57647059 0.52156863 0.00000000
0.64705882 0.53725490 0.00000000
0.81176471 0.51372549 0.00000000
0.92941176 0.50980392 0.00000000
1.00000000 0.49411765 0.00000000
0.17647059 0.65098039 0.00000000
0.22745098 0.65098039 0.00000000
0.32549020 0.64705882 0.00000000
0.43921569 0.64705882 0.00000000
0.56862745 0.63921569 0.00000000
0.69019608 0.63137255 0.00000000
0.75686275 0.64705882 0.00000000
0.92549020 0.61960784 0.00000000
1.00000000 0.61176471 0.00000000
0.17647059 0.76470588 0.00000000
0.22745098 0.76470588 0.00000000
0.31764706 0.76470588 0.00000000
0.42745098 0.76078431 0.00000000
0.54901961 0.75686275 0.00000000
0.66666667 0.74901961 0.00000000
0.80392157 0.74117647 0.00000000
0.87058824 0.75294118 0.00000000
1.00000000 0.73333333 0.00000000
0.15686275 0.87450980 0.00000000
0.21176471 0.87450980 0.00000000
0.30196078 0.87450980 0.00000000
0.41568627 0.87058824 0.00000000
0.53333333 0.87058824 0.00000000
0.65098039 0.86666667 0.00000000
0.77647059 0.86274510 0.00000000
0.91372549 0.85098039 0.00000000
0.99607843 0.86274510 0.00000000
0.13725490 0.98823529 0.00000000
0.19215686 0.98823529 0.00000000
0.29019608 0.98823529 0.00000000
0.40392157 0.98823529 0.00000000
0.52156863 0.98823529 0.00000000
0.63921569 0.98431373 0.00000000
0.76470588 0.98039216 0.00000000
0.89019608 0.97647059 0.00000000
1.00000000 0.96862745 0.00000000
0.03137255 0.01568627 0.08627451
0.15686275 0.00000000 0.08627451
0.26666667 0.00000000 0.12156863
0.40392157 0.00000000 0.14117647
0.54901961 0.00000000 0.15294118
0.67843137 0.00000000 0.15294118
0.81960784 0.00000000 0.12941176
0.95294118 0.00000000 0.10588235
1.00000000 0.00000000 0.08627451
0.06666667 0.11372549 0.10980392
0.12156863 0.12549020 0.12156863
0.27450980 0.10980392 0.13725490
0.40784314 0.10980392 0.14901961
0.54509804 0.09803922 0.15686275
0.68235294 0.07843137 0.14901961
0.82352941 0.04705882 0.12549020
0.95294118 0.02745098 0.10196078
1.00000000 0.00784314 0.08627451
0.07058824 0.25490196 0.14901961
0.17647059 0.25490196 0.14901961
0.27843137 0.25882353 0.15294118
0.41176471 0.25490196 0.15686275
0.55294118 0.25490196 0.15686275
0.68235294 0.25098039 0.13725490
0.82352941 0.24313725 0.11372549
0.95686275 0.22745098 0.09411765
1.00000000 0.21176471 0.07450980
0.10196078 0.39607843 0.16078431
0.18431373 0.39607843 0.16078431
0.30980392 0.39215686 0.16078431
0.43137255 0.39215686 0.15294118
0.54901961 0.40000000 0.13333333
0.69019608 0.39215686 0.11372549
0.81568627 0.38823529 0.08627451
0.94509804 0.37254902 0.07058824
1.00000000 0.35686275 0.05490196
0.14901961 0.53333333 0.13333333
0.21568627 0.53333333 0.12941176
0.32156863 0.52941176 0.12156863
0.44705882 0.52549020 0.10980392
0.57647059 0.52156863 0.09019608
0.65098039 0.53725490 0.05882353
0.81176471 0.51372549 0.05098039
0.93333333 0.50980392 0.02352941
1.00000000 0.49411765 0.00784314
0.17647059 0.65098039 0.05490196
0.23137255 0.65098039 0.05098039
0.32549020 0.64705882 0.04313725
0.44313725 0.64705882 0.03137255
0.56862745 0.63921569 0.01960784
0.69019608 0.63137255 0.00392157
0.76078431 0.64705882 0.00000000
0.92549020 0.61960784 0.00000000
1.00000000 0.61176471 0.00000000
0.17647059 0.76470588 0.00000000
0.22745098 0.76470588 0.00000000
0.31764706 0.76078431 0.00000000
0.43137255 0.76078431 0.00000000
0.54901961 0.75686275 0.00000000
0.67058824 0.74901961 0.00000000
0.80392157 0.74117647 0.00000000
0.87058824 0.75294118 0.00000000
1.00000000 0.73333333 0.00000000
0.16470588 0.87450980 0.00000000
0.21568627 0.87450980 0.00000000
0.30588235 0.87450980 0.00000000
0.41568627 0.87058824 0.00000000
0.53725490 0.87058824 0.00000000
0.65098039 0.86666667 0.00000000
0.77647059 0.86274510 0.00000000
0.91764706 0.85098039 0.00000000
0.99607843 0.86274510 0.00000000
0.14117647 0.98823529 0.00000000
0.19607843 0.98823529 0.00000000
0.29411765 0.98823529 0.00000000
0.40392157 0.98823529 0.00000000
0.52549020 0.98431373 0.00000000
0.63921569 0.98431373 0.00000000
0.76470588 0.98039216 0.00000000
0.89019608 0.97647059 0.00000000
1.00000000 0.96862745 0.00000000
0.10980392 0.00000000 0.19215686
0.18039216 0.00000000 0.18823529
0.28627451 0.00000000 0.19607843
0.41568627 0.00000000 0.21960784
0.54901961 0.00000000 0.27058824
0.67843137 0.00000000 0.28627451
0.81960784 0.00000000 0.29411765
0.94901961 0.00000000 0.29019608
1.00000000 0.00000000 0.25490196
0.07450980 0.12156863 0.19215686
0.16470588 0.11764706 0.19607843
0.29411765 0.10588235 0.20784314
0.41568627 0.10980392 0.24313725
0.54901961 0.09803922 0.27450980
0.68235294 0.07450980 0.28627451
0.81960784 0.05098039 0.29803922
0.95294118 0.03137255 0.28627451
1.00000000 0.01176471 0.25098039
0.12549020 0.25098039 0.23921569
0.20000000 0.25098039 0.24705882
0.26274510 0.26666667 0.26274510
0.41568627 0.25490196 0.27843137
0.54901961 0.25490196 0.28627451
0.67843137 0.25098039 0.29411765
0.81960784 0.23921569 0.29411765
0.95294118 0.22745098 0.27450980
1.00000000 0.21176471 0.23921569
0.10588235 0.39607843 0.28627451
0.18823529 0.39607843 0.28627451
0.31372549 0.39215686 0.29019608
0.41960784 0.39607843 0.29411765
0.54901961 0.39607843 0.29803922
0.68627451 0.39215686 0.29803922
0.81176471 0.38823529 0.27843137
0.94509804 0.37254902 0.25098039
1.00000000 0.35294118 0.22352941
0.12941176 0.53333333 0.29803922
0.20000000 0.53333333 0.29803922
0.30980392 0.52941176 0.29803922
0.44705882 0.52549020 0.29411765
0.56862745 0.52549020 0.28627451
0.65490196 0.53333333 0.26666667
0.81176471 0.51372549 0.24313725
0.93333333 0.50588235 0.21960784
1.00000000 0.49019608 0.20392157
0.16078431 0.65098039 0.26666667
0.21960784 0.65098039 0.26666667
0.32156863 0.64705882 0.25882353
0.43921569 0.64313725 0.25098039
0.57254902 0.63921569 0.23529412
0.69019608 0.63137255 0.21960784
0.76470588 0.64313725 0.20000000
0.92549020 0.61960784 0.19215686
1.00000000 0.61176471 0.18039216
0.18039216 0.76470588 0.20000000
0.23137255 0.76470588 0.20000000
0.32156863 0.76078431 0.19607843
0.43137255 0.76078431 0.18823529
0.55294118 0.75686275 0.18431373
0.67450980 0.74901961 0.17647059
0.80392157 0.74117647 0.16862745
0.87058824 0.75686275 0.14901961
1.00000000 0.73333333 0.15294118
0.17254902 0.87450980 0.14901961
0.22352941 0.87450980 0.14509804
0.30980392 0.87450980 0.14509804
0.41960784 0.87058824 0.14117647
0.53725490 0.87058824 0.13725490
0.65490196 0.86666667 0.13333333
0.78039216 0.86274510 0.12941176
0.91764706 0.85098039 0.12941176
0.99215686 0.86666667 0.11764706
0.15686275 0.98823529 0.09803922
0.20784314 0.98823529 0.09803922
0.29803922 0.98823529 0.09803922
0.40784314 0.98823529 0.09411765
0.52549020 0.98431373 0.09411765
0.64313725 0.98431373 0.09411765
0.76862745 0.98039216 0.09411765
0.89411765 0.97647059 0.09803922
1.00000000 0.96862745 0.10588235
0.14509804 0.00000000 0.30980392
0.20392157 0.00000000 0.30980392
0.30980392 0.00000000 0.30980392
0.43529412 0.00000000 0.32156863
0.56470588 0.00000000 0.33725490
0.69019608 0.00000000 0.36470588
0.81960784 0.00000000 0.41176471
0.94901961 0.00000000 0.42352941
1.00000000 0.00000000 0.42352941
0.15294118 0.10980392 0.30980392
0.21568627 0.10196078 0.30980392
0.31372549 0.10196078 0.31764706
0.43137255 0.10196078 0.32941176
0.56470588 0.08627451 0.34509804
0.69019608 0.06666667 0.38039216
0.81960784 0.04705882 0.41568627
0.94901961 0.03529412 0.42352941
1.00000000 0.01960784 0.42352941
0.18039216 0.25098039 0.32549020
0.21176471 0.25490196 0.32941176
0.29411765 0.26274510 0.33333333
0.43921569 0.25098039 0.34509804
0.55686275 0.25490196 0.37254902
0.68235294 0.25098039 0.41176471
0.81960784 0.23921569 0.42352941
0.95294118 0.22745098 0.42745098
1.00000000 0.21568627 0.41960784
0.17254902 0.39215686 0.36470588
0.23529412 0.39215686 0.37254902
0.33333333 0.38823529 0.38431373
0.40000000 0.40392157 0.40392157
0.55686275 0.39607843 0.41568627
0.68235294 0.39215686 0.42352941
0.81176471 0.38823529 0.42745098
0.94509804 0.37254902 0.42352941
1.00000000 0.35294118 0.40784314
0.14117647 0.53333333 0.41960784
0.20784314 0.53333333 0.42352941
0.31372549 0.52941176 0.42352941
0.45098039 0.52549020 0.42352941
0.54901961 0.52941176 0.42352941
0.66274510 0.52549020 0.42352941
0.80784314 0.51372549 0.41960784
0.92941176 0.50588235 0.40392157
1.00000000 0.49019608 0.37647059
0.13725490 0.65098039 0.42352941
0.20392157 0.64705882 0.42352941
0.30980392 0.64705882 0.42352941
0.43137255 0.64313725 0.42352941
0.56862745 0.63529412 0.41568627
0.67843137 0.63529412 0.40784314
0.76862745 0.63921569 0.38823529
0.92549020 0.61960784 0.36470588
1.00000000 0.61176471 0.33725490
0.15294118 0.76470588 0.39215686
0.20784314 0.76470588 0.39215686
0.30980392 0.76078431 0.38823529
0.42352941 0.76078431 0.38039216
0.54901961 0.75686275 0.36862745
0.67450980 0.74901961 0.35294118
0.80392157 0.74117647 0.33725490
0.86666667 0.75686275 0.31764706
1.00000000 0.72941176 0.30980392
0.17254902 0.87450980 0.32549020
0.22352941 0.87450980 0.32549020
0.31372549 0.87450980 0.32156863
0.42352941 0.87058824 0.31764706
0.54117647 0.87058824 0.30980392
0.65882353 0.86666667 0.30588235
0.78431373 0.85882353 0.29803922
0.91764706 0.85098039 0.29411765
0.98823529 0.86666667 0.28235294
0.16862745 0.98823529 0.28627451
0.21960784 0.98823529 0.28235294
0.30588235 0.98823529 0.28235294
0.41568627 0.98823529 0.28235294
0.53333333 0.98431373 0.27843137
0.64705882 0.98431373 0.27843137
0.76862745 0.98039216 0.27450980
0.89803922 0.97647059 0.27450980
1.00000000 0.96862745 0.27450980
0.18039216 0.00000000 0.44313725
0.23529412 0.00000000 0.44313725
0.33333333 0.00000000 0.44313725
0.45490196 0.00000000 0.44313725
0.58039216 0.00000000 0.45098039
0.70196078 0.00000000 0.46274510
0.83137255 0.00000000 0.47843137
0.95294118 0.00000000 0.51764706
1.00000000 0.00000000 0.54509804
0.19607843 0.09803922 0.43921569
0.24313725 0.09803922 0.44313725
0.33333333 0.09803922 0.44313725
0.45098039 0.09019608 0.44705882
0.58039216 0.07058824 0.45098039
0.70588235 0.04705882 0.46666667
0.83529412 0.02745098 0.48627451
0.95294118 0.03137255 0.52549020
1.00000000 0.01960784 0.54509804
0.14509804 0.26666667 0.44313725
0.22745098 0.25882353 0.44705882
0.34509804 0.25098039 0.44705882
0.45882353 0.24705882 0.45490196
0.57647059 0.25098039 0.46274510
0.70196078 0.24313725 0.47843137
0.83137255 0.23529412 0.50196078
0.95294118 0.22352941 0.54117647
1.00000000 0.21176471 0.54509804
0.25098039 0.38823529 0.45882353
0.29019608 0.38823529 0.46274510
0.34509804 0.39215686 0.46666667
0.42745098 0.40392157 0.47058824
0.58431373 0.38823529 0.48235294
0.69411765 0.39215686 0.50588235
0.81568627 0.38431373 0.53725490
0.94509804 0.36862745 0.54509804
1.00000000 0.35294118 0.54509804
0.21960784 0.52941176 0.49411765
0.26666667 0.52941176 0.49411765
0.35686275 0.52549020 0.50196078
0.46666667 0.52156863 0.51764706
0.53333333 0.53333333 0.53333333
0.67450980 0.52156863 0.54117647
0.80392157 0.51372549 0.54509804
0.92549020 0.50588235 0.54117647
1.00000000 0.49019608 0.54117647
0.15686275 0.64705882 0.54117647
0.21568627 0.64705882 0.54117647
0.31372549 0.64705882 0.54509804
0.43529412 0.64313725 0.54509804
0.57254902 0.63529412 0.54509804
0.65882353 0.63921569 0.54117647
0.78039216 0.63529412 0.54117647
0.91764706 0.61960784 0.53333333
1.00000000 0.61176471 0.52156863
0.12549020 0.76470588 0.53725490
0.19215686 0.76078431 0.53725490
0.29411765 0.76078431 0.53725490
0.41568627 0.75686275 0.53725490
0.54117647 0.75294118 0.53333333
0.67058824 0.74509804 0.52941176
0.78823529 0.74117647 0.52156863
0.87058824 0.75294118 0.50196078
1.00000000 0.72941176 0.48235294
0.11764706 0.87450980 0.51372549
0.18431373 0.87450980 0.50980392
0.29019608 0.87450980 0.50980392
0.40784314 0.87058824 0.50196078
0.53333333 0.86666667 0.49411765
0.65098039 0.86666667 0.48235294
0.78823529 0.85882353 0.47058824
0.91764706 0.85098039 0.45490196
0.98039216 0.87058824 0.43529412
0.16078431 0.98823529 0.45098039
0.21176471 0.98823529 0.45098039
0.30588235 0.98823529 0.44705882
0.41568627 0.98823529 0.44313725
0.53333333 0.98431373 0.43921569
0.64705882 0.98431373 0.43137255
0.77254902 0.98039216 0.42745098
0.90196078 0.97647059 0.41960784
1.00000000 0.96862745 0.41568627
0.21176471 0.00000000 0.57647059
0.26274510 0.00000000 0.57647059
0.35294118 0.00000000 0.57254902
0.47058824 0.00000000 0.57254902
0.59215686 0.00000000 0.57254902
0.71372549 0.00000000 0.57254902
0.83921569 0.00000000 0.58039216
0.96470588 0.00000000 0.59215686
1.00000000 0.00000000 0.60392157
0.21960784 0.09803922 0.57254902
0.26666667 0.09411765 0.57254902
0.35686275 0.09019608 0.57254902
0.47058824 0.07450980 0.57254902
0.59607843 0.05098039 0.57254902
0.71764706 0.02352941 0.57647059
0.84313725 0.01568627 0.58431373
0.96470588 0.00784314 0.59215686
1.00000000 0.00000000 0.60784314
0.24313725 0.24705882 0.56862745
0.28627451 0.24705882 0.56862745
0.36862745 0.24705882 0.56862745
0.47058824 0.24705882 0.57254902
0.59215686 0.24705882 0.57647059
0.71372549 0.23921569 0.58039216
0.84313725 0.22745098 0.58823529
0.96470588 0.21568627 0.60000000
1.00000000 0.20784314 0.62352941
0.25882353 0.39215686 0.57254902
0.27843137 0.39607843 0.57254902
0.32156863 0.40392157 0.57647059
0.47843137 0.39215686 0.57647059
0.60000000 0.38823529 0.58431373
0.70588235 0.38823529 0.58823529
0.83137255 0.38039216 0.59607843
0.95686275 0.36470588 0.61176471
1.00000000 0.34901961 0.64705882
0.28627451 0.52549020 0.58431373
0.32549020 0.52549020 0.58431373
0.40392157 0.52156863 0.58823529
0.47843137 0.52549020 0.58823529
0.54901961 0.53725490 0.59215686
0.70196078 0.51764706 0.60000000
0.81568627 0.50980392 0.61960784
0.92941176 0.50196078 0.64705882
1.00000000 0.48627451 0.65098039
0.25098039 0.64313725 0.60000000
0.28627451 0.64313725 0.60000000
0.36470588 0.64313725 0.60392157
0.47058824 0.63921569 0.61568627
0.58431373 0.63137255 0.63137255
0.63921569 0.64313725 0.64313725
0.78823529 0.62745098 0.65098039
0.91764706 0.61960784 0.65098039
1.00000000 0.61176471 0.64705882
0.14901961 0.76078431 0.64705882
0.20784314 0.76078431 0.64705882
0.30588235 0.76078431 0.64705882
0.41960784 0.75686275 0.64705882
0.54509804 0.75294118 0.64705882
0.67450980 0.74509804 0.64705882
0.76862745 0.74509804 0.64705882
0.88627451 0.74509804 0.64313725
1.00000000 0.72941176 0.63921569
0.09019608 0.87450980 0.64313725
0.16862745 0.87450980 0.64313725
0.27843137 0.87058824 0.64313725
0.40000000 0.87058824 0.64313725
0.52156863 0.86666667 0.64313725
0.64313725 0.86274510 0.63921569
0.78431373 0.85490196 0.63529412
0.90196078 0.85490196 0.62745098
0.98039216 0.86666667 0.60784314
0.07058824 0.98823529 0.62352941
0.15686275 0.98823529 0.62352941
0.27058824 0.98823529 0.62352941
0.39215686 0.98823529 0.61960784
0.51764706 0.98431373 0.61176471
0.63921569 0.98431373 0.60392157
0.76862745 0.98039216 0.59215686
0.90196078 0.97254902 0.58039216
1.00000000 0.96862745 0.56470588
0.24313725 0.00000000 0.72156863
0.29019608 0.00000000 0.71764706
0.37254902 0.00000000 0.71764706
0.48235294 0.00000000 0.71372549
0.60392157 0.00000000 0.70980392
0.72156863 0.00000000 0.70588235
0.84705882 0.00000000 0.70588235
0.96862745 0.00000000 0.70588235
1.00000000 0.00000000 0.70588235
0.25098039 0.08235294 0.71764706
0.29019608 0.07843137 0.71764706
0.37647059 0.07058824 0.71372549
0.48627451 0.05098039 0.70980392
0.60784314 0.02745098 0.70980392
0.72549020 0.01176471 0.70588235
0.85098039 0.00392157 0.70588235
0.96862745 0.00000000 0.70588235
1.00000000 0.00000000 0.70588235
0.27058824 0.24705882 0.70980392
0.30588235 0.24705882 0.70980392
0.38039216 0.24705882 0.70980392
0.48627451 0.24313725 0.70588235
0.60784314 0.23921569 0.70588235
0.72941176 0.23137255 0.70588235
0.85490196 0.21960784 0.70588235
0.97254902 0.21176471 0.70588235
1.00000000 0.20392157 0.70588235
0.23137255 0.40000000 0.70588235
0.29803922 0.39607843 0.70588235
0.39607843 0.38823529 0.70588235
0.50196078 0.38823529 0.70588235
0.60784314 0.38823529 0.70588235
0.72156863 0.38431373 0.70588235
0.84705882 0.37254902 0.70588235
0.96862745 0.35686275 0.70588235
1.00000000 0.34509804 0.70980392
0.33725490 0.52156863 0.70588235
0.36470588 0.52156863 0.70588235
0.40784314 0.52549020 0.70196078
0.44705882 0.53725490 0.70196078
0.60000000 0.52156863 0.70196078
0.71764706 0.51372549 0.70196078
0.82745098 0.50980392 0.70588235
0.94901961 0.49803922 0.70980392
1.00000000 0.48235294 0.71764706
0.30588235 0.64313725 0.70196078
0.34117647 0.63921569 0.70196078
0.41568627 0.63529412 0.70196078
0.51372549 0.63137255 0.70196078
0.58823529 0.63529412 0.70196078
0.65490196 0.64313725 0.70588235
0.81568627 0.62352941 0.70980392
0.92549020 0.61568627 0.72549020
1.00000000 0.60784314 0.75294118
0.26666667 0.75686275 0.70980392
0.30196078 0.75686275 0.70980392
0.37254902 0.75686275 0.70980392
0.46666667 0.75294118 0.71372549
0.58039216 0.74901961 0.72549020
0.69019608 0.74117647 0.73725490
0.74901961 0.75294118 0.75294118
0.89803922 0.73725490 0.76078431
1.00000000 0.72941176 0.76078431
0.13725490 0.87058824 0.75686275
0.19607843 0.87058824 0.75686275
0.29411765 0.87058824 0.75686275
0.40784314 0.87058824 0.75686275
0.52941176 0.86666667 0.76078431
0.65098039 0.86274510 0.76078431
0.78823529 0.85490196 0.76078431
0.88235294 0.85882353 0.75686275
0.99607843 0.85882353 0.75686275
0.03529412 0.98823529 0.75686275
0.14117647 0.98823529 0.75686275
0.25882353 0.98823529 0.75686275
0.38431373 0.98431373 0.75686275
0.50980392 0.98431373 0.75686275
0.63137255 0.98039216 0.75686275
0.76078431 0.98039216 0.75686275
0.89803922 0.97254902 0.75294118
1.00000000 0.96862745 0.74509804
0.26666667 0.00000000 0.86666667
0.30588235 0.00000000 0.86274510
0.38823529 0.00000000 0.86274510
0.49019608 0.00000000 0.85882353
0.61176471 0.00000000 0.85490196
0.72941176 0.00000000 0.85098039
0.85098039 0.00000000 0.84313725
0.97254902 0.00000000 0.83529412
1.00000000 0.00000000 0.82745098
0.27450980 0.06274510 0.86274510
0.31372549 0.05882353 0.86274510
0.39215686 0.04705882 0.85882353
0.49803922 0.03137255 0.85490196
0.61568627 0.01176471 0.85098039
0.73333333 0.00392157 0.84705882
0.85490196 0.00000000 0.84313725
0.97254902 0.00000000 0.83529412
1.00000000 0.00000000 0.82352941
0.28235294 0.24313725 0.85490196
0.31764706 0.24313725 0.85490196
0.39607843 0.24313725 0.85490196
0.50196078 0.23921569 0.85098039
0.62352941 0.23137255 0.84705882
0.74117647 0.22352941 0.84313725
0.85882353 0.21568627 0.83529412
0.97647059 0.20784314 0.82745098
1.00000000 0.20000000 0.82352941
0.31764706 0.38823529 0.84705882
0.35294118 0.38431373 0.84705882
0.41960784 0.38431373 0.84705882
0.50980392 0.38823529 0.84313725
0.61960784 0.38431373 0.83921569
0.73333333 0.37647059 0.83529412
0.85490196 0.36470588 0.82745098
0.97647059 0.35294118 0.82352941
1.00000000 0.34117647 0.81568627
0.29803922 0.52941176 0.83529412
0.31372549 0.53333333 0.83529412
0.35686275 0.53725490 0.83137255
0.50196078 0.52156863 0.83137255
0.62352941 0.51372549 0.82745098
0.72549020 0.50980392 0.82352941
0.83921569 0.50196078 0.81960784
0.96078431 0.49019608 0.81568627
1.00000000 0.47450980 0.81568627
0.36862745 0.63529412 0.81960784
0.39607843 0.63137255 0.81960784
0.45098039 0.63137255 0.81960784
0.51372549 0.63137255 0.81960784
0.56078431 0.64313725 0.81568627
0.70588235 0.62745098 0.81176471
0.83137255 0.61568627 0.81176471
0.94117647 0.61176471 0.81176471
1.00000000 0.60000000 0.81568627
0.32156863 0.75294118 0.81176471
0.34901961 0.75294118 0.81176471
0.41176471 0.75294118 0.81176471
0.50588235 0.74901961 0.81176471
0.61960784 0.74117647 0.81176471
0.69803922 0.74509804 0.81176471
0.76470588 0.75294118 0.81176471
0.92549020 0.73333333 0.81960784
1.00000000 0.72549020 0.83529412
0.27450980 0.87058824 0.81568627
0.30588235 0.86666667 0.81568627
0.37254902 0.86666667 0.81568627
0.46666667 0.86666667 0.81960784
0.57254902 0.86274510 0.82352941
0.68627451 0.85882353 0.83137255
0.80000000 0.85098039 0.85098039
0.86274510 0.86666667 0.86666667
1.00000000 0.85098039 0.87450980
0.12549020 0.98823529 0.86666667
0.18823529 0.98823529 0.86666667
0.28627451 0.98431373 0.86666667
0.40000000 0.98431373 0.87058824
0.51764706 0.98431373 0.87058824
0.63529412 0.98039216 0.87450980
0.76470588 0.97647059 0.87450980
0.90588235 0.96862745 0.87450980
0.99607843 0.97647059 0.87450980
0.27843137 0.00000000 1.00000000
0.31764706 0.00000000 1.00000000
0.39215686 0.00000000 1.00000000
0.49803922 0.00000000 1.00000000
0.61176471 0.00000000 1.00000000
0.72941176 0.00000000 0.99607843
0.85098039 0.00000000 0.98431373
0.97254902 0.00000000 0.97254902
1.00000000 0.00000000 0.95686275
0.29411765 0.03921569 1.00000000
0.32941176 0.03529412 1.00000000
0.40392157 0.03137255 1.00000000
0.50588235 0.01960784 1.00000000
0.61960784 0.01568627 0.99607843
0.73333333 0.01176471 0.99215686
0.85490196 0.00784314 0.98431373
0.97254902 0.00000000 0.96862745
1.00000000 0.00000000 0.95686275
0.30588235 0.23921569 1.00000000
0.34117647 0.23921569 1.00000000
0.41568627 0.23529412 1.00000000
0.51764706 0.23137255 0.99607843
0.63137255 0.22745098 0.99215686
0.74509804 0.21960784 0.98823529
0.86274510 0.21568627 0.97647059
0.97647059 0.20784314 0.96470588
1.00000000 0.19607843 0.94901961
0.32549020 0.38823529 0.99215686
0.35686275 0.38823529 0.99215686
0.41960784 0.38823529 0.99215686
0.51764706 0.38431373 0.98823529
0.62745098 0.38039216 0.98039216
0.74117647 0.37254902 0.97254902
0.86274510 0.36078431 0.96470588
0.98039216 0.34901961 0.95294118
1.00000000 0.33725490 0.94117647
0.31764706 0.52549020 0.97647059
0.35686275 0.52156863 0.97254902
0.43529412 0.51764706 0.97254902
0.52941176 0.51372549 0.96862745
0.62745098 0.50980392 0.96078431
0.72941176 0.50588235 0.95686275
0.84705882 0.49803922 0.94509804
0.96862745 0.48235294 0.93725490
1.00000000 0.47058824 0.92941176
0.38039216 0.63137255 0.95294118
0.39215686 0.63137255 0.95294118
0.42352941 0.63529412 0.94901961
0.45882353 0.64313725 0.94509804
0.60784314 0.63137255 0.94117647
0.72941176 0.61960784 0.93725490
0.83529412 0.61568627 0.92941176
0.94901961 0.60784314 0.92549020
1.00000000 0.59607843 0.92156863
0.36862745 0.74901961 0.92941176
0.39607843 0.74901961 0.92941176
0.45882353 0.74509804 0.92941176
0.54117647 0.74117647 0.92549020
0.62352941 0.74117647 0.92549020
0.67058824 0.75294118 0.92156863
0.81176471 0.73725490 0.92156863
0.94117647 0.72941176 0.92156863
1.00000000 0.72549020 0.92156863
0.33333333 0.86666667 0.91764706
0.36078431 0.86666667 0.91764706
0.41568627 0.86274510 0.91764706
0.50196078 0.86274510 0.91764706
0.60784314 0.85882353 0.91764706
0.72156863 0.85098039 0.92156863
0.80784314 0.85490196 0.92156863
0.87450980 0.86666667 0.92549020
1.00000000 0.84705882 0.93333333
0.28627451 0.98431373 0.92549020
0.31764706 0.98431373 0.92549020
0.38039216 0.98431373 0.92549020
0.46666667 0.98039216 0.92941176
0.57254902 0.98039216 0.92941176
0.67843137 0.97647059 0.93725490
0.80000000 0.97254902 0.94901961
0.91764706 0.96862745 0.96470588
0.97647059 0.98039216 0.98039216
